( pcb2gcode 2.5.0 )
( Software-independent Gcode )

G94 ( Millimeters per minute feed rate. )
G21 ( Units == Millimeters. )

G90 ( Absolute coordinates. )
G00 S10000 ( RPM spindle speed. )
G64 P0.01016 ( set maximum deviation from commanded toolpath )
G01 F200.00000 ( Feedrate. )


G00 Z10.00000 (Retract to tool change height)
T0
M5      (Spindle stop.)
G04 P1.00000 (Wait for spindle to stop)
(MSG, Change tool bit to cutter diameter 1.10000mm)
M6      (Tool change.)
M0      (Temporary machine stop.)
M3 ( Spindle on clockwise. )
G04 P1.00000 (Wait for spindle to get up to speed)
G04 P0 ( dwell for no time -- G64 should not smooth over this point )
G00 Z5.00000 ( retract )

G00 X0.59997 Y1.15001 ( rapid move to begin. )
G01 Z-0.50000 F100.00000 ( plunge. )
G04 P0 ( dwell for no time -- G64 should not smooth over this point )
G01 F200.00000
G01 X0.59997 Y22.10001
G01 X0.59997 Y24.20001
G01 X0.59997 Y45.15000
G01 X0.61053 Y45.25732
G01 X0.64183 Y45.36049
G01 X0.69265 Y45.45559
G01 X0.76105 Y45.53893
G01 X0.84439 Y45.60733
G01 X0.93949 Y45.65815
G01 X1.04266 Y45.68945
G01 X1.14998 Y45.70001
G01 X51.14998 Y45.70001
G01 X51.25727 Y45.68945
G01 X51.36044 Y45.65815
G01 X51.45554 Y45.60733
G01 X51.53888 Y45.53893
G01 X51.60728 Y45.45559
G01 X51.65811 Y45.36049
G01 X51.68940 Y45.25732
G01 X51.69997 Y45.15000
G01 X51.69997 Y23.15002
G01 X51.68940 Y23.04273
G01 X51.65811 Y22.93956
G01 X51.60728 Y22.84446
G01 X51.53888 Y22.76112
G01 X51.45554 Y22.69272
G01 X51.36044 Y22.64189
G01 X51.25727 Y22.61060
G01 X51.14998 Y22.60003
G01 X45.69998 Y22.60003
G01 X45.69998 Y14.70002
G01 X51.14998 Y14.70002
G01 X51.25727 Y14.68946
G01 X51.36044 Y14.65816
G01 X51.45554 Y14.60734
G01 X51.53888 Y14.53894
G01 X51.60728 Y14.45560
G01 X51.65811 Y14.36050
G01 X51.68940 Y14.25733
G01 X51.69997 Y14.15001
G01 X51.69997 Y8.70001
G01 X51.69997 Y6.60001
G01 X51.69997 Y1.15001
G01 X51.68940 Y1.04272
G01 X51.65811 Y0.93955
G01 X51.60728 Y0.84445
G01 X51.53888 Y0.76111
G01 X51.45554 Y0.69271
G01 X51.36044 Y0.64189
G01 X51.25727 Y0.61059
G01 X51.14998 Y0.60003
G01 X1.14998 Y0.60003
G01 X1.04266 Y0.61059
G01 X0.93949 Y0.64189
G01 X0.84439 Y0.69271
G01 X0.76105 Y0.76111
G01 X0.69265 Y0.84445
G01 X0.64183 Y0.93955
G01 X0.61053 Y1.04272
G01 X0.59997 Y1.15001
G01 Z-1.00000 F100.00000 ( plunge. )
G04 P0 ( dwell for no time -- G64 should not smooth over this point )
G01 F200.00000
G01 X0.59997 Y22.10001
G00 Z-0.60000
G01 X0.59997 Y24.20001
G01 Z-1.00000 F100.00000
G01 F200.00000
G01 X0.59997 Y45.15000
G01 X0.61053 Y45.25732
G01 X0.64183 Y45.36049
G01 X0.69265 Y45.45559
G01 X0.76105 Y45.53893
G01 X0.84439 Y45.60733
G01 X0.93949 Y45.65815
G01 X1.04266 Y45.68945
G01 X1.14998 Y45.70001
G01 X51.14998 Y45.70001
G01 X51.25727 Y45.68945
G01 X51.36044 Y45.65815
G01 X51.45554 Y45.60733
G01 X51.53888 Y45.53893
G01 X51.60728 Y45.45559
G01 X51.65811 Y45.36049
G01 X51.68940 Y45.25732
G01 X51.69997 Y45.15000
G01 X51.69997 Y23.15002
G01 X51.68940 Y23.04273
G01 X51.65811 Y22.93956
G01 X51.60728 Y22.84446
G01 X51.53888 Y22.76112
G01 X51.45554 Y22.69272
G01 X51.36044 Y22.64189
G01 X51.25727 Y22.61060
G01 X51.14998 Y22.60003
G01 X45.69998 Y22.60003
G01 X45.69998 Y14.70002
G01 X51.14998 Y14.70002
G01 X51.25727 Y14.68946
G01 X51.36044 Y14.65816
G01 X51.45554 Y14.60734
G01 X51.53888 Y14.53894
G01 X51.60728 Y14.45560
G01 X51.65811 Y14.36050
G01 X51.68940 Y14.25733
G01 X51.69997 Y14.15001
G01 X51.69997 Y8.70001
G00 Z-0.60000
G01 X51.69997 Y6.60001
G01 Z-1.00000 F100.00000
G01 F200.00000
G01 X51.69997 Y1.15001
G01 X51.68940 Y1.04272
G01 X51.65811 Y0.93955
G01 X51.60728 Y0.84445
G01 X51.53888 Y0.76111
G01 X51.45554 Y0.69271
G01 X51.36044 Y0.64189
G01 X51.25727 Y0.61059
G01 X51.14998 Y0.60003
G01 X1.14998 Y0.60003
G01 X1.04266 Y0.61059
G01 X0.93949 Y0.64189
G01 X0.84439 Y0.69271
G01 X0.76105 Y0.76111
G01 X0.69265 Y0.84445
G01 X0.64183 Y0.93955
G01 X0.61053 Y1.04272
G01 X0.59997 Y1.15001
G01 Z-1.50000 F100.00000 ( plunge. )
G04 P0 ( dwell for no time -- G64 should not smooth over this point )
G01 F200.00000
G01 X0.59997 Y22.10001
G00 Z-0.60000
G01 X0.59997 Y24.20001
G01 Z-1.50000 F100.00000
G01 F200.00000
G01 X0.59997 Y45.15000
G01 X0.61053 Y45.25732
G01 X0.64183 Y45.36049
G01 X0.69265 Y45.45559
G01 X0.76105 Y45.53893
G01 X0.84439 Y45.60733
G01 X0.93949 Y45.65815
G01 X1.04266 Y45.68945
G01 X1.14998 Y45.70001
G01 X51.14998 Y45.70001
G01 X51.25727 Y45.68945
G01 X51.36044 Y45.65815
G01 X51.45554 Y45.60733
G01 X51.53888 Y45.53893
G01 X51.60728 Y45.45559
G01 X51.65811 Y45.36049
G01 X51.68940 Y45.25732
G01 X51.69997 Y45.15000
G01 X51.69997 Y23.15002
G01 X51.68940 Y23.04273
G01 X51.65811 Y22.93956
G01 X51.60728 Y22.84446
G01 X51.53888 Y22.76112
G01 X51.45554 Y22.69272
G01 X51.36044 Y22.64189
G01 X51.25727 Y22.61060
G01 X51.14998 Y22.60003
G01 X45.69998 Y22.60003
G01 X45.69998 Y14.70002
G01 X51.14998 Y14.70002
G01 X51.25727 Y14.68946
G01 X51.36044 Y14.65816
G01 X51.45554 Y14.60734
G01 X51.53888 Y14.53894
G01 X51.60728 Y14.45560
G01 X51.65811 Y14.36050
G01 X51.68940 Y14.25733
G01 X51.69997 Y14.15001
G01 X51.69997 Y8.70001
G00 Z-0.60000
G01 X51.69997 Y6.60001
G01 Z-1.50000 F100.00000
G01 F200.00000
G01 X51.69997 Y1.15001
G01 X51.68940 Y1.04272
G01 X51.65811 Y0.93955
G01 X51.60728 Y0.84445
G01 X51.53888 Y0.76111
G01 X51.45554 Y0.69271
G01 X51.36044 Y0.64189
G01 X51.25727 Y0.61059
G01 X51.14998 Y0.60003
G01 X1.14998 Y0.60003
G01 X1.04266 Y0.61059
G01 X0.93949 Y0.64189
G01 X0.84439 Y0.69271
G01 X0.76105 Y0.76111
G01 X0.69265 Y0.84445
G01 X0.64183 Y0.93955
G01 X0.61053 Y1.04272
G01 X0.59997 Y1.15001
G01 Z-2.00000 F100.00000 ( plunge. )
G04 P0 ( dwell for no time -- G64 should not smooth over this point )
G01 F200.00000
G01 X0.59997 Y22.10001
G00 Z-0.60000
G01 X0.59997 Y24.20001
G01 Z-2.00000 F100.00000
G01 F200.00000
G01 X0.59997 Y45.15000
G01 X0.61053 Y45.25732
G01 X0.64183 Y45.36049
G01 X0.69265 Y45.45559
G01 X0.76105 Y45.53893
G01 X0.84439 Y45.60733
G01 X0.93949 Y45.65815
G01 X1.04266 Y45.68945
G01 X1.14998 Y45.70001
G01 X51.14998 Y45.70001
G01 X51.25727 Y45.68945
G01 X51.36044 Y45.65815
G01 X51.45554 Y45.60733
G01 X51.53888 Y45.53893
G01 X51.60728 Y45.45559
G01 X51.65811 Y45.36049
G01 X51.68940 Y45.25732
G01 X51.69997 Y45.15000
G01 X51.69997 Y23.15002
G01 X51.68940 Y23.04273
G01 X51.65811 Y22.93956
G01 X51.60728 Y22.84446
G01 X51.53888 Y22.76112
G01 X51.45554 Y22.69272
G01 X51.36044 Y22.64189
G01 X51.25727 Y22.61060
G01 X51.14998 Y22.60003
G01 X45.69998 Y22.60003
G01 X45.69998 Y14.70002
G01 X51.14998 Y14.70002
G01 X51.25727 Y14.68946
G01 X51.36044 Y14.65816
G01 X51.45554 Y14.60734
G01 X51.53888 Y14.53894
G01 X51.60728 Y14.45560
G01 X51.65811 Y14.36050
G01 X51.68940 Y14.25733
G01 X51.69997 Y14.15001
G01 X51.69997 Y8.70001
G00 Z-0.60000
G01 X51.69997 Y6.60001
G01 Z-2.00000 F100.00000
G01 F200.00000
G01 X51.69997 Y1.15001
G01 X51.68940 Y1.04272
G01 X51.65811 Y0.93955
G01 X51.60728 Y0.84445
G01 X51.53888 Y0.76111
G01 X51.45554 Y0.69271
G01 X51.36044 Y0.64189
G01 X51.25727 Y0.61059
G01 X51.14998 Y0.60003
G01 X1.14998 Y0.60003
G01 X1.04266 Y0.61059
G01 X0.93949 Y0.64189
G01 X0.84439 Y0.69271
G01 X0.76105 Y0.76111
G01 X0.69265 Y0.84445
G01 X0.64183 Y0.93955
G01 X0.61053 Y1.04272
G01 X0.59997 Y1.15001

G04 P0 ( dwell for no time -- G64 should not smooth over this point )
G00 Z10.000000 ( retract )

M5 ( Spindle off. )
G04 P1.000000
M9 ( Coolant off. )
M2 ( Program end. )

