( pcb2gcode 2.5.0 )
( Software-independent Gcode )

G94 ( Millimeters per minute feed rate. )
G21 ( Units == Millimeters. )

G90 ( Absolute coordinates. )
G00 S10000 ( RPM spindle speed. )
G64 P0.01016 ( set maximum deviation from commanded toolpath )
G01 F150.00000 ( Feedrate. )


G00 Z10.00000 (Retract to tool change height)
T0
M5      (Spindle stop.)
G04 P1.00000 (Wait for spindle to stop)
(MSG, Change tool bit to mill diameter 0.34000mm)
M6      (Tool change.)
M0      (Temporary machine stop.)
M3 ( Spindle on clockwise. )
G04 P1.00000 (Wait for spindle to get up to speed)
G04 P0 ( dwell for no time -- G64 should not smooth over this point )
G00 Z2.00000 ( retract )

G00 X3.17999 Y3.84999 ( rapid move to begin. )
G01 F75.00000
( Mill infeed pass 1/1 )
G01 Z-0.17000
G04 P0 ( dwell for no time -- G64 should not smooth over this point )
G01 F150.00000
G01 X3.17999 Y3.84999
G01 X3.19462 Y3.98929
G01 X3.23153 Y4.10590
G01 X3.24598 Y4.13836
G01 X3.30796 Y4.24380
G01 X3.40166 Y4.34788
G01 X3.50006 Y4.42053
G01 X3.53084 Y4.43831
G01 X3.64296 Y4.48720
G01 X3.76239 Y4.51354
G01 X3.79772 Y4.51725
G01 X3.92002 Y4.51631
G01 X4.05703 Y4.48720
G01 X4.18499 Y4.43023
G01 X4.28449 Y4.35909
G01 X4.31088 Y4.33531
G01 X4.39203 Y4.24380
G01 X4.46206 Y4.12251
G01 X4.50534 Y3.98929
G01 X4.52000 Y3.84999
G01 X4.50813 Y3.72825
G01 X4.50074 Y3.69350
G01 X4.46206 Y3.57748
G01 X4.40173 Y3.47110
G01 X4.38083 Y3.44235
G01 X4.31088 Y3.36465
G01 X4.28449 Y3.34088
G01 X4.18499 Y3.26976
G01 X4.05703 Y3.21278
G01 X3.92002 Y3.18365
G01 X3.77994 Y3.18365
G01 X3.64296 Y3.21278
G01 X3.51499 Y3.26976
G01 X3.41550 Y3.34088
G01 X3.38909 Y3.36465
G01 X3.30796 Y3.45617
G01 X3.24598 Y3.56163
G01 X3.23153 Y3.59409
G01 X3.19462 Y3.71067
G01 X3.17999 Y3.84999
G01 X3.01545 Y3.84999
G01 X3.03148 Y3.68718
G01 X3.07898 Y3.53061
G01 X3.15609 Y3.38634
G01 X3.25988 Y3.25988
G01 X3.38634 Y3.15609
G01 X3.53061 Y3.07898
G01 X3.68718 Y3.03148
G01 X3.84997 Y3.01545
G01 X4.01276 Y3.03150
G01 X4.16925 Y3.07898
G01 X4.31359 Y3.15609
G01 X4.44006 Y3.25988
G01 X4.54387 Y3.38634
G01 X4.62096 Y3.53061
G01 X4.66846 Y3.68715
G01 X4.68449 Y3.84997
G01 X4.66846 Y4.01281
G01 X4.62096 Y4.16927
G01 X4.54385 Y4.31359
G01 X4.44006 Y4.44006
G01 X4.31359 Y4.54385
G01 X4.16927 Y4.62096
G01 X4.01278 Y4.66846
G01 X3.84997 Y4.68449
G01 X3.68715 Y4.66846
G01 X3.53061 Y4.62096
G01 X3.38634 Y4.54387
G01 X3.25988 Y4.44006
G01 X3.15609 Y4.31359
G01 X3.07898 Y4.16927
G01 X3.03148 Y4.01278
G01 X3.01545 Y3.84999
G04 P0 ( dwell for no time -- G64 should not smooth over this point )
G00 Z2.00000 ( retract )

G00 X6.62505 Y13.04205 ( rapid move to begin. )
G01 F75.00000
( Mill infeed pass 1/1 )
G01 Z-0.17000
G04 P0 ( dwell for no time -- G64 should not smooth over this point )
G01 F150.00000
G01 X6.62505 Y13.04205
G01 X6.59314 Y13.05173
G01 X6.56000 Y13.05498
G01 X4.76000 Y13.05498
G01 X4.72683 Y13.05173
G01 X4.67831 Y13.03496
G01 X4.67730 Y13.03263
G01 X4.68169 Y13.03496
G01 X4.63978 Y13.00520
G01 X4.61865 Y12.97944
G01 X4.60293 Y12.95005
G01 X4.59325 Y12.91815
G01 X4.59000 Y12.88498
G01 X4.59000 Y12.08498
G01 X4.59325 Y12.05183
G01 X4.60293 Y12.01993
G01 X4.61865 Y11.99054
G01 X4.63978 Y11.96479
G01 X4.67831 Y11.93497
G01 X4.68174 Y11.93497
G01 X4.67727 Y11.93735
G01 X4.72683 Y11.91825
G01 X4.76000 Y11.91498
G01 X6.56000 Y11.91498
G01 X6.59314 Y11.91825
G01 X6.62505 Y11.92793
G01 X6.65443 Y11.94363
G01 X6.68019 Y11.96479
G01 X6.70135 Y11.99054
G01 X6.71704 Y12.01993
G01 X6.72672 Y12.05183
G01 X6.73000 Y12.08498
G01 X6.73000 Y12.88498
G01 X6.72672 Y12.91815
G01 X6.71704 Y12.95005
G01 X6.70135 Y12.97944
G01 X6.68019 Y13.00520
G01 X6.65443 Y13.02633
G01 X6.62505 Y13.04205
G01 X6.63830 Y13.03496
G01 X8.21498 Y13.03496
G01 X8.21498 Y11.93497
G01 X6.63820 Y11.93497
G01 X6.86348 Y11.93497
G01 X6.87412 Y11.95488
G01 X6.89345 Y12.01866
G01 X6.89998 Y12.08498
G01 X6.89998 Y12.88498
G01 X6.89345 Y12.95132
G01 X6.87412 Y13.01510
G01 X6.86350 Y13.03496
G01 X7.04488 Y13.03496
G01 X7.06020 Y12.98449
G01 X7.06998 Y12.88498
G01 X7.06998 Y12.08498
G01 X7.06020 Y11.98549
G01 X7.04486 Y11.93497
G01 X7.22167 Y11.93497
G01 X7.22692 Y11.95231
G01 X7.23998 Y12.08498
G01 X7.23998 Y12.88498
G01 X7.22692 Y13.01764
G01 X7.22167 Y13.03496
G01 X7.39522 Y13.03496
G01 X7.40998 Y12.88498
G01 X7.40998 Y12.08498
G01 X7.39520 Y11.93497
G01 X7.56520 Y11.93497
G01 X7.57998 Y12.08498
G01 X7.57998 Y12.88498
G01 X7.56523 Y13.03496
G01 X7.73520 Y13.03496
G01 X7.74999 Y12.88498
G01 X7.74999 Y12.08498
G01 X7.73520 Y11.93497
G01 X8.07521 Y11.93497
G01 X8.08999 Y12.08498
G01 X8.08999 Y12.88498
G01 X8.07521 Y13.03496
G01 X7.90521 Y13.03496
G01 X7.91999 Y12.88498
G01 X7.91999 Y12.08498
G01 X7.90521 Y11.93497
G01 X7.90521 Y11.76496
G01 X6.63830 Y11.76496
G01 X6.59314 Y11.78173
G01 X6.56000 Y11.78498
G01 X4.76000 Y11.78498
G01 X4.72683 Y11.78173
G01 X4.69492 Y11.77205
G01 X4.67831 Y11.76496
G01 X4.67730 Y11.76263
G01 X4.68169 Y11.76496
G01 X4.63978 Y11.73520
G01 X4.61865 Y11.70944
G01 X4.60293 Y11.68005
G01 X4.59325 Y11.64815
G01 X4.59000 Y11.61498
G01 X4.59000 Y10.81498
G01 X4.59325 Y10.78183
G01 X4.60293 Y10.74993
G01 X4.61865 Y10.72054
G01 X4.63978 Y10.69479
G01 X4.67831 Y10.66497
G01 X4.68174 Y10.66497
G01 X4.67727 Y10.66735
G01 X4.72683 Y10.64825
G01 X4.76000 Y10.64498
G01 X6.56000 Y10.64498
G01 X6.59314 Y10.64825
G01 X6.62505 Y10.65793
G01 X6.65443 Y10.67363
G01 X6.68019 Y10.69479
G01 X6.70135 Y10.72054
G01 X6.71704 Y10.74993
G01 X6.72672 Y10.78183
G01 X6.73000 Y10.81498
G01 X6.73000 Y11.61498
G01 X6.72672 Y11.64815
G01 X6.71704 Y11.68005
G01 X6.70135 Y11.70944
G01 X6.68019 Y11.73520
G01 X6.65443 Y11.75633
G01 X6.62505 Y11.77205
G01 X6.63830 Y11.76496
G01 X8.21498 Y11.76496
G01 X8.21498 Y10.66497
G01 X6.63820 Y10.66497
G01 X6.86348 Y10.66497
G01 X6.87412 Y10.68488
G01 X6.89345 Y10.74866
G01 X6.89998 Y10.81498
G01 X6.89998 Y11.61498
G01 X6.89345 Y11.68132
G01 X6.87412 Y11.74510
G01 X6.86350 Y11.76496
G01 X7.04488 Y11.76496
G01 X7.06020 Y11.71449
G01 X7.06998 Y11.61498
G01 X7.06998 Y10.81498
G01 X7.06020 Y10.71549
G01 X7.04486 Y10.66497
G01 X7.22167 Y10.66497
G01 X7.22692 Y10.68231
G01 X7.23998 Y10.81498
G01 X7.23998 Y11.61498
G01 X7.22692 Y11.74764
G01 X7.22167 Y11.76496
G01 X7.39522 Y11.76496
G01 X7.40998 Y11.61498
G01 X7.40998 Y10.81498
G01 X7.39520 Y10.66497
G01 X7.56520 Y10.66497
G01 X7.57998 Y10.81498
G01 X7.57998 Y11.61498
G01 X7.56523 Y11.76496
G01 X7.73520 Y11.76496
G01 X7.74999 Y11.61498
G01 X7.74999 Y10.81498
G01 X7.73520 Y10.66497
G01 X8.07521 Y10.66497
G01 X8.08999 Y10.81498
G01 X8.08999 Y11.61498
G01 X8.07521 Y11.76496
G01 X7.90521 Y11.76496
G01 X7.90521 Y10.66497
G01 X7.74999 Y10.33258
G01 X7.74999 Y9.54498
G01 X7.72713 Y9.31282
G01 X7.68608 Y9.17754
G01 X7.57435 Y9.10073
G01 X7.43017 Y9.01963
G01 X7.50234 Y9.15466
G01 X7.56040 Y9.34600
G01 X7.57998 Y9.54498
G01 X7.57998 Y10.34498
G01 X7.56523 Y10.49496
G01 X7.73520 Y10.49496
G01 X7.74999 Y10.33258
G01 X7.06452 Y8.86474
G01 X6.96314 Y8.83307
G01 X6.76134 Y8.79522
G01 X6.55733 Y8.78247
G01 X5.23269 Y8.78247
G01 X4.82210 Y9.19306
G01 X4.73877 Y9.28829
G01 X4.68283 Y9.37780
G01 X4.67504 Y9.39855
G01 X4.63978 Y9.42479
G01 X4.61865 Y9.45054
G01 X4.60293 Y9.47993
G01 X4.59325 Y9.51183
G01 X4.59000 Y9.54498
G01 X4.59000 Y10.34498
G01 X4.59325 Y10.37815
G01 X4.60293 Y10.41005
G01 X4.61865 Y10.43944
G01 X4.63978 Y10.46520
G01 X4.67831 Y10.49496
G01 X4.68169 Y10.49496
G01 X4.67730 Y10.49263
G01 X4.72683 Y10.51173
G01 X4.76000 Y10.51498
G01 X6.56000 Y10.51498
G01 X6.59314 Y10.51173
G01 X6.62505 Y10.50205
G01 X6.65443 Y10.48633
G01 X6.68019 Y10.46520
G01 X6.70135 Y10.43944
G01 X6.71704 Y10.41005
G01 X6.72672 Y10.37815
G01 X6.73000 Y10.34498
G01 X6.73000 Y9.54498
G01 X6.72672 Y9.51183
G01 X6.71704 Y9.47993
G01 X6.70135 Y9.45054
G01 X6.68019 Y9.42479
G01 X6.65443 Y9.40363
G01 X6.62505 Y9.38793
G01 X6.59314 Y9.37825
G01 X6.56000 Y9.37498
G01 X4.76000 Y9.37498
G01 X4.72683 Y9.37825
G01 X4.69492 Y9.38793
G01 X4.67504 Y9.39855
G01 X4.68283 Y9.37780
G01 X4.73877 Y9.28829
G01 X4.81166 Y9.20500
G01 X6.56000 Y9.20500
G01 X6.62632 Y9.21153
G01 X6.69009 Y9.23086
G01 X6.74887 Y9.26228
G01 X6.80041 Y9.30457
G01 X6.84270 Y9.35610
G01 X6.87412 Y9.41488
G01 X6.89345 Y9.47866
G01 X6.89998 Y9.54498
G01 X6.89998 Y10.34498
G01 X6.89345 Y10.41132
G01 X6.87412 Y10.47510
G01 X6.86350 Y10.49496
G01 X6.63830 Y10.49496
G01 X7.90521 Y10.49496
G01 X7.91999 Y10.34498
G01 X7.91999 Y9.54498
G01 X7.90056 Y9.34780
G01 X8.08659 Y9.51059
G01 X8.08999 Y9.54498
G01 X8.08999 Y10.34498
G01 X8.07521 Y10.49496
G01 X7.90521 Y10.49496
G01 X8.21498 Y10.49496
G01 X8.21498 Y9.62519
G01 X7.77899 Y9.24142
G01 X7.57435 Y9.10073
G01 X7.36952 Y8.98552
G01 X7.16581 Y8.89639
G01 X7.06452 Y8.86474
G01 X7.16104 Y8.94394
G01 X7.26673 Y9.07274
G01 X7.34529 Y9.21971
G01 X7.39365 Y9.37917
G01 X7.40998 Y9.54498
G01 X7.40998 Y10.34498
G01 X7.39522 Y10.49496
G01 X6.86350 Y10.49496
G01 X7.04488 Y10.49496
G01 X7.06020 Y10.44449
G01 X7.06998 Y10.34498
G01 X7.06998 Y9.54498
G01 X7.06020 Y9.44549
G01 X7.03117 Y9.34983
G01 X6.98405 Y9.26164
G01 X6.92060 Y9.18437
G01 X6.84333 Y9.12093
G01 X6.75514 Y9.07381
G01 X6.65949 Y9.04478
G01 X6.56000 Y9.03500
G01 X4.98017 Y9.03500
G01 X5.15017 Y8.86500
G01 X6.56000 Y8.86500
G01 X6.69266 Y8.87805
G01 X6.82022 Y8.91676
G01 X6.93777 Y8.97960
G01 X7.04082 Y9.06416
G01 X7.12537 Y9.16720
G01 X7.18821 Y9.28476
G01 X7.22692 Y9.41231
G01 X7.23998 Y9.54498
G01 X7.23998 Y10.34498
G01 X7.22692 Y10.47764
G01 X7.22167 Y10.49496
G01 X7.82581 Y10.49496
G01 X7.90521 Y10.66497
G01 X7.91999 Y10.81498
G01 X7.91999 Y11.61498
G01 X7.90521 Y11.76496
G01 X7.90521 Y11.93497
G01 X8.07521 Y13.20497
G01 X8.08999 Y13.35498
G01 X8.08999 Y14.15498
G01 X8.08661 Y14.18932
G01 X7.77902 Y14.45851
G01 X7.57437 Y14.59920
G01 X7.43020 Y14.68030
G01 X7.50234 Y14.54532
G01 X7.56040 Y14.35399
G01 X7.57998 Y14.15498
G01 X7.57998 Y13.35498
G01 X7.56520 Y13.20497
G01 X7.39520 Y13.20497
G01 X7.40998 Y13.35498
G01 X7.40998 Y14.15498
G01 X7.39365 Y14.32081
G01 X7.34529 Y14.48028
G01 X7.26673 Y14.62721
G01 X7.16104 Y14.75602
G01 X7.06457 Y14.83516
G01 X7.16581 Y14.80354
G01 X7.36952 Y14.71444
G01 X7.43020 Y14.68030
G01 X7.36952 Y14.71444
G01 X7.16581 Y14.80354
G01 X6.96314 Y14.86689
G01 X6.76134 Y14.90473
G01 X6.55733 Y14.91749
G01 X5.23269 Y14.91749
G01 X4.82208 Y14.50687
G01 X4.73877 Y14.41164
G01 X4.68283 Y14.32213
G01 X4.67506 Y14.30143
G01 X4.63978 Y14.27520
G01 X4.61865 Y14.24944
G01 X4.60293 Y14.22005
G01 X4.59325 Y14.18815
G01 X4.59000 Y14.15498
G01 X4.59000 Y13.35498
G01 X4.59325 Y13.32183
G01 X4.60293 Y13.28993
G01 X4.61865 Y13.26054
G01 X4.63978 Y13.23479
G01 X4.67831 Y13.20497
G01 X4.68174 Y13.20497
G01 X4.67727 Y13.20735
G01 X4.72683 Y13.18825
G01 X4.76000 Y13.18498
G01 X6.56000 Y13.18498
G01 X6.59314 Y13.18825
G01 X6.62505 Y13.19793
G01 X6.65443 Y13.21363
G01 X6.68019 Y13.23479
G01 X6.70135 Y13.26054
G01 X6.71704 Y13.28993
G01 X6.72672 Y13.32183
G01 X6.73000 Y13.35498
G01 X6.73000 Y14.15498
G01 X6.72672 Y14.18815
G01 X6.71704 Y14.22005
G01 X6.70135 Y14.24944
G01 X6.68019 Y14.27520
G01 X6.65443 Y14.29633
G01 X6.62505 Y14.31205
G01 X6.59314 Y14.32173
G01 X6.56000 Y14.32498
G01 X4.76000 Y14.32498
G01 X4.72683 Y14.32173
G01 X4.69492 Y14.31205
G01 X4.67506 Y14.30143
G01 X4.68283 Y14.32213
G01 X4.73877 Y14.41164
G01 X4.82208 Y14.50687
G01 X5.15022 Y14.83499
G01 X6.56000 Y14.83499
G01 X6.69266 Y14.82193
G01 X6.82022 Y14.78322
G01 X6.93777 Y14.72038
G01 X7.04082 Y14.63582
G01 X7.12537 Y14.53278
G01 X7.18821 Y14.41520
G01 X7.22692 Y14.28764
G01 X7.23998 Y14.15498
G01 X7.23998 Y13.35498
G01 X7.22692 Y13.22231
G01 X7.22167 Y13.20497
G01 X6.63820 Y13.20497
G01 X6.86348 Y13.20497
G01 X6.87412 Y13.22488
G01 X6.89345 Y13.28866
G01 X6.89998 Y13.35498
G01 X6.89998 Y14.15498
G01 X6.89345 Y14.22132
G01 X6.87412 Y14.28510
G01 X6.84270 Y14.34388
G01 X6.80041 Y14.39541
G01 X6.74887 Y14.43768
G01 X6.69009 Y14.46910
G01 X6.62632 Y14.48845
G01 X6.56000 Y14.49498
G01 X4.81169 Y14.49498
G01 X4.98022 Y14.66498
G01 X6.56000 Y14.66498
G01 X6.65949 Y14.65518
G01 X6.75514 Y14.62617
G01 X6.84333 Y14.57903
G01 X6.92060 Y14.51561
G01 X6.98405 Y14.43834
G01 X7.03117 Y14.35015
G01 X7.06020 Y14.25449
G01 X7.06998 Y14.15498
G01 X7.06998 Y13.35498
G01 X7.06020 Y13.25549
G01 X7.04486 Y13.20497
G01 X8.21498 Y13.20497
G01 X8.21498 Y14.07476
G01 X7.90056 Y14.35213
G01 X7.91999 Y14.15498
G01 X7.91999 Y13.35498
G01 X7.90521 Y13.20497
G01 X7.73520 Y13.20497
G01 X7.74999 Y13.35498
G01 X7.74999 Y14.15498
G01 X7.72713 Y14.38713
G01 X7.68611 Y14.52236
G01 X7.77902 Y14.45851
G01 X7.98636 Y14.50296
G01 X7.87958 Y14.59600
G01 X7.78603 Y14.65998
G01 X8.81392 Y14.65998
G01 X8.93893 Y14.74550
G01 X9.15080 Y14.86468
G01 X9.37886 Y14.96478
G01 X9.49276 Y14.99998
G01 X7.10719 Y14.99998
G01 X7.22111 Y14.96478
G01 X7.44155 Y14.86846
G01 X7.51085 Y14.82998
G01 X9.08910 Y14.82998
G01 X8.93893 Y14.74550
G01 X8.85717 Y14.68972
G01 X8.71849 Y14.65998
G01 X7.78603 Y14.65998
G01 X7.66104 Y14.74550
G01 X7.44915 Y14.86468
G01 X7.22967 Y14.96117
G01 X7.00909 Y15.03064
G01 X6.78761 Y15.07331
G01 X6.56000 Y15.08746
G01 X5.19749 Y15.08746
G01 X5.16495 Y15.08101
G01 X5.15985 Y15.09346
G01 X5.16495 Y15.08101
G01 X5.13739 Y15.06257
G01 X4.69602 Y14.62094
G01 X4.59762 Y14.50796
G01 X4.53414 Y14.40501
G01 X4.51997 Y14.37205
G01 X4.53414 Y14.40501
G01 X4.59823 Y14.50753
G01 X4.68997 Y14.61403
G01 X4.68997 Y15.50999
G01 X4.64019 Y15.55978
G01 X4.68997 Y15.50999
G01 X12.00997 Y15.50999
G01 X12.05976 Y15.55978
G01 X12.00997 Y15.50999
G01 X12.00997 Y14.60225
G01 X12.12859 Y14.44680
G01 X12.16494 Y14.39099
G01 X12.27512 Y14.33837
G01 X12.16494 Y14.39099
G01 X12.12859 Y14.44680
G01 X12.05407 Y14.54700
G01 X11.98053 Y14.63742
G01 X11.90009 Y14.72505
G01 X11.66997 Y14.95518
G01 X11.66997 Y15.16999
G01 X11.71975 Y15.21977
G01 X11.66997 Y15.16999
G01 X5.02998 Y15.16999
G01 X4.98019 Y15.21977
G01 X5.02998 Y15.16999
G01 X5.02998 Y14.95518
G01 X4.85997 Y14.78518
G01 X4.85997 Y15.33999
G01 X4.81019 Y15.38977
G01 X4.85997 Y15.33999
G01 X11.83997 Y15.33999
G01 X11.88975 Y15.38977
G01 X11.83997 Y15.33999
G01 X11.83997 Y14.78518
G01 X11.90009 Y14.72505
G01 X11.56367 Y15.06407
G01 X11.53499 Y15.08101
G01 X11.51904 Y15.08584
G01 X11.52031 Y15.09092
G01 X11.51904 Y15.08584
G01 X10.03469 Y15.08731
G01 X9.81236 Y15.07331
G01 X9.59088 Y15.03064
G01 X9.37028 Y14.96117
G01 X9.15842 Y14.86846
G01 X8.93893 Y14.74550
G01 X8.72039 Y14.59600
G01 X8.30000 Y14.22854
G01 X7.98636 Y14.50296
G01 X8.00119 Y14.49000
G01 X8.59878 Y14.49000
G01 X8.40447 Y14.31998
G01 X8.19550 Y14.31998
G01 X7.98636 Y14.50296
G01 X9.53538 Y14.83516
G01 X9.43416 Y14.80354
G01 X9.23045 Y14.71444
G01 X9.02560 Y14.59920
G01 X8.82098 Y14.45853
G01 X8.38499 Y14.07476
G01 X8.38499 Y13.20497
G01 X8.52476 Y13.20497
G01 X8.50998 Y13.35498
G01 X8.52476 Y13.20497
G01 X9.55511 Y13.20497
G01 X9.53980 Y13.25549
G01 X9.52999 Y13.35498
G01 X9.52999 Y14.15498
G01 X9.53980 Y14.25449
G01 X9.56880 Y14.35015
G01 X9.61595 Y14.43834
G01 X9.67937 Y14.51561
G01 X9.75664 Y14.57903
G01 X9.84483 Y14.62617
G01 X9.94048 Y14.65518
G01 X10.04000 Y14.66498
G01 X11.71973 Y14.66498
G01 X11.77858 Y14.60613
G01 X11.88147 Y14.49089
G01 X11.84000 Y14.49498
G01 X10.04000 Y14.49498
G01 X9.97365 Y14.48845
G01 X9.90988 Y14.46910
G01 X9.85110 Y14.43768
G01 X9.79956 Y14.39541
G01 X9.75730 Y14.34388
G01 X9.72588 Y14.28510
G01 X9.70652 Y14.22132
G01 X9.69999 Y14.15498
G01 X9.69999 Y13.35498
G01 X9.70652 Y13.28866
G01 X9.72588 Y13.22488
G01 X9.73652 Y13.20497
G01 X9.96174 Y13.20497
G01 X9.91978 Y13.23479
G01 X9.89865 Y13.26054
G01 X9.88293 Y13.28993
G01 X9.87325 Y13.32183
G01 X9.87000 Y13.35498
G01 X8.50998 Y13.35498
G01 X8.50998 Y14.15498
G01 X8.51338 Y14.18937
G01 X8.69939 Y14.35213
G01 X8.67998 Y14.15498
G01 X8.67998 Y13.35498
G01 X8.69476 Y13.20497
G01 X8.86477 Y13.20497
G01 X8.84998 Y13.35498
G01 X8.84998 Y14.15498
G01 X8.87284 Y14.38713
G01 X8.91389 Y14.52239
G01 X9.02560 Y14.59920
G01 X9.16977 Y14.68030
G01 X9.09763 Y14.54532
G01 X9.03960 Y14.35399
G01 X9.01999 Y14.15498
G01 X9.01999 Y13.35498
G01 X9.03477 Y13.20497
G01 X9.20477 Y13.20497
G01 X9.18999 Y13.35498
G01 X9.18999 Y14.15498
G01 X9.20632 Y14.32081
G01 X9.25468 Y14.48028
G01 X9.33324 Y14.62721
G01 X9.43896 Y14.75602
G01 X9.53538 Y14.83516
G01 X9.63683 Y14.86689
G01 X9.83865 Y14.90473
G01 X10.04264 Y14.91749
G01 X11.46725 Y14.91749
G01 X11.77858 Y14.60613
G01 X11.85386 Y14.52401
G01 X11.99052 Y14.34759
G01 X12.03504 Y14.27880
G01 X12.05595 Y14.25660
G01 X12.05277 Y14.25274
G01 X12.05595 Y14.25660
G01 X12.21597 Y14.17895
G01 X13.82884 Y14.17895
G01 X13.82998 Y14.19999
G01 X13.82998 Y14.17895
G01 X13.83913 Y14.28731
G01 X13.86631 Y14.37083
G01 X13.91020 Y14.44685
G01 X13.95637 Y14.49953
G01 X13.98279 Y14.52330
G01 X14.03997 Y14.56371
G01 X14.10359 Y14.59305
G01 X14.18851 Y14.61490
G01 X14.25000 Y14.61998
G01 X15.55000 Y14.61998
G01 X15.61146 Y14.61490
G01 X15.67976 Y14.59943
G01 X15.75998 Y14.56371
G01 X15.83102 Y14.51210
G01 X15.87857 Y14.46069
G01 X15.89947 Y14.43194
G01 X15.94006 Y14.35421
G01 X15.96082 Y14.28731
G01 X15.96938 Y14.21144
G01 X17.15807 Y14.21144
G01 X17.20346 Y14.23293
G01 X17.22302 Y14.25627
G01 X17.22904 Y14.25147
G01 X17.22302 Y14.25627
G01 X17.23600 Y14.28914
G01 X17.21428 Y14.24370
G01 X17.19086 Y14.22424
G01 X17.15807 Y14.21144
G01 X17.23600 Y14.21144
G01 X17.23600 Y19.14435
G01 X14.39272 Y21.98760
G01 X14.34969 Y21.98498
G01 X13.52358 Y21.98636
G01 X13.43738 Y22.00094
G01 X13.40359 Y22.01191
G01 X13.33999 Y22.04125
G01 X13.28279 Y22.08166
G01 X13.25638 Y22.10546
G01 X13.21020 Y22.15811
G01 X13.17438 Y22.21831
G01 X13.14378 Y22.30048
G01 X13.13639 Y22.33525
G01 X13.12999 Y22.40500
G01 X13.12999 Y23.65498
G01 X13.13639 Y23.72473
G01 X13.14378 Y23.75950
G01 X13.16631 Y23.82582
G01 X13.21020 Y23.90185
G01 X13.26895 Y23.96710
G01 X13.33999 Y24.01871
G01 X13.42021 Y24.05442
G01 X13.50608 Y24.07269
G01 X14.39389 Y24.07269
G01 X14.47977 Y24.05442
G01 X14.54413 Y24.02679
G01 X14.57492 Y24.00903
G01 X14.63102 Y23.96710
G01 X14.67857 Y23.91569
G01 X14.69948 Y23.88694
G01 X14.73367 Y23.82582
G01 X14.75620 Y23.75950
G01 X14.76359 Y23.72473
G01 X14.76999 Y23.65498
G01 X14.76999 Y22.80962
G01 X17.95980 Y19.61979
G01 X18.02111 Y19.54122
G01 X18.05733 Y19.46652
G01 X18.07585 Y19.40269
G01 X18.08398 Y19.31999
G01 X18.08398 Y14.28939
G01 X18.10546 Y14.24398
G01 X18.12881 Y14.22442
G01 X18.12401 Y14.21840
G01 X18.12881 Y14.22442
G01 X18.16165 Y14.21144
G01 X18.12881 Y14.22442
G01 X18.10546 Y14.24398
G01 X18.08398 Y14.28939
G01 X18.08398 Y14.21144
G01 X39.46250 Y14.21144
G01 X39.56138 Y14.19925
G01 X39.60903 Y14.18480
G01 X39.68373 Y14.14858
G01 X39.76229 Y14.08724
G01 X42.84407 Y11.00550
G01 X42.91062 Y11.00180
G01 X43.13229 Y10.95371
G01 X43.35573 Y10.85425
G01 X43.55362 Y10.71046
G01 X43.70610 Y10.54251
G01 X43.72698 Y10.51376
G01 X43.83958 Y10.31686
G01 X43.91057 Y10.10144
G01 X43.91796 Y10.06667
G01 X43.94074 Y9.84099
G01 X43.94074 Y9.09098
G01 X43.91796 Y8.86530
G01 X43.91057 Y8.83055
G01 X43.83958 Y8.61511
G01 X43.71728 Y8.40327
G01 X43.55362 Y8.22151
G01 X43.37067 Y8.08743
G01 X43.32172 Y8.06157
G01 X43.32121 Y6.80737
G01 X43.31235 Y6.72144
G01 X43.29838 Y6.66330
G01 X43.25515 Y6.55890
G01 X43.20823 Y6.48636
G01 X43.16035 Y6.43109
G01 X41.88959 Y5.16035
G01 X41.81949 Y5.10178
G01 X41.79178 Y5.08327
G01 X41.69513 Y5.03531
G01 X41.59096 Y5.00712
G01 X41.49996 Y4.99899
G01 X37.68874 Y4.99899
G01 X37.66999 Y4.98017
G01 X37.68874 Y4.99899
G01 X37.66999 Y4.99899
G01 X37.66905 Y4.90722
G01 X37.66080 Y4.83767
G01 X37.63367 Y4.75416
G01 X37.59946 Y4.69305
G01 X37.57858 Y4.66429
G01 X37.51719 Y4.60166
G01 X37.45999 Y4.56124
G01 X37.39638 Y4.53191
G01 X37.31147 Y4.51006
G01 X37.24998 Y4.50498
G01 X36.40723 Y4.50760
G01 X34.89979 Y3.00016
G01 X34.83810 Y2.94954
G01 X34.78036 Y2.91659
G01 X34.71816 Y2.89310
G01 X34.65306 Y2.87961
G01 X34.60000 Y2.87598
G01 X26.75000 Y2.87598
G01 X26.69691 Y2.87961
G01 X26.63179 Y2.89310
G01 X26.56961 Y2.91659
G01 X26.51187 Y2.94954
G01 X26.45018 Y3.00016
G01 X24.50017 Y4.95017
G01 X24.44744 Y5.01441
G01 X24.41538 Y5.07265
G01 X24.38818 Y5.15108
G01 X24.37599 Y5.24999
G01 X24.37599 Y6.52433
G01 X23.22435 Y7.67600
G01 X15.94339 Y7.67600
G01 X15.93580 Y7.61267
G01 X15.91504 Y7.54577
G01 X15.90059 Y7.51331
G01 X15.86478 Y7.45311
G01 X15.80603 Y7.38786
G01 X15.74992 Y7.34592
G01 X15.67138 Y7.30691
G01 X15.63758 Y7.29591
G01 X15.58647 Y7.28506
G01 X15.52480 Y7.27998
G01 X14.23100 Y7.28230
G01 X14.14520 Y7.30053
G01 X14.08083 Y7.32817
G01 X14.05008 Y7.34592
G01 X13.99394 Y7.38786
G01 X13.93519 Y7.45311
G01 X13.89935 Y7.51331
G01 X13.88492 Y7.54577
G01 X13.86415 Y7.61267
G01 X13.85498 Y7.70000
G01 X13.85498 Y8.50000
G01 X13.86415 Y8.58732
G01 X13.89130 Y8.67081
G01 X13.93519 Y8.74686
G01 X13.98134 Y8.79951
G01 X14.00778 Y8.82331
G01 X14.06499 Y8.86373
G01 X14.12859 Y8.89306
G01 X14.16237 Y8.90404
G01 X14.23108 Y8.91767
G01 X15.55111 Y8.91861
G01 X15.58647 Y8.91491
G01 X15.65477 Y8.89944
G01 X15.71913 Y8.87180
G01 X15.79218 Y8.82331
G01 X15.81860 Y8.79951
G01 X15.86478 Y8.74686
G01 X15.90867 Y8.67081
G01 X15.93580 Y8.58732
G01 X15.94339 Y8.52400
G01 X23.39999 Y8.52397
G01 X23.45305 Y8.52034
G01 X23.51815 Y8.50686
G01 X23.60413 Y8.47124
G01 X23.65968 Y8.43474
G01 X23.69979 Y8.39979
G01 X25.09979 Y6.99977
G01 X25.14259 Y6.94892
G01 X25.16110 Y6.92121
G01 X25.19732 Y6.84651
G01 X25.21828 Y6.76617
G01 X25.22315 Y6.71664
G01 X25.22397 Y5.42561
G01 X26.92561 Y3.72396
G01 X28.13732 Y3.72396
G01 X28.23562 Y3.76818
G01 X28.39955 Y3.86843
G01 X28.51731 Y3.79340
G01 X28.66381 Y3.72396
G01 X28.13732 Y3.72396
G01 X34.42435 Y3.72396
G01 X36.02999 Y5.32962
G01 X36.02999 Y6.17498
G01 X36.03916 Y6.26231
G01 X36.06629 Y6.34582
G01 X36.10050 Y6.40694
G01 X36.12141 Y6.43569
G01 X36.16895 Y6.48710
G01 X36.22506 Y6.52903
G01 X36.25585 Y6.54679
G01 X36.32021 Y6.57442
G01 X36.38851 Y6.58989
G01 X36.44998 Y6.59500
G01 X37.24998 Y6.59500
G01 X37.31147 Y6.58989
G01 X37.37977 Y6.57442
G01 X37.45999 Y6.53871
G01 X37.51719 Y6.49830
G01 X37.57858 Y6.43569
G01 X37.59946 Y6.40694
G01 X37.63367 Y6.34582
G01 X37.66080 Y6.26231
G01 X37.66905 Y6.19276
G01 X37.66999 Y6.10097
G01 X41.27174 Y6.10097
G01 X42.21974 Y7.04895
G01 X42.21974 Y8.06159
G01 X42.17082 Y8.08743
G01 X41.98787 Y8.22151
G01 X41.83539 Y8.38946
G01 X41.81448 Y8.41821
G01 X41.70996 Y8.59926
G01 X41.69551 Y8.63172
G01 X41.62630 Y8.84772
G01 X41.60166 Y9.07322
G01 X41.60074 Y9.84099
G01 X41.62630 Y10.08425
G01 X41.69551 Y10.30025
G01 X41.70996 Y10.33273
G01 X41.82419 Y10.52870
G01 X41.96445 Y10.68587
G01 X39.28685 Y13.36346
G01 X15.96938 Y13.36344
G01 X15.96082 Y13.28767
G01 X15.94006 Y13.22077
G01 X15.92559 Y13.18830
G01 X15.88977 Y13.12811
G01 X15.83102 Y13.06288
G01 X15.77491 Y13.02094
G01 X15.74413 Y13.00319
G01 X15.66259 Y12.97093
G01 X15.61146 Y12.96006
G01 X15.55000 Y12.95498
G01 X14.24108 Y12.95521
G01 X14.18851 Y12.96006
G01 X14.10359 Y12.98193
G01 X14.03997 Y13.01127
G01 X13.96895 Y13.06288
G01 X13.91020 Y13.12811
G01 X13.86631 Y13.20415
G01 X13.83913 Y13.28767
G01 X13.83364 Y13.33095
G01 X12.00761 Y13.33098
G01 X11.99704 Y13.28993
G01 X11.98135 Y13.26054
G01 X11.96019 Y13.23479
G01 X11.93443 Y13.21363
G01 X11.90505 Y13.19793
G01 X11.87314 Y13.18825
G01 X11.84000 Y13.18498
G01 X10.04000 Y13.18498
G01 X10.00683 Y13.18825
G01 X9.97492 Y13.19793
G01 X9.94554 Y13.21363
G01 X9.91978 Y13.23479
G01 X9.89865 Y13.26054
G01 X9.88293 Y13.28993
G01 X9.87325 Y13.32183
G01 X9.87000 Y13.35498
G01 X9.87000 Y14.15498
G01 X9.87325 Y14.18815
G01 X9.88293 Y14.22005
G01 X9.89865 Y14.24944
G01 X9.91978 Y14.27520
G01 X9.94554 Y14.29633
G01 X9.97492 Y14.31205
G01 X10.00683 Y14.32173
G01 X10.04000 Y14.32498
G01 X11.84000 Y14.32498
G01 X11.87314 Y14.32173
G01 X11.90505 Y14.31205
G01 X11.93443 Y14.29633
G01 X11.96019 Y14.27520
G01 X11.98135 Y14.24944
G01 X11.99704 Y14.22005
G01 X12.00764 Y14.17895
G01 X12.21597 Y14.17895
G01 X12.06903 Y14.24865
G01 X12.04449 Y14.26676
G01 X11.99052 Y14.34759
G01 X11.85386 Y14.52401
G01 X11.77858 Y14.60613
G01 X11.54972 Y14.83499
G01 X10.04000 Y14.83499
G01 X9.90734 Y14.82193
G01 X9.77975 Y14.78322
G01 X9.66220 Y14.72038
G01 X9.55915 Y14.63582
G01 X9.47460 Y14.53278
G01 X9.41176 Y14.41520
G01 X9.37305 Y14.28764
G01 X9.35999 Y14.15498
G01 X9.35999 Y13.35498
G01 X9.37305 Y13.22231
G01 X9.37833 Y13.20497
G01 X9.96174 Y13.20497
G01 X10.00683 Y13.18825
G01 X10.04000 Y13.18498
G01 X11.84000 Y13.18498
G01 X11.87314 Y13.18825
G01 X11.91818 Y13.20494
G01 X13.67281 Y13.20494
G01 X13.67370 Y13.20913
G01 X13.67281 Y13.20494
G01 X13.70337 Y13.19928
G01 X13.71734 Y13.19234
G01 X13.80598 Y13.13969
G01 X13.86669 Y13.10865
G01 X13.96323 Y13.06857
G01 X14.02506 Y13.02094
G01 X14.05584 Y13.00319
G01 X14.13740 Y12.97093
G01 X14.18851 Y12.96006
G01 X14.24108 Y12.95521
G01 X15.55000 Y12.95498
G01 X15.61146 Y12.96006
G01 X15.67976 Y12.97555
G01 X15.74413 Y13.00319
G01 X15.77491 Y13.02094
G01 X15.83674 Y13.06859
G01 X15.93338 Y13.10873
G01 X15.99391 Y13.13966
G01 X16.10549 Y13.20786
G01 X16.11979 Y13.21518
G01 X16.15119 Y13.22120
G01 X16.15020 Y13.22552
G01 X16.15119 Y13.22120
G01 X38.81497 Y13.22120
G01 X38.90817 Y13.21769
G01 X38.99143 Y13.20956
G01 X39.08706 Y13.19346
G01 X39.21645 Y13.19346
G01 X39.22181 Y13.20639
G01 X39.21645 Y13.19346
G01 X41.73018 Y10.67975
G01 X41.77870 Y10.68483
G01 X41.73018 Y10.67975
G01 X41.70905 Y10.65628
G01 X41.66727 Y10.59877
G01 X41.58573 Y10.45752
G01 X41.58573 Y8.47444
G01 X41.68665 Y8.30335
G01 X41.84893 Y8.12034
G01 X41.90176 Y8.07277
G01 X42.04974 Y7.96528
G01 X42.06714 Y7.97384
G01 X42.04974 Y7.96528
G01 X42.04974 Y7.11935
G01 X42.06267 Y7.11400
G01 X42.04974 Y7.11935
G01 X41.20133 Y6.27097
G01 X41.20669 Y6.25804
G01 X41.20133 Y6.27097
G01 X37.83131 Y6.27097
G01 X37.80596 Y6.23709
G01 X37.83131 Y6.27097
G01 X37.81787 Y6.33203
G01 X37.78899 Y6.41496
G01 X37.72729 Y6.52177
G01 X37.66994 Y6.58827
G01 X37.61711 Y6.63584
G01 X37.54500 Y6.68595
G01 X37.43230 Y6.73612
G01 X37.34680 Y6.75619
G01 X37.24998 Y6.76500
G01 X36.44998 Y6.76500
G01 X36.35315 Y6.75619
G01 X36.30205 Y6.74531
G01 X36.23444 Y6.72337
G01 X36.15498 Y6.68595
G01 X36.05521 Y6.61344
G01 X35.99507 Y6.54943
G01 X35.95328 Y6.49192
G01 X35.91099 Y6.41496
G01 X35.88209 Y6.33203
G01 X35.86730 Y6.26251
G01 X35.85999 Y6.17498
G01 X35.85999 Y5.40003
G01 X35.87292 Y5.39467
G01 X35.85999 Y5.40003
G01 X34.35395 Y3.89396
G01 X34.35931 Y3.88103
G01 X34.35395 Y3.89396
G01 X31.53175 Y3.89396
G01 X31.47978 Y3.85553
G01 X31.33406 Y3.76780
G01 X31.23554 Y3.72396
G01 X31.33384 Y3.76818
G01 X31.47978 Y3.85553
G01 X31.57648 Y3.92784
G01 X31.69248 Y4.02947
G01 X31.96111 Y4.03038
G01 X32.10526 Y4.04227
G01 X32.24011 Y4.06396
G01 X33.00985 Y4.06396
G01 X32.24011 Y4.06396
G01 X32.42217 Y4.11001
G01 X32.62497 Y4.18451
G01 X32.77150 Y4.12823
G01 X32.96175 Y4.07334
G01 X33.14463 Y4.04227
G01 X33.31948 Y4.02957
G01 X34.17711 Y4.03016
G01 X34.26421 Y4.03343
G01 X34.26543 Y4.02856
G01 X34.26421 Y4.03343
G01 X34.30043 Y4.04303
G01 X34.37983 Y4.08560
G01 X34.48031 Y4.14639
G01 X34.61762 Y4.24799
G01 X34.77355 Y4.39559
G01 X34.87741 Y4.52231
G01 X34.97170 Y4.66455
G01 X35.03286 Y4.77742
G01 X35.08478 Y4.89043
G01 X35.31407 Y5.44384
G01 X35.41808 Y5.54786
G01 X35.43649 Y5.57544
G01 X35.43873 Y5.57399
G01 X35.43649 Y5.57544
G01 X35.69054 Y6.18547
G01 X35.51998 Y5.77696
G01 X35.51998 Y5.54087
G01 X35.53294 Y5.53551
G01 X35.51998 Y5.54087
G01 X35.23703 Y5.25792
G01 X35.05768 Y4.82952
G01 X35.06461 Y4.84506
G01 X35.68999 Y5.47044
G01 X35.70289 Y5.46510
G01 X35.68999 Y5.47044
G01 X35.69054 Y6.18547
G01 X35.77444 Y6.34857
G01 X36.05877 Y6.82588
G01 X36.11754 Y6.85740
G01 X36.21513 Y6.89779
G01 X36.31782 Y6.92248
G01 X36.39717 Y6.93292
G01 X36.44998 Y6.93498
G01 X37.27667 Y6.93429
G01 X37.38216 Y6.92248
G01 X37.48485 Y6.89779
G01 X37.53469 Y6.87866
G01 X37.62999 Y6.83317
G01 X37.71703 Y6.77338
G01 X37.75854 Y6.73978
G01 X37.79628 Y6.70203
G01 X37.86484 Y6.62169
G01 X37.92006 Y6.53168
G01 X37.94429 Y6.48410
G01 X37.96085 Y6.44097
G01 X37.94624 Y6.41669
G01 X37.96085 Y6.44097
G01 X41.13092 Y6.44097
G01 X41.13628 Y6.42804
G01 X41.13092 Y6.44097
G01 X41.87974 Y7.18979
G01 X41.89267 Y7.18443
G01 X41.87974 Y7.18979
G01 X41.87974 Y7.87864
G01 X41.89754 Y7.88753
G01 X41.87974 Y7.87864
G01 X41.76036 Y7.96883
G01 X41.58571 Y8.15860
G01 X41.58571 Y7.90452
G01 X41.64659 Y7.84249
G01 X41.70191 Y7.79771
G01 X41.70974 Y7.79202
G01 X41.72429 Y7.79847
G01 X41.70974 Y7.79202
G01 X41.70974 Y7.26017
G01 X41.72266 Y7.25484
G01 X41.70974 Y7.26017
G01 X41.06049 Y6.61097
G01 X41.06585 Y6.59805
G01 X41.06049 Y6.61097
G01 X38.07017 Y6.61097
G01 X38.05968 Y6.59119
G01 X38.07017 Y6.61097
G01 X38.00238 Y6.72162
G01 X37.92262 Y6.81577
G01 X37.87228 Y6.86612
G01 X37.77469 Y6.94163
G01 X37.71498 Y6.98039
G01 X37.60383 Y7.03396
G01 X37.53738 Y7.05946
G01 X37.46862 Y7.07790
G01 X37.41749 Y7.08875
G01 X37.28556 Y7.10406
G01 X36.44998 Y7.10498
G01 X36.38826 Y7.10269
G01 X36.28247 Y7.08875
G01 X36.22308 Y7.07567
G01 X36.27340 Y7.14463
G01 X36.38249 Y7.27262
G01 X36.82570 Y7.27498
G01 X36.38249 Y7.27262
G01 X36.27340 Y7.14463
G01 X36.16288 Y6.99317
G01 X36.05877 Y6.82588
G01 X36.16288 Y6.99317
G01 X36.27340 Y7.14463
G01 X36.47426 Y7.37338
G01 X36.58384 Y7.33790
G01 X36.78605 Y7.28354
G01 X36.99948 Y7.23805
G01 X37.18815 Y7.20795
G01 X37.30878 Y7.19395
G01 X37.57202 Y7.15085
G01 X37.71889 Y7.12248
G01 X37.85993 Y7.08867
G01 X37.91688 Y7.04844
G01 X37.98602 Y6.99246
G01 X38.04894 Y6.92954
G01 X38.13992 Y6.82154
G01 X38.16626 Y6.78098
G01 X38.15800 Y6.76396
G01 X38.16626 Y6.78098
G01 X40.99008 Y6.78098
G01 X40.99544 Y6.76805
G01 X40.99008 Y6.78098
G01 X41.53973 Y7.33058
G01 X41.55266 Y7.32525
G01 X41.53973 Y7.33058
G01 X41.53973 Y7.57661
G01 X41.42495 Y7.35319
G01 X41.42879 Y7.35001
G01 X41.42495 Y7.35319
G01 X41.39003 Y7.32136
G01 X41.21106 Y7.18428
G01 X41.02645 Y7.05776
G01 X40.91967 Y6.95098
G01 X40.92480 Y6.93907
G01 X40.91967 Y6.95098
G01 X40.66536 Y6.95098
G01 X40.88497 Y6.97645
G01 X40.88614 Y6.97295
G01 X40.88497 Y6.97645
G01 X40.92020 Y6.98931
G01 X41.02645 Y7.05776
G01 X40.92020 Y6.98931
G01 X40.88497 Y6.97645
G01 X40.57169 Y6.94115
G01 X40.33971 Y6.92883
G01 X40.12617 Y6.92852
G01 X39.89414 Y6.94079
G01 X39.79607 Y6.95098
G01 X38.25356 Y6.95098
G01 X38.24566 Y6.93442
G01 X38.25356 Y6.95098
G01 X38.21851 Y6.99423
G01 X37.97759 Y7.06076
G01 X37.85993 Y7.08867
G01 X37.97759 Y7.06076
G01 X38.19577 Y7.00140
G01 X38.29338 Y6.97231
G01 X38.29323 Y6.96817
G01 X38.29338 Y6.97231
G01 X38.31970 Y6.97280
G01 X38.48401 Y7.00163
G01 X38.69605 Y7.04663
G01 X38.96072 Y7.11773
G01 X39.22541 Y7.04663
G01 X39.43880 Y7.00127
G01 X39.68066 Y6.96297
G01 X39.89414 Y6.94079
G01 X40.12617 Y6.92852
G01 X40.33527 Y6.92870
G01 X40.56727 Y6.94079
G01 X40.78269 Y6.96332
G01 X40.88497 Y6.97645
G01 X40.90915 Y6.98329
G01 X41.03585 Y7.06386
G01 X41.21106 Y7.18428
G01 X41.41339 Y7.34117
G01 X41.43394 Y7.36721
G01 X41.52716 Y7.55019
G01 X41.57750 Y7.65621
G01 X41.58571 Y7.69266
G01 X41.58878 Y7.69207
G01 X41.58571 Y7.69266
G01 X41.58573 Y10.66111
G01 X41.57570 Y10.70119
G01 X41.58670 Y10.70540
G01 X41.57570 Y10.70119
G01 X41.47832 Y10.82064
G01 X41.32843 Y10.97906
G01 X41.24918 Y11.05364
G01 X41.06887 Y11.20693
G01 X41.01736 Y11.30337
G01 X40.93768 Y11.42826
G01 X40.84708 Y11.54251
G01 X40.77979 Y11.61531
G01 X39.36257 Y13.03255
G01 X39.28853 Y13.10111
G01 X39.22643 Y13.15241
G01 X39.20491 Y13.16537
G01 X39.20725 Y13.17047
G01 X39.20491 Y13.16537
G01 X39.04949 Y13.20093
G01 X39.01833 Y13.03380
G01 X39.05955 Y13.02559
G01 X39.11637 Y12.99600
G01 X39.17179 Y12.95899
G01 X39.23501 Y12.90499
G01 X40.65076 Y11.48925
G01 X40.70476 Y11.42603
G01 X40.74177 Y11.37060
G01 X40.77951 Y11.29654
G01 X40.79076 Y11.26512
G01 X40.81332 Y11.18511
G01 X40.82310 Y11.10256
G01 X40.82472 Y11.03733
G01 X40.80438 Y11.02392
G01 X40.82472 Y11.03733
G01 X40.90075 Y11.00147
G01 X41.12736 Y10.83680
G01 X41.31482 Y10.62862
G01 X41.41570 Y10.45758
G01 X41.41573 Y7.71178
G01 X41.29013 Y7.45944
G01 X41.11294 Y7.32311
G01 X40.93303 Y7.19980
G01 X40.85495 Y7.16985
G01 X40.75183 Y7.14222
G01 X40.64746 Y7.12004
G01 X40.55612 Y7.11044
G01 X40.64746 Y7.12004
G01 X40.75183 Y7.14222
G01 X40.85495 Y7.16985
G01 X40.93303 Y7.19980
G01 X40.85495 Y7.16985
G01 X40.75183 Y7.14222
G01 X40.64746 Y7.12004
G01 X40.55612 Y7.11044
G01 X40.33300 Y7.09870
G01 X40.12843 Y7.09870
G01 X39.90529 Y7.11044
G01 X39.81408 Y7.12002
G01 X39.70964 Y7.14222
G01 X39.60651 Y7.16985
G01 X39.50684 Y7.20810
G01 X39.31586 Y7.29312
G01 X39.22074 Y7.34160
G01 X39.13120 Y7.39977
G01 X39.04573 Y7.46185
G01 X39.04573 Y7.67335
G01 X39.23113 Y7.53729
G01 X39.30573 Y7.48885
G01 X39.38500 Y7.44841
G01 X39.57598 Y7.36342
G01 X39.65907 Y7.33152
G01 X39.74499 Y7.30851
G01 X39.94949 Y7.26502
G01 X40.03735 Y7.25113
G01 X40.12620 Y7.24646
G01 X40.33527 Y7.24646
G01 X40.42411 Y7.25113
G01 X40.51200 Y7.26502
G01 X40.71647 Y7.30851
G01 X40.80242 Y7.33152
G01 X40.88548 Y7.36342
G01 X41.07646 Y7.44841
G01 X41.15574 Y7.48885
G01 X41.23036 Y7.53729
G01 X41.38685 Y7.65098
G01 X41.41573 Y7.71178
G01 X41.41570 Y8.15852
G01 X41.24113 Y7.96883
G01 X41.03051 Y7.81237
G01 X40.98573 Y7.78329
G01 X40.93818 Y7.75905
G01 X40.74720 Y7.67401
G01 X40.69734 Y7.65489
G01 X40.64578 Y7.64107
G01 X40.38858 Y7.58925
G01 X40.12620 Y7.58646
G01 X40.07291 Y7.58925
G01 X40.02018 Y7.59761
G01 X39.76412 Y7.65489
G01 X39.71429 Y7.67401
G01 X39.47573 Y7.78329
G01 X39.26184 Y7.93525
G01 X39.22036 Y7.96883
G01 X39.04573 Y8.15860
G01 X39.04573 Y7.90455
G01 X39.10659 Y7.84249
G01 X39.16191 Y7.79771
G01 X39.33105 Y7.67483
G01 X39.39074 Y7.63607
G01 X39.45416 Y7.60376
G01 X39.64515 Y7.51872
G01 X39.71159 Y7.49322
G01 X39.78035 Y7.47480
G01 X39.98482 Y7.43129
G01 X40.05513 Y7.42017
G01 X40.12620 Y7.41643
G01 X40.33527 Y7.41643
G01 X40.40633 Y7.42017
G01 X40.47664 Y7.43129
G01 X40.68114 Y7.47480
G01 X40.74989 Y7.49322
G01 X40.81634 Y7.51872
G01 X41.00732 Y7.60376
G01 X41.07075 Y7.63607
G01 X41.13044 Y7.67483
G01 X41.29955 Y7.79771
G01 X41.35487 Y7.84249
G01 X41.40521 Y7.89284
G01 X41.41570 Y7.90452
G01 X41.41570 Y8.47434
G01 X41.41573 Y7.71178
G01 X41.29013 Y7.45944
G01 X41.11294 Y7.32311
G01 X40.84428 Y7.14262
G01 X40.55612 Y7.11044
G01 X40.33300 Y7.09870
G01 X40.12843 Y7.09870
G01 X39.90529 Y7.11044
G01 X39.70072 Y7.13193
G01 X39.46768 Y7.16894
G01 X39.26298 Y7.21247
G01 X39.04573 Y7.27084
G01 X39.04573 Y10.45752
G01 X39.14665 Y10.62862
G01 X39.33410 Y10.83680
G01 X39.50016 Y10.95976
G01 X39.58716 Y10.95425
G01 X39.50016 Y10.95976
G01 X38.56895 Y11.89097
G01 X38.57431 Y11.90390
G01 X38.56895 Y11.89097
G01 X24.56341 Y11.89097
G01 X24.54513 Y11.89537
G01 X24.65836 Y11.86621
G01 X24.81475 Y11.81076
G01 X25.85236 Y11.38097
G01 X31.32670 Y11.38097
G01 X31.17374 Y11.32194
G01 X30.92939 Y11.21096
G01 X26.26275 Y11.21096
G01 X24.81475 Y11.81076
G01 X25.03154 Y11.72097
G01 X38.49851 Y11.72097
G01 X38.50387 Y11.73390
G01 X38.49851 Y11.72097
G01 X39.24025 Y10.97924
G01 X39.30733 Y10.98021
G01 X39.24025 Y10.97924
G01 X39.18261 Y10.92539
G01 X39.04573 Y10.77337
G01 X39.04573 Y10.45752
G01 X39.04421 Y10.99288
G01 X39.04896 Y10.99405
G01 X39.04421 Y10.99288
G01 X39.02409 Y11.03662
G01 X38.83255 Y11.22344
G01 X38.66961 Y11.36242
G01 X38.54634 Y11.45696
G01 X38.46839 Y11.51066
G01 X38.42811 Y11.55097
G01 X38.43090 Y11.55770
G01 X38.42811 Y11.55097
G01 X38.37576 Y11.55097
G01 X38.32331 Y11.56212
G01 X38.40845 Y11.54401
G01 X38.40979 Y11.54762
G01 X38.40845 Y11.54401
G01 X38.43893 Y11.53093
G01 X38.46839 Y11.51066
G01 X38.42435 Y11.53898
G01 X38.32331 Y11.56212
G01 X38.15983 Y11.58808
G01 X37.94634 Y11.61041
G01 X37.79527 Y11.61856
G01 X37.58173 Y11.61810
G01 X37.43062 Y11.61033
G01 X37.22161 Y11.58808
G01 X37.05816 Y11.56212
G01 X36.84912 Y11.51767
G01 X36.65013 Y11.46311
G01 X36.10091 Y11.48861
G01 X35.99235 Y11.51767
G01 X35.78331 Y11.56212
G01 X35.83576 Y11.55097
G01 X37.00571 Y11.55097
G01 X37.05816 Y11.56212
G01 X36.84904 Y11.51792
G01 X36.67360 Y11.47063
G01 X36.42072 Y11.38782
G01 X36.16794 Y11.47063
G01 X35.99674 Y11.51663
G01 X35.78331 Y11.56212
G01 X35.61983 Y11.58808
G01 X35.41081 Y11.61033
G01 X35.25527 Y11.61823
G01 X35.04617 Y11.61846
G01 X34.89065 Y11.61005
G01 X34.68158 Y11.58823
G01 X34.46568 Y11.55097
G01 X33.29578 Y11.55097
G01 X33.08430 Y11.58749
G01 X32.87081 Y11.61033
G01 X32.71527 Y11.61823
G01 X32.50617 Y11.61846
G01 X32.35065 Y11.61005
G01 X32.14158 Y11.58823
G01 X31.92568 Y11.55097
G01 X25.44195 Y11.55097
G01 X24.81475 Y11.81076
G01 X24.65836 Y11.86621
G01 X24.54513 Y11.89537
G01 X24.43512 Y11.91467
G01 X24.32725 Y11.92501
G01 X24.24998 Y11.92775
G01 X16.13999 Y11.92747
G01 X16.04916 Y11.98188
G01 X15.98139 Y12.01665
G01 X15.87580 Y12.06098
G01 X13.92414 Y12.06095
G01 X13.81855 Y12.01665
G01 X13.67139 Y11.93494
G01 X11.91820 Y11.93494
G01 X11.90505 Y11.92793
G01 X11.91830 Y11.76496
G01 X11.96019 Y11.73520
G01 X11.98135 Y11.70944
G01 X11.99704 Y11.68005
G01 X12.00764 Y11.63898
G01 X13.85815 Y11.63895
G01 X13.86415 Y11.68732
G01 X13.89130 Y11.77081
G01 X13.92551 Y11.83194
G01 X13.94639 Y11.86070
G01 X13.99394 Y11.91211
G01 X14.05008 Y11.95402
G01 X14.08083 Y11.97180
G01 X14.16237 Y12.00403
G01 X14.21350 Y12.01490
G01 X14.27499 Y12.01998
G01 X15.52498 Y12.01998
G01 X15.58647 Y12.01490
G01 X15.67138 Y11.99306
G01 X15.73498 Y11.96372
G01 X15.80603 Y11.91211
G01 X15.86478 Y11.84685
G01 X15.90867 Y11.77081
G01 X15.93580 Y11.68732
G01 X15.94339 Y11.62397
G01 X24.24998 Y11.62397
G01 X24.30304 Y11.62034
G01 X24.36814 Y11.60685
G01 X24.43034 Y11.58335
G01 X24.48808 Y11.55041
G01 X24.54977 Y11.49979
G01 X26.15960 Y9.88996
G01 X31.44496 Y9.88996
G01 X31.46630 Y10.08425
G01 X31.54189 Y10.31686
G01 X31.66419 Y10.52870
G01 X31.82787 Y10.71046
G01 X32.02573 Y10.85425
G01 X32.24918 Y10.95371
G01 X32.48844 Y11.00459
G01 X32.71527 Y11.00550
G01 X32.75062 Y11.00180
G01 X32.97229 Y10.95371
G01 X33.17988 Y10.86232
G01 X33.21067 Y10.84454
G01 X33.39362 Y10.71046
G01 X33.54610 Y10.54251
G01 X33.56698 Y10.51376
G01 X33.67150 Y10.33273
G01 X33.68595 Y10.30025
G01 X33.75517 Y10.08425
G01 X33.77980 Y9.85874
G01 X33.78074 Y9.09098
G01 X33.75517 Y8.84772
G01 X33.67958 Y8.61511
G01 X33.55728 Y8.40327
G01 X33.40620 Y8.23408
G01 X33.37978 Y8.21031
G01 X33.19573 Y8.07775
G01 X32.98890 Y7.98463
G01 X32.95509 Y7.97363
G01 X32.75062 Y7.93017
G01 X32.71527 Y7.92647
G01 X32.48844 Y7.92741
G01 X32.24918 Y7.97826
G01 X32.02573 Y8.07775
G01 X31.82787 Y8.22151
G01 X31.66419 Y8.40327
G01 X31.54189 Y8.61511
G01 X31.46630 Y8.84772
G01 X31.44755 Y9.01712
G01 X31.42060 Y9.04198
G01 X31.44755 Y9.01712
G01 X31.44496 Y9.04198
G01 X25.98399 Y9.04198
G01 X25.90456 Y9.04981
G01 X25.84042 Y9.06733
G01 X25.80360 Y9.08260
G01 X25.74586 Y9.11554
G01 X25.68416 Y9.16616
G01 X24.07434 Y10.77599
G01 X15.94339 Y10.77599
G01 X15.93580 Y10.71267
G01 X15.90867 Y10.62915
G01 X15.86478 Y10.55310
G01 X15.80603 Y10.48788
G01 X15.73498 Y10.43626
G01 X15.67138 Y10.40693
G01 X15.58647 Y10.38508
G01 X15.52498 Y10.37998
G01 X14.27499 Y10.37998
G01 X14.21350 Y10.38508
G01 X14.16237 Y10.39593
G01 X14.08083 Y10.42819
G01 X14.05008 Y10.44594
G01 X13.99394 Y10.48788
G01 X13.93519 Y10.55310
G01 X13.89935 Y10.61330
G01 X13.88492 Y10.64576
G01 X13.86415 Y10.71267
G01 X13.85546 Y10.79098
G01 X12.21840 Y10.79098
G01 X12.18079 Y10.77708
G01 X12.05546 Y10.71424
G01 X11.91820 Y10.66497
G01 X12.05546 Y10.71424
G01 X12.18079 Y10.77708
G01 X12.21840 Y10.79098
G01 X12.00761 Y10.79098
G01 X11.99704 Y10.74993
G01 X11.98135 Y10.72054
G01 X11.96019 Y10.69479
G01 X11.93443 Y10.67363
G01 X11.90505 Y10.65793
G01 X11.87314 Y10.64825
G01 X11.84000 Y10.64498
G01 X10.04000 Y10.64498
G01 X10.00683 Y10.64825
G01 X9.96177 Y10.66497
G01 X9.73652 Y10.66497
G01 X9.72588 Y10.68488
G01 X9.70652 Y10.74866
G01 X9.69999 Y10.81498
G01 X9.69999 Y11.61498
G01 X9.70652 Y11.68132
G01 X9.72588 Y11.74510
G01 X9.73649 Y11.76496
G01 X9.55509 Y11.76496
G01 X9.53980 Y11.71449
G01 X9.52999 Y11.61498
G01 X9.52999 Y10.81498
G01 X9.53980 Y10.71549
G01 X9.55511 Y10.66497
G01 X9.37833 Y10.66497
G01 X9.37305 Y10.68231
G01 X9.35999 Y10.81498
G01 X9.35999 Y11.61498
G01 X9.37305 Y11.74764
G01 X9.37830 Y11.76496
G01 X9.20477 Y11.76496
G01 X9.18999 Y11.61498
G01 X9.18999 Y10.81498
G01 X9.20477 Y10.66497
G01 X9.03477 Y10.66497
G01 X9.01999 Y10.81498
G01 X9.01999 Y11.61498
G01 X9.03477 Y11.76496
G01 X8.86477 Y11.76496
G01 X8.84998 Y11.61498
G01 X8.84998 Y10.81498
G01 X8.86477 Y10.66497
G01 X8.69476 Y10.66497
G01 X8.67998 Y10.81498
G01 X8.67998 Y11.61498
G01 X8.69476 Y11.76496
G01 X8.52476 Y11.76496
G01 X8.50998 Y11.61498
G01 X8.50998 Y10.81498
G01 X8.52476 Y10.66497
G01 X8.50998 Y10.81498
G01 X9.87000 Y10.81498
G01 X9.69999 Y10.81498
G01 X9.70652 Y10.74866
G01 X9.72588 Y10.68488
G01 X9.73652 Y10.66497
G01 X8.38499 Y10.66497
G01 X8.38499 Y11.76496
G01 X9.96167 Y11.76496
G01 X9.91978 Y11.73520
G01 X9.89865 Y11.70944
G01 X9.88293 Y11.68005
G01 X9.87325 Y11.64815
G01 X9.87000 Y11.61498
G01 X9.87000 Y10.81498
G01 X9.87325 Y10.78183
G01 X9.88293 Y10.74993
G01 X9.89865 Y10.72054
G01 X9.91978 Y10.69479
G01 X9.96177 Y10.66497
G01 X9.91978 Y10.69479
G01 X9.89865 Y10.72054
G01 X9.88293 Y10.74993
G01 X9.87325 Y10.78183
G01 X9.87000 Y10.81498
G01 X9.87000 Y11.61498
G01 X9.87325 Y11.64815
G01 X9.88293 Y11.68005
G01 X9.89865 Y11.70944
G01 X9.91978 Y11.73520
G01 X9.94554 Y11.75633
G01 X9.97492 Y11.77205
G01 X10.00683 Y11.78173
G01 X10.04000 Y11.78498
G01 X11.84000 Y11.78498
G01 X11.87314 Y11.78173
G01 X11.91830 Y11.76496
G01 X13.69562 Y11.76496
G01 X13.69656 Y11.76080
G01 X13.69562 Y11.76496
G01 X13.72635 Y11.77070
G01 X13.74042 Y11.77772
G01 X13.83390 Y11.83357
G01 X13.89387 Y11.86425
G01 X13.98340 Y11.90159
G01 X14.05008 Y11.95402
G01 X14.08083 Y11.97180
G01 X14.16237 Y12.00403
G01 X14.21350 Y12.01490
G01 X14.26610 Y12.01975
G01 X15.52498 Y12.01998
G01 X15.58647 Y12.01490
G01 X15.65477 Y11.99943
G01 X15.71913 Y11.97180
G01 X15.74992 Y11.95402
G01 X15.81649 Y11.90164
G01 X15.90605 Y11.86425
G01 X15.96605 Y11.83357
G01 X16.07009 Y11.77058
G01 X16.08428 Y11.76339
G01 X16.11543 Y11.75747
G01 X16.11446 Y11.75320
G01 X16.11543 Y11.75747
G01 X24.24906 Y11.75747
G01 X24.41015 Y11.74650
G01 X24.57073 Y11.71437
G01 X24.71327 Y11.66794
G01 X25.78736 Y11.22389
G01 X26.44126 Y10.56997
G01 X26.43590 Y10.55704
G01 X26.44126 Y10.56997
G01 X30.91166 Y10.56997
G01 X30.92520 Y10.54678
G01 X30.91166 Y10.56997
G01 X30.92068 Y10.59344
G01 X30.96106 Y10.67271
G01 X31.06561 Y10.85376
G01 X31.11405 Y10.92839
G01 X31.17006 Y10.99753
G01 X31.30993 Y11.15290
G01 X31.37463 Y11.21724
G01 X31.24090 Y11.16575
G01 X30.99835 Y11.05526
G01 X30.97653 Y11.02831
G01 X30.91837 Y10.93878
G01 X30.81385 Y10.75773
G01 X30.80480 Y10.73997
G01 X30.81692 Y10.71833
G01 X30.80480 Y10.73997
G01 X26.51167 Y10.73997
G01 X26.50631 Y10.72702
G01 X26.51167 Y10.73997
G01 X26.19778 Y11.05384
G01 X25.78736 Y11.22389
G01 X26.57667 Y10.89692
G01 X26.60923 Y10.89044
G01 X26.60860 Y10.88724
G01 X26.60923 Y10.89044
G01 X30.68238 Y10.89174
G01 X30.68339 Y10.88734
G01 X30.68238 Y10.89174
G01 X30.71011 Y10.90182
G01 X30.80193 Y10.95486
G01 X31.03589 Y11.07447
G01 X31.24090 Y11.16575
G01 X31.43503 Y11.24051
G01 X31.63980 Y11.30703
G01 X31.80668 Y11.35186
G01 X32.01133 Y11.39537
G01 X32.16165 Y11.41924
G01 X32.36622 Y11.44073
G01 X32.50838 Y11.44823
G01 X32.71306 Y11.44823
G01 X32.85519 Y11.44076
G01 X33.05984 Y11.41924
G01 X33.26060 Y11.38465
G01 X33.45075 Y11.29590
G01 X33.51044 Y11.25714
G01 X33.67955 Y11.13426
G01 X33.73487 Y11.08948
G01 X33.79573 Y11.02748
G01 X33.79573 Y10.77340
G01 X33.79573 Y11.02748
G01 X33.73487 Y11.08948
G01 X33.67955 Y11.13426
G01 X33.51044 Y11.25714
G01 X33.45075 Y11.29590
G01 X33.26060 Y11.38465
G01 X33.41478 Y11.35186
G01 X33.58166 Y11.30703
G01 X33.79573 Y11.23733
G01 X33.79573 Y8.72806
G01 X33.68595 Y8.63172
G01 X33.79573 Y8.72806
G01 X33.79573 Y11.02748
G01 X33.73487 Y11.08948
G01 X33.67955 Y11.13426
G01 X33.51044 Y11.25714
G01 X33.45075 Y11.29590
G01 X33.26060 Y11.38465
G01 X33.05984 Y11.41924
G01 X32.85519 Y11.44076
G01 X32.71306 Y11.44823
G01 X32.50838 Y11.44823
G01 X32.36622 Y11.44073
G01 X32.16165 Y11.41924
G01 X32.01133 Y11.39537
G01 X31.96083 Y11.38462
G01 X31.83416 Y11.32821
G01 X31.77074 Y11.29590
G01 X31.71105 Y11.25714
G01 X31.54191 Y11.13426
G01 X31.48659 Y11.08948
G01 X31.43627 Y11.03913
G01 X31.29637 Y10.88379
G01 X31.25159 Y10.82847
G01 X31.21283 Y10.76878
G01 X31.10828 Y10.58773
G01 X31.07597 Y10.52430
G01 X31.03168 Y10.39997
G01 X31.05108 Y10.37106
G01 X31.03168 Y10.39997
G01 X26.37085 Y10.39997
G01 X26.36549 Y10.38704
G01 X26.37085 Y10.39997
G01 X25.37693 Y11.39390
G01 X24.96651 Y11.56387
G01 X26.30044 Y10.22997
G01 X26.29509 Y10.21704
G01 X26.30044 Y10.22997
G01 X31.15517 Y10.22997
G01 X31.17806 Y10.19809
G01 X31.15517 Y10.22997
G01 X31.21214 Y10.40533
G01 X31.23130 Y10.45516
G01 X31.25553 Y10.50274
G01 X31.38913 Y10.72854
G01 X31.42271 Y10.77002
G01 X31.60036 Y10.96314
G01 X31.64184 Y10.99674
G01 X31.85573 Y11.14868
G01 X32.09429 Y11.25795
G01 X32.14412 Y11.27708
G01 X32.19568 Y11.29090
G01 X32.45291 Y11.34271
G01 X32.50620 Y11.34551
G01 X32.76858 Y11.34271
G01 X33.02578 Y11.29090
G01 X33.07734 Y11.27708
G01 X33.12720 Y11.25795
G01 X33.31818 Y11.17292
G01 X33.36573 Y11.14868
G01 X33.41051 Y11.11960
G01 X33.62113 Y10.96314
G01 X33.79573 Y10.77340
G01 X33.79573 Y10.45758
G01 X33.69482 Y10.62862
G01 X33.53254 Y10.81163
G01 X33.47970 Y10.85920
G01 X33.28075 Y11.00147
G01 X33.02481 Y11.11541
G01 X32.78595 Y11.16809
G01 X32.71527 Y11.17551
G01 X32.47066 Y11.17365
G01 X32.19665 Y11.11541
G01 X31.97244 Y11.01762
G01 X31.91090 Y10.98209
G01 X31.74176 Y10.85920
G01 X31.68893 Y10.81163
G01 X31.52665 Y10.62862
G01 X31.38659 Y10.38602
G01 X31.30003 Y10.11958
G01 X31.29187 Y10.05996
G01 X31.32462 Y10.02064
G01 X31.29187 Y10.05996
G01 X26.23001 Y10.05996
G01 X26.22465 Y10.04704
G01 X26.23001 Y10.05996
G01 X24.66999 Y11.62001
G01 X24.62008 Y11.66400
G01 X24.57690 Y11.69537
G01 X24.52491 Y11.72537
G01 X26.26275 Y11.21096
G01 X26.62615 Y11.06044
G01 X30.64483 Y11.06044
G01 X30.72261 Y11.10522
G01 X30.96056 Y11.22689
G01 X31.17374 Y11.32194
G01 X31.38034 Y11.40149
G01 X31.59355 Y11.47081
G01 X31.76912 Y11.51767
G01 X31.98250 Y11.56293
G01 X32.14158 Y11.58823
G01 X32.35065 Y11.61005
G01 X32.50617 Y11.61846
G01 X32.71527 Y11.61823
G01 X32.86634 Y11.61041
G01 X33.07983 Y11.58808
G01 X33.23896 Y11.56293
G01 X33.45674 Y11.51663
G01 X33.62794 Y11.47063
G01 X33.88072 Y11.38782
G01 X34.13355 Y11.47078
G01 X34.30472 Y11.51663
G01 X34.51816 Y11.56212
G01 X38.34060 Y11.38465
G01 X38.35658 Y11.38125
G01 X38.44467 Y11.32069
G01 X38.56440 Y11.22890
G01 X38.72046 Y11.09562
G01 X38.82470 Y10.99672
G01 X38.87573 Y10.94294
G01 X38.87573 Y10.77340
G01 X38.70113 Y10.96314
G01 X38.49051 Y11.11960
G01 X38.44573 Y11.14868
G01 X38.39818 Y11.17292
G01 X38.20720 Y11.25795
G01 X38.15734 Y11.27708
G01 X38.10578 Y11.29090
G01 X37.84858 Y11.34271
G01 X37.58620 Y11.34551
G01 X37.53291 Y11.34271
G01 X37.48018 Y11.33436
G01 X37.22412 Y11.27708
G01 X37.17429 Y11.25795
G01 X36.93573 Y11.14868
G01 X36.72184 Y10.99674
G01 X36.68036 Y10.96314
G01 X36.50573 Y10.77337
G01 X36.50573 Y10.45752
G01 X36.60665 Y10.62862
G01 X36.76893 Y10.81163
G01 X36.82176 Y10.85920
G01 X36.99090 Y10.98209
G01 X37.05244 Y11.01762
G01 X37.27665 Y11.11541
G01 X37.51551 Y11.16809
G01 X37.58620 Y11.17551
G01 X37.83080 Y11.17365
G01 X38.07045 Y11.12460
G01 X38.13804 Y11.10266
G01 X38.36075 Y11.00147
G01 X38.55970 Y10.85920
G01 X38.61254 Y10.81163
G01 X38.77482 Y10.62862
G01 X38.87573 Y10.45758
G01 X38.87573 Y10.77340
G01 X38.87573 Y7.67333
G01 X38.69036 Y7.53729
G01 X38.61574 Y7.48885
G01 X38.53646 Y7.44841
G01 X38.34548 Y7.36342
G01 X38.26242 Y7.33152
G01 X38.17647 Y7.30851
G01 X37.97200 Y7.26502
G01 X37.90062 Y7.25375
G01 X37.81559 Y7.27470
G01 X38.02013 Y7.22535
G01 X38.26735 Y7.15710
G01 X38.31495 Y7.16985
G01 X38.41462 Y7.20810
G01 X38.60560 Y7.29312
G01 X38.70075 Y7.34160
G01 X38.79028 Y7.39977
G01 X38.87573 Y7.46185
G01 X38.87573 Y7.67333
G01 X38.87573 Y7.27084
G01 X38.65848 Y7.21247
G01 X38.45313 Y7.16881
G01 X38.31020 Y7.14374
G01 X38.02013 Y7.22535
G01 X37.70278 Y7.29969
G01 X37.33423 Y7.36203
G01 X37.21259 Y7.37623
G01 X37.03268 Y7.40480
G01 X36.86110 Y7.44125
G01 X36.76573 Y7.48885
G01 X36.69113 Y7.53729
G01 X36.50571 Y7.67333
G01 X36.69113 Y7.53729
G01 X36.76573 Y7.48885
G01 X36.86110 Y7.44125
G01 X36.63007 Y7.50150
G01 X36.51003 Y7.54051
G01 X36.50571 Y7.54897
G01 X36.50573 Y9.06261
G01 X36.52074 Y9.09098
G01 X36.52074 Y9.84099
G01 X36.54630 Y10.08425
G01 X36.62189 Y10.31686
G01 X36.74419 Y10.52870
G01 X36.90787 Y10.71046
G01 X37.09082 Y10.84454
G01 X37.12158 Y10.86232
G01 X37.32918 Y10.95371
G01 X37.56844 Y11.00459
G01 X37.81305 Y11.00459
G01 X38.03509 Y10.95834
G01 X38.06890 Y10.94734
G01 X38.25988 Y10.86232
G01 X38.29067 Y10.84454
G01 X38.47362 Y10.71046
G01 X38.63728 Y10.52870
G01 X38.75150 Y10.33273
G01 X38.76595 Y10.30025
G01 X38.83517 Y10.08425
G01 X38.85980 Y9.85874
G01 X38.85980 Y9.07322
G01 X38.83517 Y8.84772
G01 X38.76595 Y8.63172
G01 X38.75150 Y8.59926
G01 X38.64698 Y8.41821
G01 X38.62610 Y8.38946
G01 X38.47362 Y8.22151
G01 X38.27573 Y8.07775
G01 X38.06890 Y7.98463
G01 X38.03509 Y7.97363
G01 X37.81305 Y7.92741
G01 X37.56844 Y7.92741
G01 X37.34637 Y7.97363
G01 X37.31256 Y7.98463
G01 X37.10573 Y8.07775
G01 X36.90787 Y8.22151
G01 X36.75539 Y8.38946
G01 X36.73448 Y8.41821
G01 X36.62189 Y8.61511
G01 X36.55092 Y8.83055
G01 X36.54353 Y8.86530
G01 X36.52074 Y9.09098
G01 X36.50573 Y9.06261
G01 X36.50573 Y11.02742
G01 X36.56659 Y11.08948
G01 X36.62191 Y11.13426
G01 X36.79105 Y11.25714
G01 X36.85074 Y11.29590
G01 X37.04083 Y11.38462
G01 X37.24160 Y11.41924
G01 X37.44619 Y11.44073
G01 X37.58841 Y11.44823
G01 X37.79303 Y11.44823
G01 X37.93522 Y11.44073
G01 X38.13984 Y11.41924
G01 X38.29011 Y11.39537
G01 X38.34060 Y11.38465
G01 X38.37190 Y11.37071
G01 X38.34060 Y11.38465
G01 X37.35005 Y11.43062
G01 X37.24160 Y11.41924
G01 X37.09136 Y11.39537
G01 X36.88666 Y11.35186
G01 X36.71983 Y11.30703
G01 X36.50571 Y11.23730
G01 X36.50573 Y7.90455
G01 X36.56659 Y7.84249
G01 X36.62191 Y7.79771
G01 X36.79105 Y7.67483
G01 X36.85074 Y7.63607
G01 X36.91416 Y7.60376
G01 X37.10515 Y7.51872
G01 X37.17159 Y7.49322
G01 X37.24035 Y7.47480
G01 X37.44482 Y7.43129
G01 X37.51513 Y7.42017
G01 X37.58620 Y7.41643
G01 X37.79527 Y7.41643
G01 X37.86633 Y7.42017
G01 X37.93664 Y7.43129
G01 X38.14114 Y7.47480
G01 X38.20989 Y7.49322
G01 X38.27634 Y7.51872
G01 X38.46732 Y7.60376
G01 X38.53075 Y7.63607
G01 X38.59044 Y7.67483
G01 X38.75955 Y7.79771
G01 X38.81487 Y7.84249
G01 X38.87573 Y7.90452
G01 X38.87573 Y8.15857
G01 X38.70113 Y7.96883
G01 X38.49051 Y7.81237
G01 X38.44573 Y7.78329
G01 X38.39818 Y7.75905
G01 X38.20720 Y7.67401
G01 X38.15734 Y7.65489
G01 X38.10578 Y7.64107
G01 X37.84858 Y7.58925
G01 X37.79527 Y7.58646
G01 X37.53291 Y7.58925
G01 X37.27568 Y7.64107
G01 X37.22412 Y7.65489
G01 X37.17429 Y7.67401
G01 X36.93573 Y7.78329
G01 X36.72184 Y7.93525
G01 X36.68036 Y7.96883
G01 X36.50573 Y8.15860
G01 X36.50573 Y8.47444
G01 X36.60665 Y8.30335
G01 X36.76893 Y8.12034
G01 X36.82176 Y8.07277
G01 X36.99090 Y7.94988
G01 X37.05244 Y7.91435
G01 X37.27665 Y7.81656
G01 X37.51551 Y7.76391
G01 X37.58620 Y7.75646
G01 X37.83080 Y7.75832
G01 X38.07045 Y7.80736
G01 X38.13804 Y7.82934
G01 X38.36075 Y7.93050
G01 X38.55970 Y8.07277
G01 X38.61254 Y8.12034
G01 X38.77482 Y8.30335
G01 X38.87573 Y8.47442
G01 X39.04573 Y8.47444
G01 X39.14665 Y8.30335
G01 X39.30893 Y8.12034
G01 X39.36176 Y8.07277
G01 X39.53090 Y7.94988
G01 X39.59244 Y7.91435
G01 X39.81665 Y7.81656
G01 X40.05551 Y7.76391
G01 X40.12620 Y7.75646
G01 X40.33527 Y7.75646
G01 X40.40595 Y7.76391
G01 X40.64481 Y7.81656
G01 X40.86902 Y7.91435
G01 X40.93059 Y7.94988
G01 X41.09970 Y8.07277
G01 X41.15254 Y8.12034
G01 X41.31482 Y8.30335
G01 X41.41570 Y8.47434
G01 X41.41573 Y10.63212
G01 X41.35050 Y10.70855
G01 X41.20958 Y10.85704
G01 X41.13712 Y10.92580
G01 X40.93575 Y11.09471
G01 X40.87044 Y11.21777
G01 X40.79706 Y11.33184
G01 X40.71690 Y11.43314
G01 X40.65731 Y11.49743
G01 X39.21363 Y12.93969
G01 X39.13296 Y13.00911
G01 X39.01833 Y13.03380
G01 X38.89773 Y13.04799
G01 X38.81383 Y13.05122
G01 X16.17598 Y13.05119
G01 X16.07707 Y12.99138
G01 X16.00875 Y12.95630
G01 X15.89528 Y12.90895
G01 X12.00764 Y12.90895
G01 X11.99704 Y12.95005
G01 X11.98135 Y12.97944
G01 X11.96019 Y13.00520
G01 X11.93443 Y13.02633
G01 X11.90505 Y13.04205
G01 X11.87314 Y13.05173
G01 X11.84000 Y13.05498
G01 X10.04000 Y13.05498
G01 X10.00683 Y13.05173
G01 X9.96167 Y13.03496
G01 X9.55509 Y13.03496
G01 X9.53980 Y12.98449
G01 X9.52999 Y12.88498
G01 X9.52999 Y12.08498
G01 X9.53980 Y11.98549
G01 X9.55511 Y11.93497
G01 X9.37833 Y11.93497
G01 X9.37305 Y11.95231
G01 X9.35999 Y12.08498
G01 X9.35999 Y12.88498
G01 X9.37305 Y13.01764
G01 X9.37830 Y13.03496
G01 X9.55509 Y13.03496
G01 X8.38499 Y13.03496
G01 X8.38499 Y11.93497
G01 X8.52476 Y11.93497
G01 X8.50998 Y12.08498
G01 X8.52476 Y11.93497
G01 X9.96177 Y11.93497
G01 X9.91978 Y11.96479
G01 X9.89865 Y11.99054
G01 X9.88293 Y12.01993
G01 X9.87325 Y12.05183
G01 X9.87000 Y12.08498
G01 X8.50998 Y12.08498
G01 X8.50998 Y12.88498
G01 X8.52476 Y13.03496
G01 X8.69476 Y13.03496
G01 X8.67998 Y12.88498
G01 X8.67998 Y12.08498
G01 X8.69476 Y11.93497
G01 X8.86477 Y11.93497
G01 X8.84998 Y12.08498
G01 X8.84998 Y12.88498
G01 X8.86477 Y13.03496
G01 X9.20475 Y13.03496
G01 X9.18999 Y12.88498
G01 X9.18999 Y12.08498
G01 X9.20477 Y11.93497
G01 X9.03477 Y11.93497
G01 X9.01999 Y12.08498
G01 X9.01999 Y12.88498
G01 X9.03477 Y13.03496
G01 X9.20475 Y13.03496
G01 X9.18999 Y12.88498
G01 X9.18999 Y12.08498
G01 X9.69999 Y12.08498
G01 X9.70652 Y12.01866
G01 X9.72588 Y11.95488
G01 X9.73652 Y11.93497
G01 X9.72588 Y11.95488
G01 X9.70652 Y12.01866
G01 X9.69999 Y12.08498
G01 X9.69999 Y12.88498
G01 X9.70652 Y12.95132
G01 X9.72588 Y13.01510
G01 X9.73647 Y13.03496
G01 X9.96167 Y13.03496
G01 X9.91978 Y13.00520
G01 X9.89865 Y12.97944
G01 X9.88293 Y12.95005
G01 X9.87325 Y12.91815
G01 X9.87000 Y12.88498
G01 X9.87000 Y12.08498
G01 X9.87325 Y12.05183
G01 X9.88293 Y12.01993
G01 X9.89865 Y11.99054
G01 X9.91978 Y11.96479
G01 X9.94554 Y11.94363
G01 X9.97492 Y11.92793
G01 X10.00683 Y11.91825
G01 X10.04000 Y11.91498
G01 X11.84000 Y11.91498
G01 X11.87314 Y11.91825
G01 X11.90505 Y11.92793
G01 X11.93443 Y11.94363
G01 X11.96019 Y11.96479
G01 X11.98135 Y11.99054
G01 X11.99704 Y12.01993
G01 X12.00761 Y12.06098
G01 X38.63936 Y12.06098
G01 X39.78365 Y10.91665
G01 X39.64573 Y10.85425
G01 X39.46168 Y10.72166
G01 X39.43527 Y10.69788
G01 X39.29539 Y10.54251
G01 X39.27448 Y10.51376
G01 X39.16189 Y10.31686
G01 X39.09092 Y10.10144
G01 X39.08353 Y10.06667
G01 X39.06074 Y9.84099
G01 X39.06074 Y9.09098
G01 X39.08630 Y8.84772
G01 X39.16189 Y8.61511
G01 X39.28419 Y8.40327
G01 X39.44787 Y8.22151
G01 X39.64573 Y8.07775
G01 X39.85256 Y7.98463
G01 X39.88637 Y7.97363
G01 X40.09087 Y7.93017
G01 X40.12620 Y7.92647
G01 X40.35305 Y7.92741
G01 X40.59229 Y7.97826
G01 X40.81573 Y8.07775
G01 X40.99978 Y8.21031
G01 X41.02620 Y8.23408
G01 X41.16610 Y8.38946
G01 X41.18698 Y8.41821
G01 X41.29958 Y8.61511
G01 X41.37057 Y8.83055
G01 X41.37796 Y8.86530
G01 X41.40074 Y9.09098
G01 X41.40074 Y9.84099
G01 X41.37517 Y10.08425
G01 X41.30595 Y10.30025
G01 X41.29150 Y10.33273
G01 X41.17728 Y10.52870
G01 X41.01362 Y10.71046
G01 X40.81573 Y10.85425
G01 X40.65472 Y10.92694
G01 X40.65391 Y11.08590
G01 X40.64253 Y11.16811
G01 X40.62246 Y11.23149
G01 X40.59186 Y11.29047
G01 X40.53054 Y11.36903
G01 X39.11480 Y12.78477
G01 X39.06394 Y12.82757
G01 X38.99232 Y12.86956
G01 X38.96153 Y12.88231
G01 X38.88119 Y12.90327
G01 X38.81497 Y12.90895
G01 X13.90463 Y12.90895
G01 X13.79133 Y12.95625
G01 X13.64876 Y13.03494
G01 X11.91833 Y13.03494
G04 P0 ( dwell for no time -- G64 should not smooth over this point )
G00 Z2.00000 ( retract )

G00 X15.32396 Y16.03897 ( rapid move to begin. )
G01 F75.00000
( Mill infeed pass 1/1 )
G01 Z-0.17000
G04 P0 ( dwell for no time -- G64 should not smooth over this point )
G01 F150.00000
G01 X15.32396 Y16.03897
G01 X15.32396 Y16.07999
G01 X15.55000 Y16.07999
G01 X15.61146 Y16.08507
G01 X15.67976 Y16.10054
G01 X15.74413 Y16.12818
G01 X15.77491 Y16.14596
G01 X15.83102 Y16.18787
G01 X15.88977 Y16.25312
G01 X15.92559 Y16.31329
G01 X15.94006 Y16.34578
G01 X15.96082 Y16.41266
G01 X15.96938 Y16.48848
G01 X16.00910 Y16.48848
G01 X16.00842 Y16.42558
G01 X15.97641 Y16.31543
G01 X15.91713 Y16.21517
G01 X15.83478 Y16.13282
G01 X15.73453 Y16.07354
G01 X15.61875 Y16.03991
G01 X15.32396 Y16.03897
G04 P0 ( dwell for no time -- G64 should not smooth over this point )
G00 Z2.00000 ( retract )

G00 X13.79084 Y16.48848 ( rapid move to begin. )
G01 F75.00000
( Mill infeed pass 1/1 )
G01 Z-0.17000
G04 P0 ( dwell for no time -- G64 should not smooth over this point )
G01 F150.00000
G01 X13.79084 Y16.48848
G01 X13.79153 Y16.42558
G01 X13.82353 Y16.31545
G01 X13.88282 Y16.21517
G01 X13.96516 Y16.13282
G01 X14.06542 Y16.07354
G01 X14.18119 Y16.03991
G01 X14.47598 Y16.03897
G01 X14.47598 Y16.07999
G01 X14.25000 Y16.07999
G01 X14.18851 Y16.08507
G01 X14.12020 Y16.10054
G01 X14.05584 Y16.12818
G01 X14.02506 Y16.14596
G01 X13.96895 Y16.18787
G01 X13.91020 Y16.25312
G01 X13.87438 Y16.31329
G01 X13.85993 Y16.34578
G01 X13.83913 Y16.41266
G01 X13.83059 Y16.48848
G01 X13.79084 Y16.48848
G04 P0 ( dwell for no time -- G64 should not smooth over this point )
G00 Z2.00000 ( retract )

G00 X13.79084 Y17.33645 ( rapid move to begin. )
G01 F75.00000
( Mill infeed pass 1/1 )
G01 Z-0.17000
G04 P0 ( dwell for no time -- G64 should not smooth over this point )
G01 F150.00000
G01 X13.79084 Y17.33645
G01 X13.79153 Y17.39937
G01 X13.82353 Y17.50950
G01 X13.88282 Y17.60978
G01 X13.96516 Y17.69213
G01 X14.06544 Y17.75141
G01 X14.18119 Y17.78504
G01 X14.47598 Y17.78596
G01 X14.47598 Y17.74499
G01 X14.25000 Y17.74499
G01 X14.18851 Y17.73991
G01 X14.12020 Y17.72444
G01 X14.05584 Y17.69680
G01 X14.02506 Y17.67902
G01 X13.96895 Y17.63711
G01 X13.91020 Y17.57186
G01 X13.87438 Y17.51166
G01 X13.85993 Y17.47920
G01 X13.83913 Y17.41230
G01 X13.83059 Y17.33645
G01 X13.79084 Y17.33645
G04 P0 ( dwell for no time -- G64 should not smooth over this point )
G00 Z2.00000 ( retract )

G00 X15.32396 Y17.74499 ( rapid move to begin. )
G01 F75.00000
( Mill infeed pass 1/1 )
G01 Z-0.17000
G04 P0 ( dwell for no time -- G64 should not smooth over this point )
G01 F150.00000
G01 X15.32396 Y17.74499
G01 X15.32396 Y17.78596
G01 X15.61875 Y17.78504
G01 X15.73450 Y17.75141
G01 X15.83478 Y17.69213
G01 X15.91713 Y17.60978
G01 X15.97641 Y17.50953
G01 X16.00842 Y17.39934
G01 X16.00910 Y17.33645
G01 X15.96938 Y17.33645
G01 X15.96082 Y17.41230
G01 X15.94006 Y17.47920
G01 X15.92559 Y17.51166
G01 X15.88977 Y17.57186
G01 X15.83102 Y17.63711
G01 X15.75998 Y17.68873
G01 X15.67976 Y17.72444
G01 X15.58502 Y17.74339
G01 X15.32396 Y17.74499
G04 P0 ( dwell for no time -- G64 should not smooth over this point )
G00 Z2.00000 ( retract )

G00 X19.47084 Y19.58849 ( rapid move to begin. )
G01 F75.00000
( Mill infeed pass 1/1 )
G01 Z-0.17000
G04 P0 ( dwell for no time -- G64 should not smooth over this point )
G01 F150.00000
G01 X19.47084 Y19.58849
G01 X19.47153 Y19.52560
G01 X19.50353 Y19.41542
G01 X19.56282 Y19.31517
G01 X19.64516 Y19.23282
G01 X19.74544 Y19.17353
G01 X19.86119 Y19.13991
G01 X20.15598 Y19.13899
G01 X20.15598 Y19.17999
G01 X19.93000 Y19.17999
G01 X19.86850 Y19.18507
G01 X19.80020 Y19.20053
G01 X19.73584 Y19.22817
G01 X19.70506 Y19.24595
G01 X19.64895 Y19.28786
G01 X19.59020 Y19.35311
G01 X19.55438 Y19.41331
G01 X19.53993 Y19.44577
G01 X19.51918 Y19.51268
G01 X19.51059 Y19.58847
G01 X19.47084 Y19.58849
G04 P0 ( dwell for no time -- G64 should not smooth over this point )
G00 Z2.00000 ( retract )

G00 X19.47084 Y20.43647 ( rapid move to begin. )
G01 F75.00000
( Mill infeed pass 1/1 )
G01 Z-0.17000
G04 P0 ( dwell for no time -- G64 should not smooth over this point )
G01 F150.00000
G01 X19.47084 Y20.43647
G01 X19.47153 Y20.49936
G01 X19.50353 Y20.60950
G01 X19.56284 Y20.70978
G01 X19.64516 Y20.79212
G01 X19.74544 Y20.85141
G01 X19.86116 Y20.88506
G01 X20.15598 Y20.88598
G01 X20.15598 Y20.84498
G01 X19.93000 Y20.84498
G01 X19.86850 Y20.83990
G01 X19.80020 Y20.82443
G01 X19.73584 Y20.79680
G01 X19.70506 Y20.77902
G01 X19.64895 Y20.73711
G01 X19.59020 Y20.67186
G01 X19.55438 Y20.61168
G01 X19.53993 Y20.57920
G01 X19.51918 Y20.51232
G01 X19.51059 Y20.43647
G01 X19.47084 Y20.43647
G04 P0 ( dwell for no time -- G64 should not smooth over this point )
G00 Z2.00000 ( retract )

G00 X21.00396 Y20.84498 ( rapid move to begin. )
G01 F75.00000
( Mill infeed pass 1/1 )
G01 Z-0.17000
G04 P0 ( dwell for no time -- G64 should not smooth over this point )
G01 F150.00000
G01 X21.00396 Y20.84498
G01 X21.00396 Y20.88598
G01 X21.29875 Y20.88504
G01 X21.41453 Y20.85141
G01 X21.51478 Y20.79212
G01 X21.59713 Y20.70978
G01 X21.65641 Y20.60955
G01 X21.68841 Y20.49936
G01 X21.68910 Y20.43647
G01 X21.64937 Y20.43647
G01 X21.64081 Y20.51232
G01 X21.62006 Y20.57920
G01 X21.60561 Y20.61168
G01 X21.56977 Y20.67186
G01 X21.51102 Y20.73711
G01 X21.43998 Y20.78872
G01 X21.35976 Y20.82443
G01 X21.26502 Y20.84338
G01 X21.00396 Y20.84498
G04 P0 ( dwell for no time -- G64 should not smooth over this point )
G00 Z2.00000 ( retract )

G00 X21.00396 Y19.13899 ( rapid move to begin. )
G01 F75.00000
( Mill infeed pass 1/1 )
G01 Z-0.17000
G04 P0 ( dwell for no time -- G64 should not smooth over this point )
G01 F150.00000
G01 X21.00396 Y19.13899
G01 X21.29875 Y19.13991
G01 X21.41450 Y19.17353
G01 X21.51478 Y19.23282
G01 X21.59713 Y19.31517
G01 X21.65641 Y19.41544
G01 X21.68841 Y19.52558
G01 X21.68910 Y19.58849
G01 X21.64937 Y19.58847
G01 X21.64081 Y19.51268
G01 X21.62006 Y19.44577
G01 X21.60561 Y19.41331
G01 X21.56977 Y19.35311
G01 X21.51102 Y19.28786
G01 X21.45491 Y19.24595
G01 X21.42413 Y19.22817
G01 X21.35976 Y19.20053
G01 X21.29146 Y19.18507
G01 X21.22999 Y19.17999
G01 X21.00396 Y19.17999
G01 X21.00396 Y19.13899
G04 P0 ( dwell for no time -- G64 should not smooth over this point )
G00 Z2.00000 ( retract )

G00 X25.99846 Y15.69607 ( rapid move to begin. )
G01 F75.00000
( Mill infeed pass 1/1 )
G01 Z-0.17000
G04 P0 ( dwell for no time -- G64 should not smooth over this point )
G01 F150.00000
G01 X25.99846 Y15.69607
G01 X26.00367 Y15.66044
G01 X26.03547 Y15.59536
G01 X26.08536 Y15.54547
G01 X26.15041 Y15.51367
G01 X26.18607 Y15.50847
G01 X27.23387 Y15.50847
G01 X27.26956 Y15.51367
G01 X27.33458 Y15.54547
G01 X27.38449 Y15.59539
G01 X27.41627 Y15.66041
G01 X27.42147 Y15.69607
G01 X27.42147 Y18.04387
G01 X27.41627 Y18.07956
G01 X27.38449 Y18.14458
G01 X27.33458 Y18.19449
G01 X27.26956 Y18.22627
G01 X27.23384 Y18.23147
G01 X26.18607 Y18.23147
G01 X26.15041 Y18.22627
G01 X26.08536 Y18.19447
G01 X26.03547 Y18.14456
G01 X26.00367 Y18.07956
G01 X25.99846 Y18.04387
G01 X25.99846 Y15.69607
G01 X26.03999 Y15.72000
G01 X26.04324 Y15.68683
G01 X26.05292 Y15.65492
G01 X26.06864 Y15.62554
G01 X26.08978 Y15.59978
G01 X26.11553 Y15.57865
G01 X26.14492 Y15.56292
G01 X26.17682 Y15.55325
G01 X26.20999 Y15.55000
G01 X27.20999 Y15.55000
G01 X27.24311 Y15.55325
G01 X27.27504 Y15.56292
G01 X27.30440 Y15.57865
G01 X27.33019 Y15.59978
G01 X27.35134 Y15.62554
G01 X27.36704 Y15.65492
G01 X27.37672 Y15.68683
G01 X27.38000 Y15.72000
G01 X27.38000 Y18.01999
G01 X27.37672 Y18.05314
G01 X27.36704 Y18.08504
G01 X27.35134 Y18.11443
G01 X27.33019 Y18.14019
G01 X27.30440 Y18.16134
G01 X27.27504 Y18.17704
G01 X27.24311 Y18.18672
G01 X27.20999 Y18.19000
G01 X26.20999 Y18.19000
G01 X26.17682 Y18.18672
G01 X26.14492 Y18.17704
G01 X26.11553 Y18.16134
G01 X26.08978 Y18.14019
G01 X26.06864 Y18.11443
G01 X26.05292 Y18.08504
G01 X26.04324 Y18.05314
G01 X26.03999 Y18.01999
G01 X26.03999 Y15.72000
G04 P0 ( dwell for no time -- G64 should not smooth over this point )
G00 Z2.00000 ( retract )

G00 X27.13397 Y21.20896 ( rapid move to begin. )
G01 F75.00000
( Mill infeed pass 1/1 )
G01 Z-0.17000
G04 P0 ( dwell for no time -- G64 should not smooth over this point )
G01 F150.00000
G01 X27.13397 Y21.20896
G01 X27.23377 Y21.20896
G01 X27.26938 Y21.21417
G01 X27.33428 Y21.24587
G01 X27.38406 Y21.29565
G01 X27.41578 Y21.36058
G01 X27.42099 Y21.39614
G01 X27.42099 Y22.14599
G01 X27.38000 Y22.14599
G01 X27.38000 Y21.41999
G01 X27.37672 Y21.38681
G01 X27.36704 Y21.35494
G01 X27.35134 Y21.32555
G01 X27.33019 Y21.29977
G01 X27.30440 Y21.27864
G01 X27.27504 Y21.26294
G01 X27.24311 Y21.25326
G01 X27.20999 Y21.24998
G01 X27.13397 Y21.24998
G01 X27.13397 Y21.20896
G04 P0 ( dwell for no time -- G64 should not smooth over this point )
G00 Z2.00000 ( retract )

G00 X25.99897 Y21.39614 ( rapid move to begin. )
G01 F75.00000
( Mill infeed pass 1/1 )
G01 Z-0.17000
G04 P0 ( dwell for no time -- G64 should not smooth over this point )
G01 F150.00000
G01 X25.99897 Y21.39614
G01 X26.00418 Y21.36055
G01 X26.03588 Y21.29568
G01 X26.08569 Y21.24587
G01 X26.15053 Y21.21417
G01 X26.18617 Y21.20896
G01 X26.28599 Y21.20896
G01 X26.28599 Y21.24998
G01 X26.17682 Y21.25326
G01 X26.14492 Y21.26294
G01 X26.11553 Y21.27864
G01 X26.08978 Y21.29977
G01 X26.06864 Y21.32555
G01 X26.05292 Y21.35494
G01 X26.04324 Y21.38681
G01 X26.03999 Y21.41999
G01 X26.03999 Y22.14599
G01 X25.99897 Y22.14599
G01 X25.99897 Y21.39614
G04 P0 ( dwell for no time -- G64 should not smooth over this point )
G00 Z2.00000 ( retract )

G00 X25.99897 Y22.99397 ( rapid move to begin. )
G01 F75.00000
( Mill infeed pass 1/1 )
G01 Z-0.17000
G04 P0 ( dwell for no time -- G64 should not smooth over this point )
G01 F150.00000
G01 X25.99897 Y22.99397
G01 X25.99897 Y23.74381
G01 X26.00418 Y23.77939
G01 X26.03588 Y23.84429
G01 X26.08566 Y23.89407
G01 X26.15053 Y23.92577
G01 X26.18617 Y23.93098
G01 X26.28599 Y23.93098
G01 X26.28599 Y23.88998
G01 X26.20999 Y23.88998
G01 X26.17682 Y23.88673
G01 X26.14492 Y23.87706
G01 X26.11553 Y23.86133
G01 X26.08978 Y23.84020
G01 X26.06864 Y23.81444
G01 X26.05292 Y23.78503
G01 X26.04324 Y23.75315
G01 X26.03999 Y23.71998
G01 X26.03999 Y22.99397
G01 X25.99897 Y22.99397
G04 P0 ( dwell for no time -- G64 should not smooth over this point )
G00 Z2.00000 ( retract )

G00 X27.13397 Y23.88998 ( rapid move to begin. )
G01 F75.00000
( Mill infeed pass 1/1 )
G01 Z-0.17000
G04 P0 ( dwell for no time -- G64 should not smooth over this point )
G01 F150.00000
G01 X27.13397 Y23.88998
G01 X27.13397 Y23.93098
G01 X27.23379 Y23.93098
G01 X27.26938 Y23.92577
G01 X27.33428 Y23.89407
G01 X27.38406 Y23.84429
G01 X27.41578 Y23.77939
G01 X27.42099 Y23.74383
G01 X27.42099 Y22.99397
G01 X27.38000 Y22.99397
G01 X27.38000 Y23.71998
G01 X27.37672 Y23.75315
G01 X27.36704 Y23.78503
G01 X27.35134 Y23.81444
G01 X27.33019 Y23.84020
G01 X27.30440 Y23.86133
G01 X27.27504 Y23.87706
G01 X27.24311 Y23.88673
G01 X27.20999 Y23.88998
G01 X27.13397 Y23.88998
G04 P0 ( dwell for no time -- G64 should not smooth over this point )
G00 Z2.00000 ( retract )

G00 X31.86175 Y20.15847 ( rapid move to begin. )
G01 F75.00000
( Mill infeed pass 1/1 )
G01 Z-0.17000
G04 P0 ( dwell for no time -- G64 should not smooth over this point )
G01 F150.00000
G01 X31.86175 Y20.15847
G01 X31.69030 Y20.16238
G01 X31.72502 Y19.88910
G01 X31.72997 Y19.73416
G01 X31.72997 Y16.54166
G01 X31.55997 Y16.37166
G01 X31.55997 Y19.73416
G01 X31.55530 Y19.87955
G01 X31.51887 Y20.16629
G01 X31.69030 Y20.16238
G01 X31.34499 Y20.17026
G01 X31.38558 Y19.87000
G01 X31.38997 Y19.73416
G01 X31.38997 Y16.20166
G01 X31.21999 Y16.03166
G01 X31.21999 Y19.73416
G01 X31.21583 Y19.86045
G01 X31.18281 Y20.12040
G01 X31.16848 Y20.17287
G01 X31.34499 Y20.17026
G01 X30.99221 Y20.17462
G01 X31.01608 Y20.08720
G01 X31.04610 Y19.85090
G01 X31.04999 Y19.73416
G01 X31.04996 Y15.86165
G01 X30.87999 Y15.69165
G01 X30.87999 Y19.73416
G01 X30.87638 Y19.84135
G01 X30.84936 Y20.05403
G01 X30.81626 Y20.17516
G01 X30.99221 Y20.17462
G01 X30.63973 Y20.17790
G01 X30.68263 Y20.02083
G01 X30.70663 Y19.83180
G01 X30.70999 Y19.73416
G01 X30.70999 Y15.52168
G01 X30.53998 Y15.35167
G01 X30.53998 Y19.73416
G01 X30.53691 Y19.82223
G01 X30.51590 Y19.98766
G01 X30.46010 Y20.18237
G01 X30.63973 Y20.17790
G01 X30.27653 Y20.18824
G01 X30.31151 Y20.09235
G01 X30.34915 Y19.95446
G01 X30.36719 Y19.81267
G01 X30.36998 Y19.73416
G01 X30.36998 Y15.18167
G01 X30.19998 Y15.01167
G01 X30.19998 Y19.73416
G01 X30.19744 Y19.80312
G01 X30.18243 Y19.92129
G01 X30.15106 Y20.03617
G01 X30.12320 Y20.11577
G01 X30.09068 Y20.19030
G01 X30.27653 Y20.18824
G01 X29.89907 Y20.18938
G01 X29.92210 Y20.15276
G01 X29.96274 Y20.05961
G01 X29.99061 Y19.98001
G01 X30.01570 Y19.88809
G01 X30.02772 Y19.79357
G01 X30.02998 Y19.73416
G01 X30.02998 Y14.84167
G01 X29.85997 Y14.67189
G01 X29.85919 Y19.76281
G01 X29.84898 Y19.85492
G01 X29.83016 Y19.92385
G01 X29.80229 Y20.00345
G01 X29.77181 Y20.07330
G01 X29.73125 Y20.13782
G01 X29.69109 Y20.18451
G01 X29.89907 Y20.18938
G01 X29.63953 Y20.18354
G01 X29.39693 Y20.15870
G01 X29.30925 Y20.13866
G01 X29.17659 Y20.09190
G01 X29.16269 Y20.09136
G01 X29.17659 Y20.09190
G01 X29.30925 Y20.13866
G01 X29.39693 Y20.15870
G01 X29.46597 Y20.16576
G01 X29.56135 Y20.07539
G01 X29.59447 Y20.03688
G01 X29.62152 Y19.99385
G01 X29.66970 Y19.86769
G01 X29.68225 Y19.82172
G01 X29.68944 Y19.75326
G01 X29.68997 Y14.61248
G01 X29.68784 Y14.57438
G01 X29.67633 Y14.51436
G01 X29.52518 Y14.41693
G01 X29.42122 Y14.37045
G01 X29.52518 Y14.41693
G01 X29.67146 Y14.51048
G01 X29.75050 Y14.57352
G01 X29.86236 Y14.67405
G01 X32.57998 Y17.39167
G01 X32.57998 Y17.50580
G01 X32.57998 Y17.39167
G01 X32.60630 Y17.41799
G01 X32.53863 Y17.64776
G01 X32.41646 Y18.15550
G01 X32.32662 Y18.70701
G01 X32.28161 Y19.24793
G01 X32.27447 Y19.54999
G01 X32.27211 Y19.90203
G01 X32.25931 Y20.14943
G01 X31.86175 Y20.15847
G01 X31.89477 Y19.89865
G01 X31.89998 Y19.73416
G01 X31.89998 Y16.71166
G01 X32.06998 Y16.88167
G01 X32.06998 Y19.73416
G01 X32.06449 Y19.90823
G01 X32.03320 Y20.15456
G01 X32.20462 Y20.15067
G01 X32.23421 Y19.91778
G01 X32.23998 Y19.73416
G01 X32.23998 Y17.05167
G01 X32.40998 Y17.22165
G01 X32.40998 Y18.18901
G01 X32.40475 Y18.21529
G01 X30.49017 Y15.06145
G01 X38.03502 Y15.06145
G01 X38.44543 Y14.89145
G01 X30.32020 Y14.89145
G01 X30.15020 Y14.72145
G01 X38.85587 Y14.72145
G01 X39.26628 Y14.55145
G01 X29.98014 Y14.55145
G01 X29.86213 Y14.44530
G01 X29.78233 Y14.38144
G01 X39.46250 Y14.38144
G01 X39.54535 Y14.37494
G01 X39.61073 Y14.36194
G01 X39.65838 Y14.34748
G01 X39.72102 Y14.32140
G04 P0 ( dwell for no time -- G64 should not smooth over this point )
G00 Z2.00000 ( retract )

G00 X35.91290 Y6.91318 ( rapid move to begin. )
G01 F75.00000
( Mill infeed pass 1/1 )
G01 Z-0.17000
G04 P0 ( dwell for no time -- G64 should not smooth over this point )
G01 F150.00000
G01 X35.91290 Y6.91318
G01 X35.91473 Y7.78913
G01 X35.89636 Y7.79847
G01 X35.91473 Y7.78913
G01 X36.11963 Y7.93525
G01 X36.16113 Y7.96883
G01 X36.33573 Y8.15857
G01 X36.33573 Y8.47439
G01 X36.23482 Y8.30335
G01 X36.04736 Y8.09517
G01 X35.82075 Y7.93050
G01 X35.74472 Y7.89464
G01 X35.72021 Y7.90952
G01 X35.74472 Y7.89464
G01 X35.74472 Y6.95075
G01 X35.73332 Y6.83485
G01 X35.71076 Y6.75484
G01 X35.69951 Y6.72342
G01 X35.66177 Y6.64935
G01 X35.62476 Y6.59393
G01 X35.57076 Y6.53071
G01 X34.73998 Y5.69995
G01 X34.72712 Y5.70529
G01 X34.73998 Y5.69995
G01 X34.73998 Y4.92500
G01 X34.72710 Y4.80232
G01 X34.68897 Y4.68502
G01 X34.64668 Y4.60803
G01 X34.62730 Y4.57819
G01 X34.56995 Y4.51169
G01 X34.51712 Y4.46414
G01 X34.44498 Y4.41403
G01 X34.36553 Y4.37661
G01 X34.29794 Y4.35464
G01 X34.21193 Y4.33826
G01 X33.35054 Y4.33498
G01 X33.25316 Y4.34380
G01 X33.16766 Y4.36386
G01 X33.05499 Y4.41403
G01 X32.98285 Y4.46414
G01 X32.95519 Y4.48654
G01 X32.89507 Y4.55053
G01 X32.85329 Y4.60803
G01 X32.81100 Y4.68502
G01 X32.79825 Y4.71824
G01 X32.77287 Y4.80232
G01 X32.76731 Y4.83747
G01 X32.75999 Y4.95599
G01 X32.79820 Y4.99894
G01 X32.75999 Y4.95599
G01 X32.48999 Y4.95599
G01 X32.44872 Y5.00084
G01 X32.48999 Y4.95599
G01 X32.48811 Y4.88944
G01 X32.47709 Y4.80232
G01 X32.46789 Y4.76795
G01 X32.43899 Y4.68502
G01 X32.42283 Y4.65329
G01 X32.37732 Y4.57819
G01 X32.29477 Y4.48654
G01 X32.19500 Y4.41403
G01 X32.08230 Y4.36386
G01 X31.99680 Y4.34380
G01 X31.94392 Y4.33681
G01 X31.53856 Y4.33501
G01 X31.38149 Y4.44217
G01 X31.28834 Y4.49112
G01 X31.25395 Y4.50498
G01 X31.28834 Y4.49112
G01 X31.38171 Y4.44253
G01 X31.53856 Y4.33501
G01 X31.69375 Y4.19947
G01 X31.95161 Y4.20046
G01 X32.08524 Y4.21116
G01 X32.20259 Y4.22980
G01 X32.37592 Y4.27369
G01 X32.59040 Y4.35507
G01 X32.61786 Y4.36211
G01 X32.64610 Y4.35975
G01 X32.87422 Y4.27362
G01 X33.04513 Y4.23026
G01 X32.87422 Y4.27362
G01 X32.82619 Y4.28921
G01 X32.65954 Y4.35507
G01 X32.61786 Y4.36211
G01 X32.61765 Y4.37181
G01 X32.61786 Y4.36211
G01 X32.59040 Y4.35507
G01 X32.42393 Y4.28929
G01 X32.37592 Y4.27369
G01 X32.20473 Y4.23026
G01 X32.27999 Y4.26681
G01 X32.32477 Y4.29589
G01 X32.40853 Y4.36020
G01 X32.48125 Y4.43678
G01 X32.51483 Y4.47826
G01 X32.54392 Y4.52304
G01 X32.59428 Y4.61585
G01 X32.62499 Y4.70133
G01 X32.62499 Y4.95599
G01 X32.62499 Y4.70133
G01 X32.65570 Y4.61585
G01 X32.70607 Y4.52304
G01 X32.73513 Y4.47826
G01 X32.76873 Y4.43678
G01 X32.84145 Y4.36020
G01 X32.88293 Y4.32660
G01 X32.96998 Y4.26681
G01 X33.04513 Y4.23026
G01 X33.16464 Y4.21116
G01 X33.29832 Y4.20046
G01 X34.17538 Y4.20016
G01 X34.23853 Y4.20257
G01 X34.29680 Y4.23397
G01 X34.42949 Y4.31819
G01 X34.50873 Y4.37895
G01 X34.61539 Y4.47669
G01 X34.74117 Y4.62401
G01 X34.82557 Y4.75144
G01 X34.88039 Y4.85258
G01 X34.92903 Y4.95855
G01 X35.16840 Y5.53450
G01 X35.16586 Y5.53617
G01 X35.16840 Y5.53450
G01 X35.28590 Y5.65611
G01 X35.53535 Y6.25489
G01 X35.36291 Y5.84204
G01 X35.07998 Y5.55911
G01 X35.06705 Y5.56447
G01 X35.07998 Y5.55911
G01 X35.07998 Y5.32299
G01 X34.90944 Y4.91451
G01 X34.90998 Y5.62954
G01 X34.89705 Y5.63490
G01 X34.90998 Y5.62954
G01 X35.53535 Y6.25489
G01 X35.56908 Y6.32644
G01 X35.65760 Y6.48568
G01 X35.92588 Y6.93518
G01 X36.02156 Y7.08766
G01 X36.13733 Y7.24658
G01 X36.18224 Y7.30221
G01 X36.34688 Y7.48621
G01 X36.33431 Y7.52840
G01 X36.33573 Y7.90452
G01 X36.33573 Y7.67333
G01 X36.25473 Y7.61313
G01 X36.23662 Y7.62222
G01 X36.25473 Y7.61313
G01 X36.25473 Y7.38476
G01 X36.13995 Y7.24996
G01 X36.08473 Y7.17447
G01 X36.08473 Y7.69974
G01 X36.06829 Y7.70754
G01 X36.08473 Y7.69974
G01 X36.21955 Y7.79771
G01 X36.27487 Y7.84249
G01 X36.33573 Y7.90452
G01 X36.33573 Y11.23733
G01 X36.12168 Y11.30703
G01 X35.95481 Y11.35186
G01 X35.75011 Y11.39537
G01 X35.59984 Y11.41924
G01 X35.39522 Y11.44073
G01 X35.25300 Y11.44823
G01 X35.04841 Y11.44823
G01 X34.90619 Y11.44073
G01 X34.70160 Y11.41924
G01 X34.55135 Y11.39537
G01 X34.34666 Y11.35186
G01 X34.17983 Y11.30703
G01 X33.96571 Y11.23733
G01 X33.96571 Y10.45752
G01 X33.96571 Y11.02742
G01 X34.02659 Y11.08948
G01 X34.08191 Y11.13426
G01 X34.25105 Y11.25714
G01 X34.31074 Y11.29590
G01 X34.50083 Y11.38462
G01 X34.31074 Y11.29590
G01 X34.25105 Y11.25714
G01 X34.08191 Y11.13426
G01 X34.02659 Y11.08948
G01 X33.96571 Y11.02742
G01 X33.96571 Y10.77337
G01 X34.14036 Y10.96314
G01 X34.18184 Y10.99674
G01 X34.39573 Y11.14868
G01 X34.63429 Y11.25795
G01 X34.68412 Y11.27708
G01 X34.94018 Y11.33436
G01 X34.99291 Y11.34271
G01 X35.04620 Y11.34551
G01 X35.30858 Y11.34271
G01 X35.56578 Y11.29090
G01 X35.61734 Y11.27708
G01 X35.66720 Y11.25795
G01 X35.85818 Y11.17292
G01 X35.90573 Y11.14868
G01 X35.95051 Y11.11960
G01 X36.16113 Y10.96314
G01 X36.33573 Y10.77340
G01 X36.33573 Y11.02748
G01 X36.27487 Y11.08948
G01 X36.21955 Y11.13426
G01 X36.05044 Y11.25714
G01 X35.99075 Y11.29590
G01 X35.80060 Y11.38465
G01 X35.99075 Y11.29590
G01 X36.05044 Y11.25714
G01 X36.21955 Y11.13426
G01 X36.27487 Y11.08948
G01 X36.33573 Y11.02748
G01 X36.33573 Y10.45758
G01 X36.23482 Y10.62862
G01 X36.07254 Y10.81163
G01 X36.01970 Y10.85920
G01 X35.85059 Y10.98209
G01 X35.78902 Y11.01762
G01 X35.56481 Y11.11541
G01 X35.32595 Y11.16809
G01 X35.25527 Y11.17551
G01 X35.01066 Y11.17365
G01 X34.73665 Y11.11541
G01 X34.48074 Y11.00147
G01 X34.28176 Y10.85920
G01 X34.22893 Y10.81163
G01 X34.06665 Y10.62862
G01 X33.96571 Y10.45752
G01 X33.96571 Y8.72781
G01 X34.07452 Y8.63469
G01 X34.08996 Y8.59926
G01 X34.20419 Y8.40327
G01 X34.36787 Y8.22151
G01 X34.56573 Y8.07775
G01 X34.72674 Y8.00503
G01 X34.72674 Y7.12637
G01 X34.19273 Y6.59238
G01 X33.34110 Y6.59474
G01 X33.28852 Y6.58989
G01 X33.22019 Y6.57442
G01 X33.13998 Y6.53871
G01 X33.06896 Y6.48710
G01 X33.02139 Y6.43569
G01 X32.97437 Y6.36167
G01 X32.95992 Y6.32921
G01 X32.93917 Y6.26231
G01 X32.93091 Y6.19276
G01 X32.93000 Y5.97397
G01 X32.31999 Y5.97397
G01 X32.31999 Y6.15695
G01 X32.37816 Y6.05984
G01 X32.38727 Y6.04765
G01 X32.41123 Y6.02909
G01 X32.44018 Y6.02012
G01 X32.53223 Y6.00884
G01 X32.62327 Y6.00470
G01 X32.77142 Y6.01512
G01 X32.81295 Y6.02276
G01 X32.83802 Y6.03160
G01 X32.86756 Y6.05812
G01 X32.93000 Y6.15238
G01 X32.85916 Y6.04775
G01 X32.86251 Y6.04405
G01 X32.85916 Y6.04775
G01 X32.83802 Y6.03160
G01 X32.81295 Y6.02276
G01 X32.81394 Y6.01951
G01 X32.81295 Y6.02276
G01 X32.76205 Y6.01395
G01 X32.63289 Y6.00414
G01 X32.53894 Y6.00828
G01 X32.43970 Y6.01809
G01 X32.39843 Y6.03731
G01 X32.39337 Y6.03119
G01 X32.39843 Y6.03731
G01 X32.37816 Y6.05984
G01 X32.31999 Y6.15695
G01 X32.31359 Y6.24473
G01 X32.30620 Y6.27950
G01 X32.28367 Y6.34582
G01 X32.23978 Y6.42185
G01 X32.18103 Y6.48710
G01 X32.12492 Y6.52903
G01 X32.09413 Y6.54679
G01 X32.02977 Y6.57442
G01 X31.96147 Y6.58989
G01 X31.89998 Y6.59500
G01 X31.09109 Y6.59474
G01 X31.03851 Y6.58989
G01 X30.97021 Y6.57442
G01 X30.89000 Y6.53871
G01 X30.81895 Y6.48710
G01 X30.77140 Y6.43569
G01 X30.75050 Y6.40694
G01 X30.71631 Y6.34582
G01 X30.69378 Y6.27950
G01 X30.68639 Y6.24473
G01 X30.67999 Y6.17498
G01 X30.68093 Y4.90722
G01 X30.68916 Y4.83767
G01 X30.71631 Y4.75416
G01 X30.76020 Y4.67811
G01 X30.81895 Y4.61286
G01 X30.89000 Y4.56124
G01 X30.95360 Y4.53191
G01 X30.98738 Y4.52093
G01 X31.06495 Y4.50658
G01 X31.89998 Y4.50498
G01 X31.96147 Y4.51006
G01 X32.02977 Y4.52553
G01 X32.10998 Y4.56124
G01 X32.18103 Y4.61286
G01 X32.23978 Y4.67811
G01 X32.28367 Y4.75416
G01 X32.31082 Y4.83767
G01 X32.31905 Y4.90722
G01 X32.31999 Y5.12599
G01 X32.93000 Y5.12599
G01 X32.93000 Y4.92500
G01 X32.93917 Y4.83767
G01 X32.96629 Y4.75416
G01 X33.00051 Y4.69305
G01 X33.02139 Y4.66429
G01 X33.06896 Y4.61286
G01 X33.13998 Y4.56124
G01 X33.22019 Y4.52553
G01 X33.28852 Y4.51006
G01 X33.35027 Y4.50498
G01 X34.19403 Y4.50730
G01 X34.27978 Y4.52553
G01 X34.35999 Y4.56124
G01 X34.43101 Y4.61286
G01 X34.48979 Y4.67811
G01 X34.52560 Y4.73831
G01 X34.54005 Y4.77077
G01 X34.56080 Y4.83767
G01 X34.56906 Y4.90722
G01 X34.57000 Y5.77036
G01 X35.45054 Y6.65093
G01 X35.51186 Y6.72949
G01 X35.54808 Y6.80419
G01 X35.56659 Y6.86802
G01 X35.57391 Y6.93406
G01 X35.57472 Y8.00503
G01 X35.73573 Y8.07775
G01 X35.91978 Y8.21031
G01 X35.94620 Y8.23408
G01 X36.08610 Y8.38946
G01 X36.10698 Y8.41821
G01 X36.21958 Y8.61511
G01 X36.29517 Y8.84772
G01 X36.32074 Y9.09098
G01 X36.32074 Y9.84099
G01 X36.29517 Y10.08425
G01 X36.22595 Y10.30025
G01 X36.21150 Y10.33273
G01 X36.09728 Y10.52870
G01 X35.93362 Y10.71046
G01 X35.73573 Y10.85425
G01 X35.51229 Y10.95371
G01 X35.27305 Y11.00459
G01 X35.02844 Y11.00459
G01 X34.78918 Y10.95371
G01 X34.56573 Y10.85425
G01 X34.36787 Y10.71046
G01 X34.21539 Y10.54251
G01 X34.19449 Y10.51376
G01 X34.08996 Y10.33273
G01 X34.07551 Y10.30025
G01 X34.00630 Y10.08425
G01 X33.98166 Y9.85874
G01 X33.98166 Y9.07322
G01 X34.00630 Y8.84772
G01 X34.07452 Y8.63469
G04 P0 ( dwell for no time -- G64 should not smooth over this point )
G00 Z2.00000 ( retract )

G00 X28.82396 Y6.59365 ( rapid move to begin. )
G01 F75.00000
( Mill infeed pass 1/1 )
G01 Z-0.17000
G04 P0 ( dwell for no time -- G64 should not smooth over this point )
G01 F150.00000
G01 X28.82396 Y6.59365
G01 X28.82396 Y6.63401
G01 X28.87433 Y6.63343
G01 X28.98451 Y6.60142
G01 X29.08477 Y6.54214
G01 X29.16714 Y6.45977
G01 X29.22642 Y6.35954
G01 X29.26005 Y6.24377
G01 X29.26097 Y5.97397
G01 X29.22000 Y5.97397
G01 X29.22000 Y6.17498
G01 X29.21080 Y6.26231
G01 X29.18367 Y6.34582
G01 X29.13978 Y6.42185
G01 X29.08103 Y6.48710
G01 X29.00999 Y6.53871
G01 X28.92978 Y6.57442
G01 X28.86148 Y6.58989
G01 X28.82396 Y6.59365
G04 P0 ( dwell for no time -- G64 should not smooth over this point )
G00 Z2.00000 ( retract )

G00 X27.53897 Y5.97397 ( rapid move to begin. )
G01 F75.00000
( Mill infeed pass 1/1 )
G01 Z-0.17000
G04 P0 ( dwell for no time -- G64 should not smooth over this point )
G01 F150.00000
G01 X27.53897 Y5.97397
G01 X27.53991 Y6.24382
G01 X27.57352 Y6.35951
G01 X27.63283 Y6.45977
G01 X27.71520 Y6.54214
G01 X27.81543 Y6.60142
G01 X27.92561 Y6.63343
G01 X27.97596 Y6.63401
G01 X27.97596 Y6.59365
G01 X27.93852 Y6.58989
G01 X27.87019 Y6.57442
G01 X27.78998 Y6.53871
G01 X27.71896 Y6.48710
G01 X27.66021 Y6.42185
G01 X27.61629 Y6.34582
G01 X27.58916 Y6.26231
G01 X27.57999 Y6.17498
G01 X27.57999 Y5.97399
G01 X27.53897 Y5.97397
G04 P0 ( dwell for no time -- G64 should not smooth over this point )
G00 Z2.00000 ( retract )

G00 X29.48151 Y14.21144 ( rapid move to begin. )
G01 F75.00000
( Mill infeed pass 1/1 )
G01 Z-0.17000
G04 P0 ( dwell for no time -- G64 should not smooth over this point )
G01 F150.00000
G01 X29.48151 Y14.21144
G01 X29.51916 Y14.22534
G01 X29.61266 Y14.27050
G01 X29.76678 Y14.36966
G01 X29.86213 Y14.44530
G01 X29.98111 Y14.55236
G01 X30.66018 Y15.23145
G01 X37.62458 Y15.23145
G01 X37.21416 Y15.40146
G01 X30.83018 Y15.40146
G01 X31.00018 Y15.57146
G01 X36.80373 Y15.57146
G01 X36.39331 Y15.74146
G01 X31.17018 Y15.74146
G01 X30.66018 Y15.23145
G01 X31.34019 Y15.91146
G01 X35.98290 Y15.91146
G01 X35.57254 Y16.08144
G01 X31.51019 Y16.08144
G01 X31.34019 Y15.91146
G01 X31.68019 Y16.25144
G01 X35.16212 Y16.25144
G01 X34.75171 Y16.42144
G01 X31.85019 Y16.42144
G01 X31.68019 Y16.25144
G01 X32.02019 Y16.59145
G01 X34.34127 Y16.59145
G01 X33.93086 Y16.76145
G01 X32.19020 Y16.76145
G01 X32.02019 Y16.59145
G01 X32.36020 Y16.93145
G01 X33.52045 Y16.93145
G01 X33.11895 Y17.10145
G01 X32.53020 Y17.10145
G01 X32.36020 Y16.93145
G01 X32.70018 Y17.27146
G01 X32.75878 Y17.27146
G01 X32.70018 Y17.27146
G01 X32.71946 Y17.29071
G01 X32.97010 Y17.16800
G01 X33.27793 Y17.03191
G01 X39.42904 Y14.48403
G01 X39.52140 Y14.44174
G01 X39.60237 Y14.39854
G01 X39.74870 Y14.30087
G01 X39.87065 Y14.19427
G01 X42.63244 Y11.43243
G01 X42.71984 Y11.35178
G01 X42.81222 Y11.27777
G01 X42.91740 Y11.17261
G01 X42.91461 Y11.16715
G01 X42.91740 Y11.17261
G01 X42.94595 Y11.16809
G01 X43.18481 Y11.11541
G01 X43.40902 Y11.01762
G01 X43.47059 Y10.98209
G01 X43.63970 Y10.85920
G01 X43.69254 Y10.81163
G01 X43.85482 Y10.62862
G01 X43.95573 Y10.45758
G01 X43.85482 Y10.62862
G01 X43.69254 Y10.81163
G01 X43.63970 Y10.85920
G01 X43.47059 Y10.98209
G01 X43.40902 Y11.01762
G01 X43.18481 Y11.11541
G01 X42.91740 Y11.17261
G01 X42.81222 Y11.27777
G01 X42.92109 Y11.20182
G01 X42.94732 Y11.19004
G01 X42.94588 Y11.18668
G01 X42.94732 Y11.19004
G01 X43.02993 Y11.16885
G01 X43.45535 Y11.08356
G01 X43.55913 Y11.05567
G01 X43.73892 Y10.99725
G01 X43.78113 Y10.96314
G01 X43.81888 Y10.92539
G01 X43.95573 Y10.77340
G01 X43.81888 Y10.92539
G01 X43.78113 Y10.96314
G01 X43.73892 Y10.99725
G01 X43.89022 Y10.94051
G01 X43.95573 Y10.91135
G01 X43.95573 Y8.72832
G01 X43.84740 Y8.63617
G04 P0 ( dwell for no time -- G64 should not smooth over this point )
G00 Z2.00000 ( retract )

G00 X42.89259 Y11.42981 ( rapid move to begin. )
G01 F75.00000
( Mill infeed pass 1/1 )
G01 Z-0.17000
G04 P0 ( dwell for no time -- G64 should not smooth over this point )
G01 F150.00000
G01 X42.89259 Y11.42981
G01 X42.91326 Y11.41449
G01 X42.97407 Y11.38384
G01 X43.07694 Y11.35092
G01 X43.14232 Y11.33791
G01 X43.24997 Y11.32897
G01 X45.07938 Y11.32897
G01 X45.20620 Y11.33723
G01 X45.41527 Y11.33723
G01 X45.50729 Y11.33250
G01 X45.72078 Y11.31018
G01 X45.82382 Y11.29382
G01 X46.03289 Y11.24937
G01 X46.14541 Y11.21960
G01 X46.28052 Y11.17548
G01 X46.30945 Y11.15928
G01 X46.31155 Y11.16258
G01 X46.30945 Y11.15928
G01 X46.37229 Y11.10545
G01 X46.46141 Y11.02074
G01 X46.65313 Y10.81412
G01 X46.65621 Y10.81584
G01 X46.65313 Y10.81412
G01 X46.66004 Y10.80015
G01 X46.66540 Y10.77302
G01 X46.66815 Y10.77411
G01 X46.66528 Y10.77462
G01 X46.66431 Y10.78513
G01 X46.66573 Y8.72811
G01 X46.77447 Y8.63495
G01 X46.66573 Y8.72811
G01 X46.66573 Y10.45755
G01 X46.76665 Y10.62862
G01 X46.90038 Y10.77993
G01 X46.96370 Y10.78188
G01 X46.90038 Y10.77993
G01 X46.35133 Y11.32897
G01 X46.35669 Y11.34190
G01 X46.35133 Y11.32897
G01 X45.54206 Y11.32897
G01 X45.41527 Y11.33723
G01 X45.20620 Y11.33723
G01 X45.10970 Y11.33215
G01 X44.90066 Y11.31018
G01 X44.79759 Y11.29405
G01 X44.58415 Y11.24848
G01 X44.47618 Y11.21930
G01 X44.26284 Y11.15031
G01 X44.12802 Y11.09832
G01 X44.04072 Y11.05958
G01 X43.95337 Y11.09834
G01 X43.79137 Y11.15897
G01 X44.28956 Y11.15897
G01 X44.47196 Y11.21805
G01 X44.29007 Y11.15897
G01 X43.79137 Y11.15897
G01 X43.60955 Y11.21805
G01 X43.49729 Y11.24833
G01 X43.26617 Y11.29743
G01 X43.06622 Y11.33494
G01 X43.00387 Y11.35102
G01 X42.95002 Y11.38724
G01 X42.83249 Y11.47914
G01 X42.75195 Y11.55338
G01 X39.99018 Y14.31515
G01 X39.91789 Y14.38198
G01 X39.82252 Y14.45780
G01 X35.22202 Y19.05974
G01 X35.15184 Y19.14839
G01 X35.12059 Y19.19937
G01 X35.07350 Y19.30213
G01 X35.04305 Y19.41100
G01 X35.03002 Y19.52329
G01 X35.02898 Y22.24135
G01 X35.04191 Y22.24668
G01 X35.02898 Y22.24135
G01 X34.02133 Y23.24899
G01 X34.02669 Y23.26192
G01 X34.02133 Y23.24899
G01 X30.76861 Y23.24899
G01 X30.76325 Y23.26192
G01 X30.76861 Y23.24899
G01 X29.72096 Y22.20134
G01 X29.70808 Y22.20668
G01 X29.72096 Y22.20134
G01 X29.72096 Y20.91999
G01 X29.70712 Y20.77932
G01 X29.67732 Y20.67549
G01 X29.65182 Y20.61389
G01 X29.59945 Y20.51940
G01 X29.53219 Y20.43487
G01 X29.43290 Y20.33325
G01 X29.36409 Y20.32558
G01 X29.26701 Y20.30340
G01 X29.10567 Y20.24643
G01 X29.38959 Y20.53035
G01 X29.44816 Y20.60046
G01 X29.50189 Y20.69403
G01 X29.51464 Y20.72481
G01 X29.54039 Y20.81247
G01 X29.55096 Y20.91999
G01 X29.55096 Y22.27175
G01 X30.69820 Y23.41899
G01 X34.09174 Y23.41899
G01 X35.19898 Y22.31176
G01 X35.19949 Y19.53663
G01 X35.20835 Y19.45070
G01 X35.23055 Y19.36718
G01 X35.25344 Y19.31194
G01 X35.29679 Y19.23721
G01 X35.36034 Y19.16035
G01 X42.86036 Y11.66034
G01 X42.94387 Y11.59184
G01 X43.03912 Y11.54091
G01 X43.12629 Y11.51361
G01 X43.15898 Y11.50710
G01 X43.24997 Y11.49898
G01 X46.42174 Y11.49898
G01 X47.14968 Y10.77106
G01 X47.06787 Y10.71046
G01 X46.91539 Y10.54251
G01 X46.89448 Y10.51376
G01 X46.78996 Y10.33273
G01 X46.77551 Y10.30025
G01 X46.70630 Y10.08425
G01 X46.68166 Y9.85874
G01 X46.68074 Y9.09098
G01 X46.70353 Y8.86530
G01 X46.71092 Y8.83055
G01 X46.78189 Y8.61511
G01 X46.90419 Y8.40327
G01 X47.06787 Y8.22151
G01 X47.26573 Y8.07775
G01 X47.48918 Y7.97826
G01 X47.72844 Y7.92741
G01 X47.97305 Y7.92741
G01 X48.21229 Y7.97826
G01 X48.43573 Y8.07775
G01 X48.63362 Y8.22151
G01 X48.79728 Y8.40327
G01 X48.91150 Y8.59926
G01 X48.92595 Y8.63172
G01 X48.99057 Y8.83055
G01 X48.99796 Y8.86530
G01 X49.02074 Y9.09098
G01 X49.02074 Y9.84099
G01 X48.99517 Y10.08425
G01 X48.92595 Y10.30025
G01 X48.91150 Y10.33273
G01 X48.79728 Y10.52870
G01 X48.64620 Y10.69788
G01 X48.61978 Y10.72166
G01 X48.45067 Y10.84454
G01 X48.40055 Y10.87093
G01 X48.39235 Y10.94851
G01 X48.37838 Y11.00665
G01 X48.34726 Y11.08727
G01 X48.30391 Y11.16199
G01 X48.24940 Y11.22905
G01 X47.03960 Y12.43959
G01 X46.96949 Y12.49816
G01 X46.94178 Y12.51668
G01 X46.84513 Y12.56463
G01 X46.74097 Y12.59283
G01 X46.64998 Y12.60095
G01 X43.47821 Y12.60095
G01 X36.30096 Y19.77821
G01 X36.30096 Y22.54000
G01 X36.29039 Y22.64749
G01 X36.26464 Y22.73515
G01 X36.25188 Y22.76593
G01 X36.20810 Y22.84610
G01 X36.13959 Y22.92961
G01 X34.70960 Y24.35961
G01 X34.63949 Y24.41818
G01 X34.61178 Y24.43669
G01 X34.51513 Y24.48465
G01 X34.42748 Y24.51040
G01 X34.31999 Y24.52097
G01 X30.46998 Y24.52097
G01 X30.36246 Y24.51040
G01 X30.27481 Y24.48465
G01 X30.24402 Y24.47190
G01 X30.16386 Y24.42811
G01 X30.08035 Y24.35961
G01 X28.61035 Y22.88961
G01 X28.54679 Y22.81274
G01 X28.50344 Y22.73802
G01 X28.48055 Y22.68277
G01 X28.45835 Y22.59926
G01 X28.44949 Y22.51333
G01 X28.44898 Y21.14821
G01 X27.41175 Y20.11097
G01 X24.22996 Y20.11097
G01 X24.12247 Y20.10041
G01 X24.03482 Y20.07465
G01 X23.93817 Y20.02670
G01 X23.91046 Y20.00818
G01 X23.84035 Y19.94961
G01 X23.12034 Y19.22959
G01 X23.06177 Y19.15949
G01 X23.00805 Y19.06591
G01 X22.99529 Y19.03513
G01 X22.96954 Y18.94747
G01 X22.95979 Y18.85664
G01 X22.95895 Y18.18131
G01 X22.91554 Y18.16134
G01 X22.88978 Y18.14019
G01 X22.86862 Y18.11443
G01 X22.85293 Y18.08504
G01 X22.84325 Y18.05314
G01 X22.84000 Y18.01999
G01 X22.84000 Y17.42096
G01 X22.76207 Y17.42096
G01 X22.79484 Y17.43376
G01 X22.81826 Y17.45322
G01 X22.83997 Y17.49868
G01 X22.84000 Y18.01999
G01 X22.83997 Y17.49868
G01 X22.82699 Y17.46577
G01 X22.80744 Y17.44242
G01 X22.79484 Y17.43376
G01 X22.79961 Y17.42772
G01 X22.79484 Y17.43376
G01 X22.76207 Y17.42096
G01 X21.63086 Y17.42096
G01 X21.61369 Y17.47082
G01 X21.57947 Y17.53193
G01 X21.55857 Y17.56069
G01 X21.51102 Y17.61212
G01 X21.43998 Y17.66371
G01 X21.37637 Y17.69304
G01 X21.34259 Y17.70404
G01 X21.26502 Y17.71839
G01 X19.90368 Y17.71862
G01 X19.86850 Y17.71491
G01 X19.80020 Y17.69942
G01 X19.73584 Y17.67178
G01 X19.70506 Y17.65403
G01 X19.63637 Y17.59952
G01 X19.59020 Y17.54687
G01 X19.54631 Y17.47082
G01 X19.51918 Y17.38730
G01 X19.50998 Y17.29998
G01 X19.50998 Y16.47499
G01 X19.51918 Y16.38766
G01 X19.54631 Y16.30415
G01 X19.58052 Y16.24304
G01 X19.60140 Y16.21428
G01 X19.64895 Y16.16287
G01 X19.70506 Y16.12094
G01 X19.78359 Y16.08192
G01 X19.86850 Y16.06008
G01 X19.93018 Y16.05500
G01 X21.27399 Y16.05728
G01 X21.34259 Y16.07095
G01 X21.37637 Y16.08192
G01 X21.43998 Y16.11126
G01 X21.49720 Y16.15167
G01 X21.52359 Y16.17545
G01 X21.56977 Y16.22813
G01 X21.60561 Y16.28830
G01 X21.61935 Y16.31896
G01 X22.84000 Y16.31898
G01 X22.83997 Y16.24100
G01 X22.82717 Y16.27385
G01 X22.80772 Y16.29726
G01 X22.76230 Y16.31896
G01 X22.80772 Y16.29726
G01 X22.81320 Y16.30316
G01 X22.80772 Y16.29726
G01 X22.82717 Y16.27385
G01 X22.83997 Y16.24100
G01 X22.84000 Y15.72000
G01 X22.84325 Y15.68683
G01 X22.85293 Y15.65492
G01 X22.86862 Y15.62554
G01 X22.88978 Y15.59978
G01 X22.91554 Y15.57865
G01 X22.94493 Y15.56292
G01 X22.97683 Y15.55325
G01 X23.00998 Y15.55000
G01 X24.01000 Y15.55000
G01 X24.04315 Y15.55325
G01 X24.07505 Y15.56292
G01 X24.10444 Y15.57865
G01 X24.13019 Y15.59978
G01 X24.15132 Y15.62554
G01 X24.16705 Y15.65492
G01 X24.17673 Y15.68683
G01 X24.17998 Y15.72000
G01 X24.17998 Y18.01999
G01 X24.17673 Y18.05314
G01 X24.16705 Y18.08504
G01 X24.15132 Y18.11443
G01 X24.13019 Y18.14019
G01 X24.10444 Y18.16134
G01 X24.06095 Y18.18131
G01 X24.06095 Y18.61174
G01 X24.45821 Y19.00899
G01 X27.63999 Y19.00899
G01 X27.73097 Y19.01712
G01 X27.76366 Y19.02362
G01 X27.86592 Y19.05807
G01 X27.93178 Y19.09327
G01 X27.95950 Y19.11179
G01 X28.02960 Y19.17036
G01 X29.10567 Y20.24643
G01 X29.11642 Y20.25161
G01 X29.26686 Y20.30394
G01 X29.36409 Y20.32558
G01 X29.63521 Y20.35354
G01 X29.84336 Y20.35910
G01 X30.12774 Y20.36048
G01 X30.55007 Y20.34950
G01 X31.32111 Y20.34087
G01 X31.69563 Y20.33233
G01 X31.70793 Y20.38133
G01 X31.74219 Y20.61237
G01 X31.74951 Y20.68669
G01 X31.76096 Y20.91999
G01 X31.76096 Y21.20899
G01 X31.71354 Y21.25745
G01 X31.76096 Y21.20899
G01 X32.98898 Y21.20899
G01 X33.03833 Y21.25854
G01 X32.98898 Y21.20899
G01 X32.98898 Y19.54999
G01 X33.00099 Y19.30363
G01 X33.05941 Y18.93477
G01 X33.07338 Y18.87663
G01 X33.18877 Y18.52147
G01 X33.21166 Y18.46622
G01 X33.38120 Y18.13346
G01 X33.41244 Y18.08248
G01 X33.63198 Y17.78034
G01 X33.79764 Y17.59764
G01 X34.81678 Y16.57849
G01 X37.27926 Y15.55851
G01 X34.51889 Y18.31890
G01 X34.40759 Y18.44278
G01 X34.28214 Y18.61542
G01 X34.25090 Y18.66640
G01 X34.15402 Y18.85657
G01 X34.13114 Y18.91179
G01 X34.06520 Y19.11476
G01 X34.05123 Y19.17290
G01 X34.01785 Y19.38367
G01 X34.01315 Y19.44328
G01 X34.00896 Y19.54999
G01 X34.00896 Y21.81884
G01 X34.02184 Y21.82418
G01 X34.00896 Y21.81884
G01 X33.59883 Y22.22898
G01 X33.60419 Y22.24193
G01 X33.59883 Y22.22898
G01 X31.19111 Y22.22898
G01 X31.18575 Y22.24193
G01 X31.19111 Y22.22898
G01 X30.74097 Y21.77884
G01 X30.72827 Y21.78415
G01 X30.74097 Y21.77884
G01 X30.74097 Y20.91999
G01 X30.73442 Y20.78666
G01 X30.70752 Y20.58031
G01 X30.67509 Y20.45085
G01 X30.64036 Y20.34790
G01 X30.09457 Y20.36032
G01 X30.16536 Y20.52743
G01 X30.18705 Y20.59891
G01 X30.20732 Y20.67983
G01 X30.22688 Y20.83665
G01 X30.23097 Y20.91999
G01 X30.23097 Y21.99009
G01 X30.21817 Y21.99542
G01 X30.23097 Y21.99009
G01 X30.97986 Y22.73898
G01 X30.97450 Y22.75191
G01 X30.97986 Y22.73898
G01 X33.81008 Y22.73898
G01 X33.81544 Y22.75191
G01 X33.81008 Y22.73898
G01 X34.51897 Y22.03009
G01 X34.53187 Y22.03543
G01 X34.51897 Y22.03009
G01 X34.51897 Y19.54999
G01 X34.52159 Y19.48329
G01 X34.52629 Y19.42367
G01 X34.54714 Y19.29195
G01 X34.56111 Y19.23381
G01 X34.60231 Y19.10696
G01 X34.62519 Y19.05172
G01 X34.68575 Y18.93287
G01 X34.71699 Y18.88192
G01 X34.79540 Y18.77399
G01 X34.87952 Y18.67953
G01 X38.51053 Y15.04850
G01 X38.92094 Y14.87850
G01 X34.99972 Y18.79972
G01 X34.92466 Y18.88441
G01 X34.86195 Y18.97074
G01 X34.83070 Y19.02169
G01 X34.78227 Y19.11679
G01 X34.75938 Y19.17201
G01 X34.72641 Y19.27351
G01 X34.71244 Y19.33162
G01 X34.69575 Y19.43703
G01 X34.69105 Y19.49662
G01 X34.68897 Y22.10050
G01 X34.70188 Y22.10586
G01 X34.68897 Y22.10050
G01 X33.88049 Y22.90899
G01 X33.88585 Y22.92191
G01 X33.88049 Y22.90899
G01 X30.90945 Y22.90899
G01 X30.90409 Y22.92191
G01 X30.90945 Y22.90899
G01 X30.06097 Y22.06050
G01 X30.04814 Y22.06583
G01 X30.06097 Y22.06050
G01 X30.06097 Y20.91999
G01 X30.05769 Y20.85331
G01 X30.04059 Y20.71298
G01 X30.00270 Y20.57678
G01 X29.95167 Y20.45362
G01 X29.89947 Y20.35941
G01 X29.68611 Y20.35443
G01 X29.74080 Y20.42497
G01 X29.80176 Y20.53376
G01 X29.84001 Y20.62614
G01 X29.87384 Y20.74615
G01 X29.88118 Y20.79565
G01 X29.89096 Y20.91999
G01 X29.89096 Y22.13091
G01 X29.87811 Y22.13627
G01 X29.89096 Y22.13091
G01 X30.83904 Y23.07899
G01 X30.83368 Y23.09192
G01 X30.83904 Y23.07899
G01 X33.95090 Y23.07899
G01 X33.95626 Y23.09192
G01 X33.95090 Y23.07899
G01 X34.85897 Y22.17091
G01 X34.87188 Y22.17627
G01 X34.85897 Y22.17091
G01 X34.86055 Y19.50996
G01 X34.86522 Y19.45037
G01 X34.87774 Y19.37132
G01 X34.89171 Y19.31318
G01 X34.91643 Y19.23706
G01 X34.93931 Y19.18184
G01 X34.97564 Y19.11054
G01 X35.00688 Y19.05956
G01 X35.05392 Y18.99482
G01 X35.11993 Y18.91994
G01 X39.33136 Y14.70849
G01 X39.49691 Y14.63991
G01 X39.59966 Y14.59270
G01 X39.73199 Y14.51906
G01 X39.85157 Y14.43623
G01 X39.68840 Y14.54624
G01 X39.59600 Y14.59452
G01 X39.49691 Y14.63991
G01 X37.68968 Y15.38850
G01 X38.10012 Y15.21850
G01 X34.75930 Y18.55931
G01 X34.66611 Y18.66360
G01 X34.57203 Y18.79307
G01 X34.54081 Y18.84405
G01 X34.46814 Y18.98667
G01 X34.44526 Y19.04191
G01 X34.39581 Y19.19413
G01 X34.38184 Y19.25225
G01 X34.35679 Y19.41034
G01 X34.34897 Y19.54999
G01 X34.34897 Y21.95966
G01 X34.36187 Y21.96502
G01 X34.34897 Y21.95966
G01 X33.73965 Y22.56898
G01 X33.74501 Y22.58194
G01 X33.73965 Y22.56898
G01 X31.05030 Y22.56898
G01 X31.04494 Y22.58194
G01 X31.05030 Y22.56898
G01 X30.40097 Y21.91966
G01 X30.38819 Y21.92499
G01 X30.40097 Y21.91966
G01 X30.40097 Y20.91999
G01 X30.39607 Y20.81999
G01 X30.37405 Y20.64666
G01 X30.34974 Y20.54955
G01 X30.32805 Y20.47808
G01 X30.27841 Y20.35824
G01 X30.45916 Y20.35250
G01 X30.49073 Y20.42873
G01 X30.54077 Y20.61349
G01 X30.55792 Y20.72901
G01 X30.57097 Y20.91999
G01 X30.57097 Y21.84925
G01 X30.55825 Y21.85458
G01 X30.57097 Y21.84925
G01 X31.12070 Y22.39898
G01 X31.11534 Y22.41193
G01 X31.12070 Y22.39898
G01 X33.66924 Y22.39898
G01 X33.67460 Y22.41193
G01 X33.66924 Y22.39898
G01 X34.17897 Y21.88925
G01 X34.19184 Y21.89461
G01 X34.17897 Y21.88925
G01 X34.17897 Y19.54999
G01 X34.18265 Y19.45662
G01 X34.18732 Y19.39700
G01 X34.21653 Y19.21257
G01 X34.23050 Y19.15443
G01 X34.28821 Y18.97684
G01 X34.31107 Y18.92162
G01 X34.39586 Y18.75522
G01 X34.42710 Y18.70424
G01 X34.53685 Y18.55319
G01 X34.63911 Y18.43912
G01 X37.68968 Y15.38850
G01 X36.04805 Y16.06851
G01 X34.15826 Y17.95827
G01 X34.01978 Y18.11156
G01 X33.84729 Y18.34895
G01 X33.81605 Y18.39993
G01 X33.68283 Y18.66139
G01 X33.65997 Y18.71661
G01 X33.56929 Y18.99571
G01 X33.55532 Y19.05382
G01 X33.50942 Y19.34366
G01 X33.49896 Y19.54999
G01 X33.49898 Y21.60759
G01 X33.51173 Y21.61293
G01 X33.49898 Y21.60759
G01 X33.38758 Y21.71900
G01 X33.39294 Y21.73192
G01 X33.38758 Y21.71900
G01 X31.40236 Y21.71900
G01 X31.39701 Y21.73192
G01 X31.40236 Y21.71900
G01 X31.25098 Y21.56759
G01 X31.23843 Y21.57284
G01 X31.25098 Y21.56759
G01 X31.25098 Y20.91999
G01 X31.24196 Y20.73668
G01 X31.23465 Y20.66236
G01 X31.20772 Y20.48082
G01 X31.17315 Y20.34282
G01 X31.86970 Y20.32837
G01 X31.91138 Y20.59571
G01 X31.91870 Y20.67003
G01 X31.93096 Y20.91999
G01 X31.93096 Y21.03899
G01 X31.88474 Y21.08679
G01 X31.93096 Y21.03899
G01 X32.81897 Y21.03899
G01 X32.86876 Y21.08877
G01 X32.81897 Y21.03899
G01 X32.81897 Y19.54999
G01 X32.82682 Y19.34991
G01 X32.83152 Y19.29030
G01 X32.89411 Y18.89510
G01 X32.90808 Y18.83696
G01 X33.03172 Y18.45639
G01 X33.05461 Y18.40117
G01 X33.23627 Y18.04463
G01 X33.26751 Y17.99365
G01 X33.50269 Y17.66993
G01 X33.67744 Y17.47745
G01 X34.40632 Y16.74852
G01 X33.34366 Y17.18870
G01 X33.04221 Y17.32195
G01 X32.77305 Y17.45378
G01 X32.71979 Y17.63155
G01 X32.73884 Y17.56800
G01 X32.84872 Y17.41669
G01 X32.73884 Y17.56800
G01 X32.70356 Y17.68908
G01 X32.58306 Y18.19030
G01 X32.49535 Y18.72876
G01 X32.45128 Y19.25964
G01 X32.44145 Y19.92705
G01 X32.42250 Y20.25286
G01 X32.41732 Y20.26784
G01 X32.39914 Y20.29365
G01 X32.37277 Y20.31102
G01 X32.34189 Y20.31760
G01 X31.52159 Y20.33630
G01 X31.54118 Y20.41450
G01 X31.57300 Y20.62903
G01 X31.58032 Y20.70335
G01 X31.59096 Y20.91999
G01 X31.59096 Y21.37899
G01 X31.54288 Y21.42784
G01 X31.59096 Y21.37899
G01 X33.15898 Y21.37899
G01 X33.20838 Y21.42857
G01 X33.15898 Y21.37899
G01 X33.15898 Y19.54999
G01 X33.17048 Y19.31697
G01 X33.22471 Y18.97445
G01 X33.23868 Y18.91633
G01 X33.34585 Y18.58652
G01 X33.36873 Y18.53127
G01 X33.52616 Y18.22228
G01 X33.55740 Y18.17130
G01 X33.76124 Y17.89076
G01 X33.91785 Y17.71786
G01 X35.22720 Y16.40849
G01 X36.45844 Y15.89851
G01 X34.27848 Y18.07849
G01 X34.14904 Y18.22197
G01 X33.99225 Y18.43777
G01 X33.96101 Y18.48875
G01 X33.83990 Y18.72644
G01 X33.81702 Y18.78169
G01 X33.73459 Y19.03538
G01 X33.72062 Y19.09352
G01 X33.67889 Y19.35700
G01 X33.67422 Y19.41659
G01 X33.66896 Y19.54999
G01 X33.66896 Y21.67800
G01 X33.68191 Y21.68336
G01 X33.66896 Y21.67800
G01 X33.45799 Y21.88897
G01 X33.46335 Y21.90193
G01 X33.45799 Y21.88897
G01 X31.33196 Y21.88897
G01 X31.32660 Y21.90193
G01 X31.33196 Y21.88897
G01 X31.08098 Y21.63800
G01 X31.06838 Y21.64328
G01 X31.08098 Y21.63800
G01 X31.08098 Y20.91999
G01 X31.07277 Y20.75334
G01 X31.04097 Y20.51399
G01 X30.99815 Y20.34463
G01 X30.79223 Y20.34526
G01 X30.82068 Y20.34519
G01 X30.83777 Y20.40150
G01 X30.87425 Y20.54717
G01 X30.90361 Y20.77000
G01 X30.91098 Y20.91999
G01 X30.91098 Y21.70843
G01 X30.89833 Y21.71371
G01 X30.91098 Y21.70843
G01 X31.26152 Y22.05897
G01 X31.25616 Y22.07193
G01 X31.26152 Y22.05897
G01 X33.52842 Y22.05897
G01 X33.53378 Y22.07193
G01 X33.52842 Y22.05897
G01 X33.83896 Y21.74843
G01 X33.85192 Y21.75379
G01 X33.83896 Y21.74843
G01 X33.83896 Y19.54999
G01 X33.84369 Y19.42992
G01 X33.84838 Y19.37033
G01 X33.88593 Y19.13320
G01 X33.89990 Y19.07506
G01 X33.97409 Y18.84674
G01 X33.99695 Y18.79149
G01 X34.10597 Y18.57757
G01 X34.13718 Y18.52660
G01 X34.27830 Y18.33236
G01 X34.39868 Y18.19868
G01 X36.86885 Y15.72851
G01 X35.63759 Y16.23851
G01 X34.03807 Y17.83808
G01 X33.89050 Y18.00115
G01 X33.70233 Y18.26013
G01 X33.67112 Y18.31110
G01 X33.52578 Y18.59632
G01 X33.50289 Y18.65156
G01 X33.40399 Y18.95601
G01 X33.39002 Y19.01415
G01 X33.33995 Y19.33033
G01 X33.32898 Y19.54999
G01 X33.32898 Y21.53718
G01 X33.34181 Y21.54252
G01 X33.32898 Y21.53718
G01 X33.31717 Y21.54899
G01 X33.32253 Y21.56192
G01 X33.31717 Y21.54899
G01 X31.47277 Y21.54899
G01 X31.46741 Y21.56192
G01 X31.47277 Y21.54899
G01 X31.42096 Y21.49718
G01 X31.40851 Y21.50244
G01 X31.42096 Y21.49718
G01 X31.42096 Y20.91999
G01 X31.41115 Y20.72001
G01 X31.40384 Y20.64569
G01 X31.37445 Y20.44765
G01 X31.34755 Y20.34026
G01 X32.35763 Y20.31577
G01 X32.35972 Y20.32243
G01 X32.35763 Y20.31577
G01 X32.38677 Y20.30358
G01 X32.40942 Y20.28161
G01 X32.41694 Y20.28743
G01 X32.40942 Y20.28161
G01 X32.42682 Y20.23754
G01 X32.44145 Y19.92705
G01 X32.45128 Y19.25964
G01 X32.49535 Y18.72876
G01 X32.57181 Y18.24679
G01 X32.58341 Y18.20600
G01 X32.80142 Y17.77816
G01 X32.83266 Y17.72718
G01 X33.11488 Y17.33871
G01 X33.18699 Y17.25723
G01 X33.58552 Y17.08850
G01 X33.43703 Y17.23704
G01 X33.24417 Y17.44913
G01 X32.97760 Y17.81601
G01 X32.94635 Y17.86698
