( pcb2gcode 2.5.0 )
( Software-independent Gcode )

G94 ( Millimeters per minute feed rate. )
G21 ( Units == Millimeters. )

G90 ( Absolute coordinates. )
G00 S10000 ( RPM spindle speed. )
G64 P0.01016 ( set maximum deviation from commanded toolpath )
G01 F100.00000 ( Feedrate. )


G00 Z10.00000 (Retract to tool change height)
T0
M5      (Spindle stop.)
G04 P1.00000 (Wait for spindle to stop)
(MSG, Change tool bit to cutter diameter 0.80000mm)
M6      (Tool change.)
M0      (Temporary machine stop.)
M3 ( Spindle on clockwise. )
G04 P1.00000 (Wait for spindle to get up to speed)
G04 P0 ( dwell for no time -- G64 should not smooth over this point )
G00 Z2.00000 ( retract )

G00 X0.45000 Y0.85000 ( rapid move to begin. )
G01 Z-0.50000 F50.00000 ( plunge. )
G04 P0 ( dwell for no time -- G64 should not smooth over this point )
G01 F100.00000
G01 X0.45000 Y21.94999
G01 X0.45000 Y23.74999
G01 X0.45000 Y44.84999
G01 X0.45770 Y44.92802
G01 X0.48046 Y45.00305
G01 X0.51741 Y45.07221
G01 X0.56717 Y45.13282
G01 X0.62778 Y45.18258
G01 X0.69694 Y45.21953
G01 X0.77197 Y45.24229
G01 X0.85000 Y45.24999
G01 X50.84998 Y45.24999
G01 X50.92800 Y45.24229
G01 X51.00304 Y45.21953
G01 X51.07220 Y45.18258
G01 X51.13281 Y45.13282
G01 X51.18256 Y45.07221
G01 X51.21952 Y45.00305
G01 X51.24228 Y44.92802
G01 X51.24998 Y44.84999
G01 X51.24998 Y22.84998
G01 X51.24228 Y22.77193
G01 X51.21952 Y22.69690
G01 X51.18256 Y22.62773
G01 X51.13281 Y22.56713
G01 X51.07220 Y22.51737
G01 X51.00304 Y22.48041
G01 X50.92800 Y22.45765
G01 X50.84998 Y22.44996
G01 X45.24999 Y22.44996
G01 X45.24999 Y14.25000
G01 X50.84998 Y14.25000
G01 X50.92800 Y14.24230
G01 X51.00304 Y14.21954
G01 X51.07220 Y14.18259
G01 X51.13281 Y14.13283
G01 X51.18256 Y14.07222
G01 X51.21952 Y14.00306
G01 X51.24228 Y13.92803
G01 X51.24998 Y13.85000
G01 X51.24998 Y8.25000
G01 X51.24998 Y6.45000
G01 X51.24998 Y0.85000
G01 X51.24228 Y0.77197
G01 X51.21952 Y0.69694
G01 X51.18256 Y0.62778
G01 X51.13281 Y0.56717
G01 X51.07220 Y0.51741
G01 X51.00304 Y0.48046
G01 X50.92800 Y0.45770
G01 X50.84998 Y0.45000
G01 X0.85000 Y0.45000
G01 X0.77197 Y0.45770
G01 X0.69694 Y0.48046
G01 X0.62778 Y0.51741
G01 X0.56717 Y0.56717
G01 X0.51741 Y0.62778
G01 X0.48046 Y0.69694
G01 X0.45770 Y0.77197
G01 X0.45000 Y0.85000
G01 Z-1.00000 F50.00000 ( plunge. )
G04 P0 ( dwell for no time -- G64 should not smooth over this point )
G01 F100.00000
G01 X0.45000 Y21.94999
G01 X0.45000 Y23.74999
G01 X0.45000 Y44.84999
G01 X0.45770 Y44.92802
G01 X0.48046 Y45.00305
G01 X0.51741 Y45.07221
G01 X0.56717 Y45.13282
G01 X0.62778 Y45.18258
G01 X0.69694 Y45.21953
G01 X0.77197 Y45.24229
G01 X0.85000 Y45.24999
G01 X50.84998 Y45.24999
G01 X50.92800 Y45.24229
G01 X51.00304 Y45.21953
G01 X51.07220 Y45.18258
G01 X51.13281 Y45.13282
G01 X51.18256 Y45.07221
G01 X51.21952 Y45.00305
G01 X51.24228 Y44.92802
G01 X51.24998 Y44.84999
G01 X51.24998 Y22.84998
G01 X51.24228 Y22.77193
G01 X51.21952 Y22.69690
G01 X51.18256 Y22.62773
G01 X51.13281 Y22.56713
G01 X51.07220 Y22.51737
G01 X51.00304 Y22.48041
G01 X50.92800 Y22.45765
G01 X50.84998 Y22.44996
G01 X45.24999 Y22.44996
G01 X45.24999 Y14.25000
G01 X50.84998 Y14.25000
G01 X50.92800 Y14.24230
G01 X51.00304 Y14.21954
G01 X51.07220 Y14.18259
G01 X51.13281 Y14.13283
G01 X51.18256 Y14.07222
G01 X51.21952 Y14.00306
G01 X51.24228 Y13.92803
G01 X51.24998 Y13.85000
G01 X51.24998 Y8.25000
G01 X51.24998 Y6.45000
G01 X51.24998 Y0.85000
G01 X51.24228 Y0.77197
G01 X51.21952 Y0.69694
G01 X51.18256 Y0.62778
G01 X51.13281 Y0.56717
G01 X51.07220 Y0.51741
G01 X51.00304 Y0.48046
G01 X50.92800 Y0.45770
G01 X50.84998 Y0.45000
G01 X0.85000 Y0.45000
G01 X0.77197 Y0.45770
G01 X0.69694 Y0.48046
G01 X0.62778 Y0.51741
G01 X0.56717 Y0.56717
G01 X0.51741 Y0.62778
G01 X0.48046 Y0.69694
G01 X0.45770 Y0.77197
G01 X0.45000 Y0.85000
G01 Z-1.50000 F50.00000 ( plunge. )
G04 P0 ( dwell for no time -- G64 should not smooth over this point )
G01 F100.00000
G01 X0.45000 Y21.94999
G00 Z-1.20000
G01 X0.45000 Y23.74999
G01 Z-1.50000 F50.00000
G01 F100.00000
G01 X0.45000 Y44.84999
G01 X0.45770 Y44.92802
G01 X0.48046 Y45.00305
G01 X0.51741 Y45.07221
G01 X0.56717 Y45.13282
G01 X0.62778 Y45.18258
G01 X0.69694 Y45.21953
G01 X0.77197 Y45.24229
G01 X0.85000 Y45.24999
G01 X50.84998 Y45.24999
G01 X50.92800 Y45.24229
G01 X51.00304 Y45.21953
G01 X51.07220 Y45.18258
G01 X51.13281 Y45.13282
G01 X51.18256 Y45.07221
G01 X51.21952 Y45.00305
G01 X51.24228 Y44.92802
G01 X51.24998 Y44.84999
G01 X51.24998 Y22.84998
G01 X51.24228 Y22.77193
G01 X51.21952 Y22.69690
G01 X51.18256 Y22.62773
G01 X51.13281 Y22.56713
G01 X51.07220 Y22.51737
G01 X51.00304 Y22.48041
G01 X50.92800 Y22.45765
G01 X50.84998 Y22.44996
G01 X45.24999 Y22.44996
G01 X45.24999 Y14.25000
G01 X50.84998 Y14.25000
G01 X50.92800 Y14.24230
G01 X51.00304 Y14.21954
G01 X51.07220 Y14.18259
G01 X51.13281 Y14.13283
G01 X51.18256 Y14.07222
G01 X51.21952 Y14.00306
G01 X51.24228 Y13.92803
G01 X51.24998 Y13.85000
G01 X51.24998 Y8.25000
G00 Z-1.20000
G01 X51.24998 Y6.45000
G01 Z-1.50000 F50.00000
G01 F100.00000
G01 X51.24998 Y0.85000
G01 X51.24228 Y0.77197
G01 X51.21952 Y0.69694
G01 X51.18256 Y0.62778
G01 X51.13281 Y0.56717
G01 X51.07220 Y0.51741
G01 X51.00304 Y0.48046
G01 X50.92800 Y0.45770
G01 X50.84998 Y0.45000
G01 X0.85000 Y0.45000
G01 X0.77197 Y0.45770
G01 X0.69694 Y0.48046
G01 X0.62778 Y0.51741
G01 X0.56717 Y0.56717
G01 X0.51741 Y0.62778
G01 X0.48046 Y0.69694
G01 X0.45770 Y0.77197
G01 X0.45000 Y0.85000
G01 Z-2.00000 F50.00000 ( plunge. )
G04 P0 ( dwell for no time -- G64 should not smooth over this point )
G01 F100.00000
G01 X0.45000 Y21.94999
G00 Z-1.20000
G01 X0.45000 Y23.74999
G01 Z-2.00000 F50.00000
G01 F100.00000
G01 X0.45000 Y44.84999
G01 X0.45770 Y44.92802
G01 X0.48046 Y45.00305
G01 X0.51741 Y45.07221
G01 X0.56717 Y45.13282
G01 X0.62778 Y45.18258
G01 X0.69694 Y45.21953
G01 X0.77197 Y45.24229
G01 X0.85000 Y45.24999
G01 X50.84998 Y45.24999
G01 X50.92800 Y45.24229
G01 X51.00304 Y45.21953
G01 X51.07220 Y45.18258
G01 X51.13281 Y45.13282
G01 X51.18256 Y45.07221
G01 X51.21952 Y45.00305
G01 X51.24228 Y44.92802
G01 X51.24998 Y44.84999
G01 X51.24998 Y22.84998
G01 X51.24228 Y22.77193
G01 X51.21952 Y22.69690
G01 X51.18256 Y22.62773
G01 X51.13281 Y22.56713
G01 X51.07220 Y22.51737
G01 X51.00304 Y22.48041
G01 X50.92800 Y22.45765
G01 X50.84998 Y22.44996
G01 X45.24999 Y22.44996
G01 X45.24999 Y14.25000
G01 X50.84998 Y14.25000
G01 X50.92800 Y14.24230
G01 X51.00304 Y14.21954
G01 X51.07220 Y14.18259
G01 X51.13281 Y14.13283
G01 X51.18256 Y14.07222
G01 X51.21952 Y14.00306
G01 X51.24228 Y13.92803
G01 X51.24998 Y13.85000
G01 X51.24998 Y8.25000
G00 Z-1.20000
G01 X51.24998 Y6.45000
G01 Z-2.00000 F50.00000
G01 F100.00000
G01 X51.24998 Y0.85000
G01 X51.24228 Y0.77197
G01 X51.21952 Y0.69694
G01 X51.18256 Y0.62778
G01 X51.13281 Y0.56717
G01 X51.07220 Y0.51741
G01 X51.00304 Y0.48046
G01 X50.92800 Y0.45770
G01 X50.84998 Y0.45000
G01 X0.85000 Y0.45000
G01 X0.77197 Y0.45770
G01 X0.69694 Y0.48046
G01 X0.62778 Y0.51741
G01 X0.56717 Y0.56717
G01 X0.51741 Y0.62778
G01 X0.48046 Y0.69694
G01 X0.45770 Y0.77197
G01 X0.45000 Y0.85000

G04 P0 ( dwell for no time -- G64 should not smooth over this point )
G00 Z10.000000 ( retract )

M5 ( Spindle off. )
G04 P1.000000
M9 ( Coolant off. )
M2 ( Program end. )

