( pcb2gcode 2.5.0 )
( Software-independent Gcode )

G94 ( Millimeters per minute feed rate. )
G21 ( Units == Millimeters. )

G90 ( Absolute coordinates. )
G00 S10000 ( RPM spindle speed. )
G64 P0.01016 ( set maximum deviation from commanded toolpath )
G01 F200.00000 ( Feedrate. )


G00 Z10.00000 (Retract to tool change height)
T0
M5      (Spindle stop.)
G04 P1.00000 (Wait for spindle to stop)
(MSG, Change tool bit to mill diameter 0.50000mm)
M6      (Tool change.)
M0      (Temporary machine stop.)
M3 ( Spindle on clockwise. )
G04 P1.00000 (Wait for spindle to get up to speed)
G04 P0 ( dwell for no time -- G64 should not smooth over this point )
G00 Z5.00000 ( retract )

G00 X3.39585 Y4.15001 ( rapid move to begin. )
G01 F100.00000
( Mill infeed pass 1/1 )
G01 Z-0.18000
G04 P0 ( dwell for no time -- G64 should not smooth over this point )
G01 F200.00000
G01 X3.39585 Y4.15001
G01 X3.41035 Y4.00292
G01 X3.45323 Y3.86144
G01 X3.52295 Y3.73106
G01 X3.61673 Y3.61678
G01 X3.73100 Y3.52298
G01 X3.86138 Y3.45336
G01 X4.00286 Y3.41044
G01 X4.14997 Y3.39591
G01 X4.29709 Y3.41044
G01 X4.43857 Y3.45336
G01 X4.56895 Y3.52298
G01 X4.68322 Y3.61678
G01 X4.77700 Y3.73106
G01 X4.84669 Y3.86141
G01 X4.88960 Y4.00292
G01 X4.90410 Y4.15001
G01 X4.88960 Y4.29715
G01 X4.84669 Y4.43863
G01 X4.77700 Y4.56901
G01 X4.68322 Y4.68328
G01 X4.56895 Y4.77706
G01 X4.43857 Y4.84675
G01 X4.29709 Y4.88965
G01 X4.14997 Y4.90416
G01 X4.00286 Y4.88965
G01 X3.86138 Y4.84675
G01 X3.73100 Y4.77706
G01 X3.61673 Y4.68328
G01 X3.52295 Y4.56901
G01 X3.45325 Y4.43863
G01 X3.41035 Y4.29715
G01 X3.39585 Y4.15001
G01 X3.39999 Y4.15001
G01 X3.41637 Y4.30594
G01 X3.45546 Y4.43063
G01 X3.47672 Y4.47838
G01 X3.52897 Y4.56893
G01 X3.55970 Y4.61122
G01 X3.64787 Y4.70711
G01 X3.75305 Y4.78529
G01 X3.79831 Y4.81142
G01 X3.91307 Y4.86138
G01 X4.06427 Y4.89473
G01 X4.23572 Y4.89473
G01 X4.35647 Y4.87010
G01 X4.40618 Y4.85397
G01 X4.52785 Y4.79768
G01 X4.63151 Y4.72387
G01 X4.67034 Y4.68887
G01 X4.74029 Y4.61122
G01 X4.77100 Y4.56893
G01 X4.83514 Y4.45506
G01 X4.88360 Y4.30594
G01 X4.89998 Y4.15001
G01 X4.88769 Y4.01993
G01 X4.87682 Y3.96880
G01 X4.83514 Y3.84495
G01 X4.77100 Y3.73111
G01 X4.74029 Y3.68884
G01 X4.67034 Y3.61115
G01 X4.63151 Y3.57620
G01 X4.52805 Y3.50248
G01 X4.40618 Y3.44610
G01 X4.35647 Y3.42994
G01 X4.23623 Y3.40536
G01 X4.09772 Y3.40276
G01 X4.04576 Y3.40823
G01 X3.94350 Y3.42994
G01 X3.89379 Y3.44610
G01 X3.77210 Y3.50241
G01 X3.66846 Y3.57620
G01 X3.62963 Y3.61115
G01 X3.54322 Y3.70916
G01 X3.46483 Y3.84495
G01 X3.42315 Y3.96880
G01 X3.41228 Y4.01993
G01 X3.39999 Y4.15001
G04 P0 ( dwell for no time -- G64 should not smooth over this point )
G00 Z5.00000 ( retract )

G00 X8.34915 Y10.75502 ( rapid move to begin. )
G01 F100.00000
( Mill infeed pass 1/1 )
G01 Z-0.18000
G04 P0 ( dwell for no time -- G64 should not smooth over this point )
G01 F200.00000
G01 X8.34915 Y10.75502
G01 X7.08329 Y10.75502
G01 X7.06785 Y10.78390
G01 X7.03676 Y10.82180
G01 X6.99889 Y10.85289
G01 X6.94232 Y10.88004
G01 X4.97756 Y10.88002
G01 X4.92109 Y10.85289
G01 X4.90496 Y10.83963
G01 X4.89996 Y10.82802
G01 X4.89996 Y10.93204
G01 X4.89996 Y10.82802
G01 X4.87182 Y10.76254
G01 X4.85498 Y10.64504
G01 X4.85498 Y9.84502
G01 X4.86778 Y9.74253
G01 X4.90118 Y9.65350
G01 X4.92109 Y9.63714
G01 X4.96432 Y9.61405
G01 X5.01121 Y9.59981
G01 X5.05998 Y9.59500
G01 X6.85997 Y9.59500
G01 X6.90877 Y9.59981
G01 X6.95566 Y9.61405
G01 X6.99889 Y9.63714
G01 X7.03676 Y9.66823
G01 X7.06785 Y9.70613
G01 X7.09096 Y9.74934
G01 X7.10519 Y9.79625
G01 X7.10999 Y9.84502
G01 X7.10999 Y10.64502
G01 X7.10519 Y10.69378
G01 X7.09096 Y10.74067
G01 X7.06785 Y10.78390
G01 X7.03676 Y10.82180
G01 X6.99889 Y10.85289
G01 X6.94232 Y10.88004
G01 X6.99889 Y10.90714
G01 X7.03676 Y10.93823
G01 X7.06785 Y10.97613
G01 X7.09096 Y11.01934
G01 X7.10519 Y11.06625
G01 X7.10999 Y11.11502
G01 X7.10999 Y11.91502
G01 X7.10519 Y11.96378
G01 X7.09096 Y12.01067
G01 X7.06785 Y12.05390
G01 X7.03676 Y12.09180
G01 X6.99889 Y12.12289
G01 X6.94232 Y12.15002
G01 X4.97756 Y12.15002
G01 X4.92109 Y12.17714
G01 X4.90499 Y12.19038
G01 X4.87182 Y12.26754
G01 X4.85498 Y12.38504
G01 X4.85498 Y13.18502
G01 X4.87182 Y13.30252
G01 X4.89996 Y13.36802
G01 X4.89996 Y13.47204
G01 X4.89996 Y13.36802
G01 X4.90496 Y13.37963
G01 X4.92109 Y13.39289
G01 X4.97756 Y13.42002
G01 X4.92109 Y13.39289
G01 X4.90496 Y13.37963
G01 X4.87182 Y13.30252
G01 X4.85498 Y13.18502
G01 X4.85498 Y12.38504
G01 X4.87182 Y12.26754
G01 X4.89996 Y12.20204
G01 X4.89996 Y12.09802
G01 X4.90496 Y12.10963
G01 X4.92109 Y12.12289
G01 X4.97756 Y12.15002
G01 X4.92109 Y12.12289
G01 X4.90496 Y12.10963
G01 X4.87182 Y12.03252
G01 X4.85498 Y11.91502
G01 X4.85498 Y11.11502
G01 X4.87182 Y10.99752
G01 X4.90499 Y10.92038
G01 X4.92109 Y10.90714
G01 X4.97756 Y10.88002
G01 X4.92109 Y10.85289
G01 X4.90496 Y10.83963
G01 X4.87182 Y10.76254
G01 X4.85498 Y10.64504
G01 X4.85498 Y9.84502
G01 X4.86778 Y9.74253
G01 X4.90118 Y9.65350
G01 X4.92109 Y9.63714
G01 X4.96432 Y9.61405
G01 X5.01121 Y9.59981
G01 X5.08609 Y9.59500
G01 X5.15129 Y9.52051
G01 X5.54926 Y9.12254
G01 X6.85606 Y9.12254
G01 X7.05637 Y9.13506
G01 X7.25345 Y9.17199
G01 X7.45177 Y9.23397
G01 X7.65162 Y9.32142
G01 X7.85314 Y9.43478
G01 X8.05438 Y9.57314
G01 X8.47496 Y9.94182
G01 X8.47496 Y10.75502
G01 X8.34915 Y10.75502
G01 X8.36000 Y10.64502
G01 X8.35951 Y9.84011
G01 X8.08580 Y9.60062
G01 X8.10998 Y9.84502
G01 X8.10998 Y10.64502
G01 X8.09914 Y10.75502
G01 X7.84915 Y10.75502
G01 X7.86000 Y10.64502
G01 X7.86000 Y9.84502
G01 X7.84077 Y9.64992
G01 X7.78387 Y9.46234
G01 X7.73302 Y9.36722
G01 X7.65162 Y9.32142
G01 X7.45177 Y9.23397
G01 X7.25345 Y9.17199
G01 X7.14651 Y9.15195
G01 X7.27666 Y9.22142
G01 X7.39033 Y9.31469
G01 X7.48360 Y9.42833
G01 X7.55289 Y9.55800
G01 X7.59558 Y9.69869
G01 X7.60999 Y9.84502
G01 X7.60999 Y10.64502
G01 X7.59914 Y10.75502
G01 X7.34659 Y10.75502
G01 X7.36000 Y10.64502
G01 X7.36000 Y9.84502
G01 X7.35037 Y9.74746
G01 X7.32192 Y9.65368
G01 X7.27572 Y9.56722
G01 X7.21354 Y9.49145
G01 X7.13777 Y9.42927
G01 X7.05134 Y9.38307
G01 X6.95754 Y9.35462
G01 X6.85997 Y9.34502
G01 X5.32678 Y9.34502
G01 X5.15129 Y9.52051
G01 X5.08609 Y9.59500
G01 X5.01121 Y9.59981
G01 X4.96432 Y9.61405
G01 X4.92109 Y9.63714
G01 X4.89998 Y9.65668
G01 X4.89998 Y8.40004
G01 X12.39997 Y8.40004
G01 X12.39997 Y9.61403
G01 X12.23561 Y9.61403
G01 X12.18877 Y9.59981
G01 X12.14000 Y9.59500
G01 X10.33998 Y9.59500
G01 X10.29121 Y9.59981
G01 X10.24432 Y9.61405
G01 X10.20109 Y9.63714
G01 X10.16322 Y9.66823
G01 X10.13213 Y9.70613
G01 X10.10902 Y9.74934
G01 X10.09479 Y9.79625
G01 X10.08999 Y9.84502
G01 X10.08999 Y10.64502
G01 X10.09479 Y10.69378
G01 X10.10902 Y10.74067
G01 X10.13213 Y10.78390
G01 X10.16322 Y10.82180
G01 X10.20109 Y10.85289
G01 X10.25755 Y10.88004
G01 X12.22232 Y10.88002
G01 X12.27889 Y10.90714
G01 X12.31676 Y10.93823
G01 X12.34785 Y10.97613
G01 X12.36652 Y11.01103
G01 X12.54709 Y11.01103
G01 X12.36652 Y11.01103
G01 X12.34785 Y10.97613
G01 X12.31676 Y10.93823
G01 X12.27889 Y10.90714
G01 X12.22232 Y10.88002
G01 X12.23550 Y10.87603
G01 X12.44201 Y10.87603
G01 X12.47330 Y10.92815
G01 X12.53893 Y11.00813
G01 X12.62478 Y11.03859
G01 X12.70914 Y11.05784
G01 X12.77563 Y11.06732
G01 X12.83949 Y11.07029
G01 X13.86364 Y11.07029
G01 X13.99097 Y11.05835
G01 X14.10101 Y11.03112
G01 X14.22443 Y10.83003
G01 X14.29473 Y10.75888
G01 X14.33753 Y10.72889
G01 X14.39951 Y10.69455
G01 X14.51028 Y10.66224
G01 X14.57500 Y10.65926
G01 X15.82498 Y10.65926
G01 X15.88965 Y10.66224
G01 X15.98020 Y10.68713
G01 X16.02783 Y10.70867
G01 X16.09582 Y10.75083
G01 X16.17449 Y10.82889
G01 X16.29425 Y11.01951
G01 X16.43069 Y11.04788
G01 X16.48784 Y11.05413
G01 X24.20825 Y11.05528
G01 X24.35938 Y11.03996
G01 X24.45341 Y10.96567
G01 X25.96939 Y9.45147
G01 X26.02748 Y9.40003
G01 X26.05173 Y9.38436
G01 X26.12227 Y9.34929
G01 X26.15648 Y9.33813
G01 X26.21544 Y9.32503
G01 X26.26309 Y9.31980
G01 X31.40140 Y9.32129
G01 X31.52873 Y9.30936
G01 X31.62368 Y9.28741
G01 X31.67847 Y9.26823
G01 X31.72797 Y9.16158
G01 X31.83524 Y8.87712
G01 X31.93701 Y8.70235
G01 X32.06859 Y8.54888
G01 X32.12916 Y8.49313
G01 X32.22345 Y8.41929
G01 X32.29835 Y8.37029
G01 X32.39749 Y8.31698
G01 X32.56170 Y8.25180
G01 X32.78741 Y8.20438
G01 X33.01524 Y8.20418
G01 X33.05532 Y8.20809
G01 X33.23536 Y8.24464
G01 X33.29762 Y8.26506
G01 X33.42396 Y8.31698
G01 X33.48855 Y8.35018
G01 X33.59800 Y8.41929
G01 X33.69228 Y8.49315
G01 X33.75286 Y8.54888
G01 X33.97242 Y8.80646
G01 X34.04968 Y8.87692
G01 X34.17404 Y8.89927
G01 X34.21138 Y8.89826
G01 X34.31377 Y8.87479
G01 X34.40043 Y8.79508
G01 X34.49893 Y8.67471
G01 X34.60859 Y8.54888
G01 X34.63896 Y8.51947
G01 X34.76345 Y8.41932
G01 X34.92484 Y8.30999
G01 X34.97470 Y8.27131
G01 X34.99840 Y8.15165
G01 X35.00475 Y8.09427
G01 X35.00356 Y7.54952
G01 X34.99065 Y7.44136
G01 X34.95753 Y7.39605
G01 X34.89459 Y7.32366
G01 X34.59810 Y7.02717
G01 X34.47902 Y6.93016
G01 X34.32926 Y6.91581
G01 X33.64999 Y6.91581
G01 X33.58530 Y6.91282
G01 X33.47450 Y6.88051
G01 X33.37912 Y6.82422
G01 X33.34072 Y6.78866
G01 X33.30044 Y6.74617
G01 X33.28205 Y6.71764
G01 X33.15037 Y6.48536
G01 X33.04009 Y6.44066
G01 X33.00430 Y6.42999
G01 X32.96734 Y6.42483
G01 X32.93000 Y6.42521
G01 X32.80910 Y6.43832
G01 X32.77349 Y6.44970
G01 X32.69919 Y6.49039
G01 X32.77349 Y6.44970
G01 X32.80910 Y6.43832
G01 X32.93000 Y6.42521
G01 X32.96734 Y6.42483
G01 X33.00430 Y6.42999
G01 X33.04009 Y6.44066
G01 X33.11893 Y6.47058
G01 X33.15037 Y6.48536
G01 X33.15964 Y6.50029
G01 X33.15055 Y6.48561
G01 X33.14999 Y6.35402
G01 X32.69998 Y6.35402
G01 X32.69919 Y6.49039
G01 X32.54948 Y6.74617
G01 X32.48022 Y6.81617
G01 X32.43742 Y6.84617
G01 X32.37544 Y6.88051
G01 X32.26467 Y6.91282
G01 X32.19998 Y6.91581
G01 X31.39996 Y6.91581
G01 X31.33529 Y6.91282
G01 X31.22452 Y6.88051
G01 X31.16259 Y6.84624
G01 X31.11974 Y6.81622
G01 X31.05043 Y6.74617
G01 X30.99389 Y6.65074
G01 X30.97367 Y6.58607
G01 X30.96165 Y6.53121
G01 X30.95922 Y5.22504
G01 X30.96242 Y5.16037
G01 X30.98904 Y5.06403
G01 X31.00567 Y5.02763
G01 X31.05045 Y4.95392
G01 X31.11977 Y4.88386
G01 X31.16259 Y4.85387
G01 X31.22452 Y4.81958
G01 X31.44347 Y4.75679
G01 X31.53148 Y4.72260
G01 X31.60951 Y4.60932
G01 X31.62373 Y4.57477
G01 X31.63590 Y4.51912
G01 X31.71471 Y4.46535
G01 X31.77273 Y4.41625
G01 X31.66633 Y4.33248
G01 X31.63044 Y4.31102
G01 X31.64781 Y4.38082
G01 X31.64999 Y4.41810
G01 X31.63590 Y4.51912
G01 X31.64999 Y4.41810
G01 X31.64781 Y4.38082
G01 X31.61659 Y4.26327
G01 X31.60351 Y4.22824
G01 X31.58535 Y4.19555
G01 X31.50692 Y4.10411
G01 X31.40245 Y4.07030
G01 X31.31809 Y4.05361
G01 X31.21083 Y4.04480
G01 X29.28729 Y4.04480
G01 X29.15998 Y4.05674
G01 X29.06506 Y4.07868
G01 X28.99247 Y4.10411
G01 X28.72442 Y4.10411
G01 X28.69958 Y4.11981
G01 X28.67329 Y4.10411
G01 X28.72442 Y4.10411
G01 X28.40867 Y4.10411
G01 X28.48714 Y4.19555
G01 X28.50530 Y4.22824
G01 X28.53222 Y4.31102
G01 X28.64164 Y4.38519
G01 X28.63969 Y4.38986
G01 X28.64164 Y4.38519
G01 X28.66242 Y4.39339
G01 X28.70667 Y4.39816
G01 X28.70684 Y4.40454
G01 X28.70667 Y4.39816
G01 X28.74980 Y4.38709
G01 X28.75122 Y4.39032
G01 X28.74980 Y4.38709
G01 X28.86298 Y4.31224
G01 X28.87730 Y4.27444
G01 X28.93255 Y4.16609
G01 X28.95587 Y4.13688
G01 X28.99247 Y4.10411
G01 X28.95587 Y4.13688
G01 X28.93255 Y4.16609
G01 X28.91388 Y4.19844
G01 X28.86366 Y4.30924
G01 X28.85536 Y4.34561
G01 X28.85256 Y4.38285
G01 X28.85256 Y4.46718
G01 X28.85536 Y4.50444
G01 X28.86366 Y4.54084
G01 X28.91388 Y4.65161
G01 X28.93255 Y4.68402
G01 X28.96857 Y4.72501
G01 X28.43126 Y4.72501
G01 X28.49206 Y4.64142
G01 X28.51132 Y4.60934
G01 X28.52554 Y4.57475
G01 X28.53446 Y4.53842
G01 X28.55178 Y4.41805
G01 X28.54959 Y4.38079
G01 X28.54190 Y4.34427
G01 X28.50530 Y4.22824
G01 X28.48714 Y4.19555
G01 X28.46430 Y4.16593
G01 X28.40867 Y4.10411
G01 X28.30426 Y4.07030
G01 X28.21993 Y4.05361
G01 X28.14464 Y4.04617
G01 X27.39237 Y4.04480
G01 X27.24053 Y4.06012
G01 X27.19516 Y4.09329
G01 X27.12282 Y4.15618
G01 X25.65610 Y5.62290
G01 X25.56004 Y5.74061
G01 X25.55145 Y5.79605
G01 X25.54472 Y5.89214
G01 X25.54429 Y7.01523
G01 X25.54020 Y7.07746
G01 X25.53339 Y7.10819
G01 X25.50878 Y7.18028
G01 X25.49316 Y7.21276
G01 X25.45242 Y7.27477
G01 X25.43032 Y7.30083
G01 X24.01445 Y8.71454
G01 X23.95773 Y8.76516
G01 X23.92999 Y8.78302
G01 X23.86172 Y8.81677
G01 X23.80543 Y8.83354
G01 X23.71892 Y8.84626
G01 X16.52747 Y8.84477
G01 X16.40011 Y8.85670
G01 X16.29554 Y8.88203
G01 X16.17573 Y9.06978
G01 X16.09582 Y9.14921
G01 X16.00044 Y9.20550
G01 X15.88967 Y9.23780
G01 X15.85112 Y9.24009
G01 X14.51025 Y9.23780
G01 X14.39951 Y9.20552
G01 X14.30411 Y9.14921
G01 X14.22544 Y9.07113
G01 X14.16890 Y8.97575
G01 X14.13888 Y8.87212
G01 X14.13474 Y8.82003
G01 X14.13420 Y8.00001
G01 X14.13888 Y7.92793
G01 X14.16888 Y7.82432
G01 X14.22547 Y7.72889
G01 X14.26573 Y7.68640
G01 X14.30413 Y7.65084
G01 X14.39951 Y7.59453
G01 X14.45798 Y7.57537
G01 X14.51879 Y7.56115
G01 X15.82478 Y7.55930
G01 X15.88967 Y7.56224
G01 X16.00044 Y7.59455
G01 X16.06242 Y7.62889
G01 X16.10522 Y7.65889
G01 X16.17449 Y7.72889
G01 X16.29425 Y7.91952
G01 X16.43075 Y7.94789
G01 X16.48784 Y7.95414
G01 X23.35827 Y7.95528
G01 X23.50940 Y7.93997
G01 X23.55479 Y7.90677
G01 X23.62712 Y7.84390
G01 X24.54386 Y6.92727
G01 X24.63990 Y6.80949
G01 X24.64851 Y6.75399
G01 X24.65521 Y6.65790
G01 X24.65412 Y5.61317
G01 X24.65783 Y5.49524
G01 X24.66654 Y5.44193
G01 X24.69116 Y5.36982
G01 X24.70680 Y5.33736
G01 X24.74752 Y5.27535
G01 X24.76964 Y5.24924
G01 X26.73537 Y3.28549
G01 X26.79349 Y3.23403
G01 X26.81996 Y3.21706
G01 X26.88823 Y3.18333
G01 X26.98152 Y3.15903
G01 X27.03105 Y3.15382
G01 X34.83668 Y3.15420
G01 X34.97744 Y3.15994
G01 X35.08024 Y3.19098
G01 X35.13190 Y3.21894
G01 X35.20074 Y3.26974
G01 X36.60183 Y4.67292
G01 X36.72088 Y4.76989
G01 X36.87068 Y4.78427
G01 X37.58595 Y4.78508
G01 X37.61462 Y4.78724
G01 X37.70523 Y4.81216
G01 X37.75285 Y4.83367
G01 X37.82082 Y4.87584
G01 X37.89951 Y4.95392
G01 X37.96278 Y5.06344
G01 X38.03870 Y5.23035
G01 X38.16197 Y5.26288
G01 X38.23319 Y5.27413
G01 X38.30853 Y5.27830
G01 X41.77916 Y5.27634
G01 X41.92465 Y5.28965
G01 X42.03646 Y5.32834
G01 X42.10179 Y5.36456
G01 X42.16321 Y5.40660
G01 X42.20491 Y5.44508
G01 X43.46173 Y6.70037
G01 X43.55515 Y6.81271
G01 X43.60687 Y6.91919
G01 X43.63521 Y7.02760
G01 X43.64293 Y7.10189
G01 X43.64248 Y8.13847
G01 X43.65439 Y8.26615
G01 X43.66729 Y8.33224
G01 X43.74372 Y8.40532
G01 X43.85228 Y8.49315
G01 X43.91286 Y8.54888
G01 X44.13275 Y8.80692
G01 X44.21004 Y8.87740
G01 X44.29343 Y9.13112
G01 X44.32073 Y9.39102
G01 X44.32073 Y10.14100
G01 X44.29343 Y10.40090
G01 X44.21268 Y10.64944
G01 X44.09627 Y10.85380
G01 X44.06554 Y10.89607
G01 X43.90714 Y11.06993
G01 X43.69574 Y11.22355
G01 X43.48144 Y11.32045
G01 X43.43173 Y11.33661
G01 X43.22724 Y11.38007
G01 X43.17735 Y11.38543
G01 X40.11886 Y14.44389
G01 X40.06219 Y14.49197
G01 X39.97754 Y14.54267
G01 X39.93225 Y14.56142
G01 X39.86082 Y14.58184
G01 X39.76250 Y14.59152
G01 X29.75277 Y14.59152
G01 X29.76105 Y14.59444
G01 X29.77410 Y14.60851
G01 X29.84771 Y14.70531
G01 X29.86394 Y14.73896
G01 X29.88073 Y14.80000
G01 X29.94809 Y14.84308
G01 X30.02455 Y14.90406
G01 X30.14997 Y15.01831
G01 X30.15000 Y20.03418
G01 X30.13918 Y20.15300
G01 X30.12071 Y20.22061
G01 X30.09285 Y20.30022
G01 X30.06295 Y20.36872
G01 X30.01192 Y20.44507
G01 X30.42602 Y20.45053
G01 X31.08906 Y20.43534
G01 X31.61631 Y20.43098
G01 X32.52134 Y20.41038
G01 X32.53214 Y20.20024
G01 X32.53450 Y19.84756
G01 X32.54174 Y19.54474
G01 X32.57979 Y19.06217
G01 X32.64997 Y18.60489
G01 X32.64997 Y17.51828
G01 X32.39998 Y17.26829
G01 X32.39998 Y20.03418
G01 X32.39447 Y20.20979
G01 X32.36853 Y20.41383
G01 X32.11644 Y20.41957
G01 X32.14486 Y20.19575
G01 X32.14999 Y20.03418
G01 X32.14997 Y17.01828
G01 X31.89998 Y16.76830
G01 X31.89998 Y20.03418
G01 X31.89526 Y20.18172
G01 X31.86432 Y20.42531
G01 X31.61220 Y20.43103
G01 X31.64565 Y20.16768
G01 X31.64999 Y20.03418
G01 X31.64997 Y16.51828
G01 X31.39998 Y16.26830
G01 X31.39998 Y20.03418
G01 X31.39604 Y20.15366
G01 X31.36513 Y20.39696
G01 X31.35490 Y20.43445
G01 X31.09615 Y20.43529
G01 X31.11995 Y20.34817
G01 X31.14644 Y20.13961
G01 X31.14999 Y20.03418
G01 X31.14997 Y16.01828
G01 X30.89998 Y15.76830
G01 X30.89998 Y20.03418
G01 X30.89683 Y20.12559
G01 X30.87476 Y20.29938
G01 X30.83638 Y20.43987
G01 X30.57072 Y20.44837
G01 X30.59264 Y20.38579
G01 X30.62955 Y20.25058
G01 X30.64723 Y20.11154
G01 X30.65000 Y20.03418
G01 X30.64997 Y15.51828
G01 X30.39998 Y15.26830
G01 X30.39998 Y20.03418
G01 X30.39762 Y20.09752
G01 X30.38436 Y20.20179
G01 X30.35668 Y20.30321
G01 X30.32881 Y20.38282
G01 X30.29953 Y20.44992
G01 X29.94144 Y20.44360
G01 X29.70354 Y20.41921
G01 X29.68076 Y20.41401
G01 X29.64388 Y20.43059
G01 X29.52818 Y20.46814
G01 X29.49102 Y20.47233
G01 X29.44187 Y20.46958
G01 X29.63153 Y20.65922
G01 X29.65533 Y20.66466
G01 X29.93506 Y20.69359
G01 X30.14502 Y20.69920
G01 X30.57347 Y20.69839
G01 X30.60892 Y20.78393
G01 X30.65444 Y20.95058
G01 X30.67616 Y21.12201
G01 X30.68098 Y21.22000
G01 X30.68098 Y22.22800
G01 X30.66219 Y22.23582
G01 X30.68098 Y22.22800
G01 X31.34199 Y22.88901
G01 X31.33412 Y22.90806
G01 X31.34199 Y22.88901
G01 X34.04796 Y22.88901
G01 X34.05583 Y22.90806
G01 X34.04796 Y22.88901
G01 X34.66896 Y22.26800
G01 X34.68794 Y22.27585
G01 X34.66896 Y22.26800
G01 X34.66896 Y19.85003
G01 X34.67206 Y19.77157
G01 X34.67673 Y19.71195
G01 X34.70130 Y19.55696
G01 X34.71524 Y19.49882
G01 X34.76373 Y19.34960
G01 X34.78661 Y19.29435
G01 X34.85786 Y19.15455
G01 X34.88910 Y19.10357
G01 X34.98133 Y18.97662
G01 X35.07346 Y18.87350
G01 X38.37447 Y15.57249
G01 X37.77094 Y15.82250
G01 X34.89667 Y18.69671
G01 X34.79124 Y18.81427
G01 X34.67595 Y18.97294
G01 X34.64470 Y19.02392
G01 X34.55565 Y19.19869
G01 X34.53277 Y19.25391
G01 X34.47216 Y19.44048
G01 X34.45819 Y19.49862
G01 X34.42751 Y19.69234
G01 X34.42284 Y19.75193
G01 X34.41897 Y19.85003
G01 X34.41897 Y22.16445
G01 X34.43792 Y22.17230
G01 X34.41897 Y22.16445
G01 X33.94440 Y22.63902
G01 X33.95228 Y22.65805
G01 X33.94440 Y22.63902
G01 X31.44555 Y22.63902
G01 X31.43768 Y22.65805
G01 X31.44555 Y22.63902
G01 X30.93097 Y22.12444
G01 X30.91228 Y22.13224
G01 X30.93097 Y22.12444
G01 X30.93097 Y21.22000
G01 X30.92495 Y21.09750
G01 X30.89963 Y20.90181
G01 X30.86983 Y20.78282
G01 X30.83928 Y20.68993
G01 X31.62083 Y20.68094
G01 X32.36820 Y20.66392
G01 X32.41042 Y20.87614
G01 X32.41773 Y20.95046
G01 X32.42701 Y21.13903
G01 X32.36338 Y21.20677
G01 X32.42701 Y21.13903
G01 X32.69482 Y21.13903
G01 X32.66897 Y20.88901
G01 X32.66897 Y20.65401
G01 X32.66597 Y20.65495
G01 X32.66775 Y20.66178
G01 X32.66597 Y20.65495
G01 X32.66897 Y20.65401
G01 X32.66897 Y20.88901
G01 X32.66290 Y20.88901
G01 X32.65921 Y20.85162
G01 X32.62073 Y20.65815
G01 X32.11568 Y20.66966
G01 X32.62073 Y20.65815
G01 X32.65921 Y20.85162
G01 X32.66290 Y20.88901
G01 X32.66897 Y20.88901
G01 X32.69482 Y21.13903
G01 X32.91898 Y21.13903
G01 X32.99129 Y21.21175
G01 X32.91898 Y21.13903
G01 X32.91898 Y19.85003
G01 X32.92746 Y19.63425
G01 X32.93214 Y19.57464
G01 X32.99965 Y19.14843
G01 X33.01359 Y19.09031
G01 X33.14694 Y18.67990
G01 X33.16983 Y18.62465
G01 X33.36574 Y18.24017
G01 X33.39698 Y18.18920
G01 X33.65062 Y17.84007
G01 X33.83602 Y17.63606
G01 X34.14958 Y17.32250
G01 X34.75311 Y17.07249
G01 X34.01280 Y17.81284
G01 X33.84072 Y18.00246
G01 X33.61014 Y18.31983
G01 X33.57890 Y18.37081
G01 X33.40079 Y18.72034
G01 X33.37793 Y18.77556
G01 X33.25670 Y19.14866
G01 X33.24273 Y19.20680
G01 X33.18136 Y19.59427
G01 X33.17669 Y19.65386
G01 X33.16896 Y19.85003
G01 X33.16896 Y21.38901
G01 X33.24219 Y21.46224
G01 X33.16896 Y21.38901
G01 X32.18098 Y21.38904
G01 X32.11232 Y21.45970
G01 X32.18098 Y21.38904
G01 X32.18098 Y21.22000
G01 X32.16894 Y20.97497
G01 X32.16163 Y20.90065
G01 X32.11568 Y20.66966
G01 X31.61657 Y20.68099
G01 X31.63521 Y20.75551
G01 X31.66401 Y20.94964
G01 X31.67136 Y21.02399
G01 X31.68098 Y21.22000
G01 X31.68098 Y21.81378
G01 X31.66262 Y21.82152
G01 X31.68098 Y21.81378
G01 X31.75622 Y21.88901
G01 X31.74834 Y21.90806
G01 X31.75622 Y21.88901
G01 X33.63373 Y21.88901
G01 X33.64161 Y21.90806
G01 X33.63373 Y21.88901
G01 X33.66896 Y21.85378
G01 X33.68784 Y21.86163
G01 X33.66896 Y21.85378
G01 X33.66896 Y19.85003
G01 X33.67514 Y19.69311
G01 X33.67983 Y19.63349
G01 X33.72893 Y19.32351
G01 X33.74288 Y19.26539
G01 X33.83985 Y18.96692
G01 X33.86274 Y18.91167
G01 X34.00521 Y18.63205
G01 X34.03645 Y18.58107
G01 X34.22093 Y18.32717
G01 X34.25977 Y18.28170
G01 X34.36635 Y18.16639
G01 X35.96022 Y16.57249
G01 X35.35669 Y16.82250
G01 X34.18959 Y17.98960
G01 X34.06965 Y18.11935
G01 X34.03084 Y18.16481
G01 X33.82329 Y18.45044
G01 X33.79205 Y18.50141
G01 X33.63178 Y18.81599
G01 X33.60889 Y18.87124
G01 X33.49980 Y19.20703
G01 X33.48583 Y19.26517
G01 X33.43061 Y19.61388
G01 X33.42591 Y19.67347
G01 X33.41898 Y19.85003
G01 X33.41898 Y21.63902
G01 X33.49162 Y21.71192
G01 X33.41898 Y21.63902
G01 X31.93097 Y21.63902
G01 X31.86046 Y21.71075
G01 X31.93097 Y21.63902
G01 X31.93097 Y21.22000
G01 X31.92015 Y20.99948
G01 X31.91281 Y20.92516
G01 X31.86315 Y20.67542
G01 X31.35157 Y20.68452
G01 X31.35759 Y20.68444
G01 X31.41522 Y20.97415
G01 X31.42254 Y21.04847
G01 X31.43097 Y21.22000
G01 X31.43097 Y21.91733
G01 X31.41248 Y21.92510
G01 X31.43097 Y21.91733
G01 X31.65266 Y22.13902
G01 X31.64479 Y22.15805
G01 X31.65266 Y22.13902
G01 X33.73729 Y22.13902
G01 X33.74516 Y22.15805
G01 X33.73729 Y22.13902
G01 X33.91898 Y21.95734
G01 X33.93787 Y21.96519
G01 X33.91898 Y21.95734
G01 X33.91898 Y19.85003
G01 X33.92906 Y19.65310
G01 X33.97201 Y19.38188
G01 X33.98598 Y19.32374
G01 X34.07084 Y19.06258
G01 X34.09370 Y19.00736
G01 X34.21839 Y18.76268
G01 X34.24961 Y18.71170
G01 X34.41102 Y18.48953
G01 X34.54313 Y18.34317
G01 X36.56380 Y16.32250
G01 X37.16733 Y16.07249
G01 X34.71991 Y18.51996
G01 X34.60112 Y18.65188
G01 X34.46279 Y18.84231
G01 X34.43155 Y18.89328
G01 X34.32469 Y19.10301
G01 X34.30180 Y19.15826
G01 X34.22906 Y19.38211
G01 X34.21511 Y19.44025
G01 X34.17828 Y19.67273
G01 X34.17359 Y19.73232
G01 X34.16896 Y19.85003
G01 X34.16896 Y22.06089
G01 X34.18801 Y22.06877
G01 X34.16896 Y22.06089
G01 X33.84085 Y22.38901
G01 X33.84872 Y22.40806
G01 X33.84085 Y22.38901
G01 X31.54911 Y22.38901
G01 X31.54123 Y22.40806
G01 X31.54911 Y22.38901
G01 X31.18098 Y22.02089
G01 X31.16236 Y22.02869
G01 X31.18098 Y22.02089
G01 X31.18098 Y21.22000
G01 X31.16643 Y20.99867
G01 X31.10148 Y20.68531
G01 X30.42589 Y20.70055
G01 X30.14502 Y20.69920
G01 X29.94982 Y20.69359
G01 X30.30235 Y20.69996
G01 X30.36968 Y20.85650
G01 X30.39135 Y20.92798
G01 X30.42005 Y21.07217
G01 X30.43097 Y21.22000
G01 X30.43097 Y22.33156
G01 X30.41212 Y22.33938
G01 X30.43097 Y22.33156
G01 X31.23846 Y23.13902
G01 X31.23056 Y23.15805
G01 X31.23846 Y23.13902
G01 X34.15151 Y23.13902
G01 X34.15939 Y23.15805
G01 X34.15151 Y23.13902
G01 X34.91897 Y22.37156
G01 X34.93795 Y22.37941
G01 X34.91897 Y22.37156
G01 X34.92129 Y19.79117
G01 X34.92598 Y19.73156
G01 X34.94437 Y19.61533
G01 X34.95834 Y19.55719
G01 X34.99472 Y19.44528
G01 X35.01760 Y19.39003
G01 X35.07102 Y19.28516
G01 X35.10226 Y19.23420
G01 X35.17142 Y19.13898
G01 X35.25024 Y19.05028
G01 X38.97805 Y15.32250
G01 X39.58155 Y15.07249
G01 X35.42702 Y19.22704
G01 X35.36154 Y19.30134
G01 X35.31542 Y19.36481
G01 X35.28418 Y19.41579
G01 X35.24856 Y19.48569
G01 X35.22568 Y19.54093
G01 X35.20145 Y19.61556
G01 X35.18748 Y19.67370
G01 X35.17521 Y19.75119
G01 X35.17051 Y19.81078
G01 X35.16896 Y22.47509
G01 X35.18796 Y22.48299
G01 X35.16896 Y22.47509
G01 X34.25504 Y23.38903
G01 X34.26294 Y23.40806
G01 X34.25504 Y23.38903
G01 X31.13491 Y23.38903
G01 X31.12701 Y23.40806
G01 X31.13491 Y23.38903
G01 X30.18098 Y22.43509
G01 X30.16204 Y22.44296
G01 X30.18098 Y22.43509
G01 X30.18098 Y21.22000
G01 X30.17126 Y21.09668
G01 X30.15213 Y21.00054
G01 X30.13044 Y20.92907
G01 X30.09292 Y20.83852
G01 X30.03250 Y20.73057
G01 X30.00613 Y20.69501
G01 X29.92234 Y20.69295
G01 X29.67039 Y20.66712
G01 X29.63153 Y20.65922
G01 X29.74616 Y20.77382
G01 X29.82462 Y20.86946
G01 X29.88294 Y20.97855
G01 X29.91289 Y21.07311
G01 X29.92244 Y21.12117
G01 X29.93097 Y21.22000
G01 X29.93097 Y22.53864
G01 X31.03135 Y23.63902
G01 X34.35860 Y23.63902
G01 X35.41897 Y22.57865
G01 X35.41973 Y19.83039
G01 X35.43058 Y19.73204
G01 X35.45664 Y19.63662
G01 X35.49733 Y19.54642
G01 X35.55164 Y19.46369
G01 X35.60378 Y19.40382
G01 X43.10379 Y11.90384
G01 X43.17971 Y11.83998
G01 X43.22046 Y11.81276
G01 X43.28634 Y11.77755
G01 X43.33161 Y11.75881
G01 X43.40308 Y11.73711
G01 X43.45114 Y11.72756
G01 X43.52548 Y11.72022
G01 X46.68860 Y11.71903
G01 X47.32723 Y11.08040
G01 X47.29581 Y11.05144
G01 X47.13947 Y10.87575
G01 X47.02068 Y10.67275
G01 X46.99942 Y10.62500
G01 X46.93482 Y10.42617
G01 X46.92395 Y10.37506
G01 X46.90074 Y10.14100
G01 X46.90211 Y9.36488
G01 X46.92804 Y9.13112
G01 X46.99942 Y8.90702
G01 X47.01359 Y8.87514
G01 X46.99942 Y8.90702
G01 X46.92804 Y9.13112
G01 X46.90211 Y9.36488
G01 X46.90074 Y10.14100
G01 X46.92804 Y10.40090
G01 X47.00574 Y10.64143
G01 X47.00363 Y11.09251
G01 X47.01412 Y11.09571
G01 X47.00363 Y11.09251
G01 X46.98723 Y11.13513
G01 X46.93541 Y11.19754
G01 X46.78578 Y11.35299
G01 X46.63543 Y11.48977
G01 X46.63836 Y11.49432
G01 X46.63543 Y11.48977
G01 X46.59289 Y11.51359
G01 X46.45596 Y11.55853
G01 X46.34123 Y11.58857
G01 X46.12583 Y11.63455
G01 X46.02497 Y11.65004
G01 X45.80943 Y11.67285
G01 X45.71524 Y11.67730
G01 X45.50618 Y11.67775
G01 X45.40552 Y11.67201
G01 X45.19650 Y11.65004
G01 X45.08924 Y11.63348
G01 X44.88024 Y11.58857
G01 X44.76566 Y11.55825
G01 X44.50013 Y11.46902
G01 X44.18129 Y11.46902
G01 X44.50013 Y11.46902
G01 X44.34072 Y11.40343
G01 X44.13729 Y11.48596
G01 X43.91578 Y11.55797
G01 X43.80775 Y11.58733
G01 X43.37519 Y11.67402
G01 X43.32051 Y11.68812
G01 X43.21723 Y11.76142
G01 X43.15856 Y11.80955
G01 X43.07989 Y11.88207
G01 X40.31627 Y14.64567
G01 X40.24848 Y14.70963
G01 X40.17540 Y14.76845
G01 X40.00370 Y14.88395
G01 X39.91284 Y14.93088
G01 X39.81033 Y14.97775
G01 X33.55626 Y17.57066
G01 X33.46053 Y17.67772
G01 X33.18382 Y18.05856
G01 X33.15258 Y18.10954
G01 X32.93887 Y18.52900
G01 X32.89724 Y18.64190
G01 X32.83501 Y19.03423
G01 X32.89724 Y18.64190
G01 X32.93887 Y18.52900
G01 X33.15258 Y18.10954
G01 X33.18382 Y18.05856
G01 X33.46053 Y17.67772
G01 X33.55626 Y17.57066
G01 X33.35941 Y17.65813
G01 X33.10635 Y17.78206
G01 X33.04224 Y17.99933
G01 X32.92213 Y18.49897
G01 X32.83501 Y19.03423
G01 X32.79124 Y19.56191
G01 X32.78448 Y19.85117
G01 X32.78210 Y20.20502
G01 X32.76477 Y20.53938
G01 X32.76770 Y20.53992
G01 X32.76477 Y20.53938
G01 X32.75373 Y20.58449
G01 X32.74214 Y20.60471
G01 X32.75286 Y20.61297
G01 X32.74214 Y20.60471
G01 X32.70879 Y20.63702
G01 X32.66597 Y20.65495
G01 X31.62083 Y20.68094
G01 X31.09231 Y20.68533
G01 X30.42833 Y20.70052
G01 X30.14502 Y20.69920
G01 X29.92234 Y20.69295
G01 X29.67039 Y20.66712
G01 X29.63153 Y20.65922
G01 X29.44187 Y20.46958
G01 X29.49102 Y20.47233
G01 X29.52818 Y20.46814
G01 X29.56427 Y20.45846
G01 X29.67812 Y20.41566
G01 X29.70971 Y20.39580
G01 X29.73803 Y20.37146
G01 X29.79767 Y20.31185
G01 X29.82206 Y20.28353
G01 X29.84195 Y20.25188
G01 X29.88474 Y20.13801
G01 X29.89399 Y20.10420
G01 X29.89960 Y20.04822
G01 X29.89998 Y14.91252
G01 X29.89371 Y14.85689
G01 X29.86394 Y14.73896
G01 X29.84771 Y14.70531
G01 X29.82668 Y14.67445
G01 X29.76105 Y14.59444
G01 X29.67514 Y14.56396
G01 X29.59082 Y14.54470
G01 X29.52432 Y14.53525
G01 X29.46046 Y14.53228
G01 X18.78500 Y14.53228
G01 X18.65767 Y14.54422
G01 X18.56272 Y14.56617
G01 X18.49020 Y14.59154
G01 X18.46396 Y14.59152
G01 X18.46396 Y14.61816
G01 X18.49020 Y14.59154
G01 X18.46574 Y14.61303
G01 X18.43641 Y14.69784
G01 X18.41715 Y14.78219
G01 X18.40770 Y14.84869
G01 X18.40473 Y14.91262
G01 X18.40582 Y19.55676
G01 X18.40013 Y19.69747
G01 X18.36902 Y19.80032
G01 X18.34108 Y19.85196
G01 X18.28896 Y19.92214
G01 X15.20210 Y23.00687
G01 X15.12049 Y23.10534
G01 X15.10606 Y23.12457
G01 X15.09742 Y23.18014
G01 X15.09074 Y23.27575
G01 X15.09074 Y23.95502
G01 X15.08754 Y24.01969
G01 X15.05607 Y24.13076
G01 X14.99951 Y24.22614
G01 X14.95922 Y24.26866
G01 X14.92084 Y24.30420
G01 X14.82544 Y24.36051
G01 X14.76697 Y24.37968
G01 X14.70616 Y24.39391
G01 X13.79379 Y24.39391
G01 X13.73299 Y24.37968
G01 X13.67452 Y24.36051
G01 X13.57911 Y24.30422
G01 X13.54066 Y24.26861
G01 X13.50045 Y24.22614
G01 X13.44388 Y24.13076
G01 X13.41241 Y24.01969
G01 X13.40921 Y23.95502
G01 X13.41165 Y22.64885
G01 X13.42366 Y22.59399
G01 X13.44388 Y22.52929
G01 X13.50045 Y22.43392
G01 X13.56974 Y22.36384
G01 X13.61259 Y22.33387
G01 X13.67452 Y22.29953
G01 X13.78526 Y22.26724
G01 X14.52925 Y22.26437
G01 X14.67901 Y22.24982
G01 X14.72569 Y22.21583
G01 X14.79814 Y22.15289
G01 X17.40387 Y19.54716
G01 X17.49991 Y19.42945
G01 X17.50849 Y19.37400
G01 X17.51522 Y19.27832
G01 X17.51522 Y14.91252
G01 X17.50329 Y14.78522
G01 X17.48134 Y14.69027
G01 X17.45597 Y14.61775
G01 X17.45597 Y14.59152
G01 X17.42930 Y14.59152
G01 X17.45597 Y14.61775
G01 X17.43450 Y14.59332
G01 X17.34964 Y14.56398
G01 X17.26531 Y14.54473
G01 X17.15640 Y14.53289
G01 X16.55983 Y14.53228
G01 X16.43250 Y14.54419
G01 X16.32338 Y14.57112
G01 X16.20057 Y14.76998
G01 X16.12084 Y14.84920
G01 X16.02544 Y14.90551
G01 X15.91467 Y14.93782
G01 X15.85000 Y14.94077
G01 X14.54998 Y14.94077
G01 X14.48528 Y14.93782
G01 X14.39476 Y14.91290
G01 X14.34713 Y14.89136
G01 X14.27911 Y14.84920
G01 X14.20045 Y14.77114
G01 X14.10924 Y14.61577
G01 X14.07096 Y14.54112
G01 X14.00190 Y14.52266
G01 X13.91754 Y14.50719
G01 X13.84749 Y14.50071
G01 X12.83982 Y14.49980
G01 X12.71221 Y14.51171
G01 X12.61716 Y14.53368
G01 X12.54470 Y14.55905
G01 X12.50805 Y14.59185
G01 X12.48478 Y14.62106
G01 X12.42948 Y14.72936
G01 X12.41450 Y14.76863
G01 X12.40629 Y14.80988
G01 X12.39997 Y14.88001
G01 X12.39997 Y15.90002
G01 X4.89998 Y15.90002
G01 X4.89998 Y14.64336
G01 X4.92109 Y14.66289
G01 X4.96432 Y14.68598
G01 X5.01121 Y14.70020
G01 X5.08606 Y14.70500
G01 X5.15129 Y14.77958
G01 X5.54926 Y15.17752
G01 X6.85606 Y15.17752
G01 X7.05637 Y15.16500
G01 X7.14699 Y15.14793
G01 X7.27666 Y15.07861
G01 X7.39033 Y14.98534
G01 X7.48360 Y14.87170
G01 X7.55289 Y14.74204
G01 X7.59558 Y14.60132
G01 X7.60999 Y14.45502
G01 X7.60999 Y13.65502
G01 X7.59917 Y13.54504
G01 X7.84915 Y13.54504
G01 X7.86000 Y13.65502
G01 X7.86000 Y14.45502
G01 X7.84077 Y14.65011
G01 X7.78387 Y14.83769
G01 X7.73300 Y14.93284
G01 X7.65162 Y14.97864
G01 X7.45174 Y15.06609
G01 X7.25345 Y15.12806
G01 X7.14623 Y15.14813
G01 X7.25345 Y15.12806
G01 X7.45174 Y15.06609
G01 X7.65162 Y14.97864
G01 X7.85314 Y14.86528
G01 X8.05438 Y14.72692
G01 X8.08580 Y14.69941
G01 X8.10998 Y14.45502
G01 X8.10998 Y13.65502
G01 X8.09916 Y13.54504
G01 X8.34915 Y13.54504
G01 X8.36000 Y13.65502
G01 X8.36000 Y14.45502
G01 X8.35949 Y14.45994
G01 X8.08580 Y14.69941
G01 X8.47496 Y14.35824
G01 X8.47496 Y13.54504
G01 X7.08332 Y13.54504
G01 X7.34661 Y13.54504
G01 X7.36000 Y13.65502
G01 X7.36000 Y14.45502
G01 X7.35037 Y14.55255
G01 X7.32192 Y14.64635
G01 X7.27572 Y14.73279
G01 X7.21354 Y14.80856
G01 X7.13777 Y14.87074
G01 X7.05134 Y14.91694
G01 X6.95754 Y14.94541
G01 X6.85997 Y14.95501
G01 X5.32675 Y14.95501
G01 X5.15129 Y14.77958
G01 X5.08606 Y14.70500
G01 X5.01121 Y14.70020
G01 X4.96432 Y14.68598
G01 X4.92109 Y14.66289
G01 X4.90115 Y14.64653
G01 X4.86778 Y14.55753
G01 X4.85498 Y14.45504
G01 X4.85498 Y13.65502
G01 X4.87182 Y13.53752
G01 X4.90499 Y13.46038
G01 X4.92109 Y13.44714
G01 X4.97756 Y13.42002
G01 X6.94232 Y13.42002
G01 X6.99889 Y13.39289
G01 X7.03676 Y13.36180
G01 X7.06785 Y13.32390
G01 X7.09096 Y13.28067
G01 X7.10519 Y13.23378
G01 X7.10999 Y13.18502
G01 X7.10999 Y12.38502
G01 X7.10519 Y12.33625
G01 X7.08332 Y12.27504
G01 X7.34661 Y12.27504
G01 X7.35037 Y12.28746
G01 X7.36000 Y12.38502
G01 X7.36000 Y13.18502
G01 X7.34659 Y13.29502
G01 X7.59914 Y13.29502
G01 X7.60999 Y13.18502
G01 X7.60999 Y12.38502
G01 X7.59917 Y12.27504
G01 X7.84915 Y12.27504
G01 X7.86000 Y12.38502
G01 X7.86000 Y13.18502
G01 X7.84915 Y13.29502
G01 X8.09914 Y13.29502
G01 X8.10998 Y13.18502
G01 X8.10998 Y12.38502
G01 X8.09916 Y12.27504
G01 X8.34915 Y12.27504
G01 X8.36000 Y12.38502
G01 X8.36000 Y13.18502
G01 X8.34915 Y13.29502
G01 X8.36000 Y13.18502
G01 X8.36000 Y12.38502
G01 X8.34915 Y12.27504
G01 X7.08332 Y12.27504
G01 X7.06785 Y12.24613
G01 X7.03676 Y12.20823
G01 X6.99889 Y12.17714
G01 X6.94232 Y12.15002
G01 X6.99889 Y12.12289
G01 X7.03676 Y12.09180
G01 X7.06785 Y12.05390
G01 X7.08329 Y12.02502
G01 X7.59914 Y12.02502
G01 X7.60999 Y11.91502
G01 X7.60999 Y11.11502
G01 X7.59917 Y11.00504
G01 X7.84915 Y11.00504
G01 X7.86000 Y11.11502
G01 X7.86000 Y11.91502
G01 X7.84915 Y12.02502
G01 X8.09914 Y12.02502
G01 X8.10998 Y11.91502
G01 X8.10998 Y11.11502
G01 X8.09916 Y11.00504
G01 X8.34915 Y11.00504
G01 X8.36000 Y11.11502
G01 X8.36000 Y11.91502
G01 X8.34915 Y12.02502
G01 X7.34659 Y12.02502
G01 X8.47496 Y12.02502
G01 X8.47496 Y11.00504
G01 X7.08332 Y11.00504
G01 X7.34661 Y11.00504
G01 X7.35037 Y11.01746
G01 X7.36000 Y11.11502
G01 X7.36000 Y11.91502
G01 X7.35037 Y12.01255
G01 X7.34659 Y12.02502
G01 X7.08329 Y12.02502
G01 X7.06785 Y12.05390
G01 X7.03676 Y12.09180
G01 X6.99889 Y12.12289
G01 X6.94232 Y12.15002
G01 X6.99889 Y12.17714
G01 X7.03676 Y12.20823
G01 X7.06785 Y12.24613
G01 X7.08332 Y12.27504
G01 X8.47496 Y12.27504
G01 X8.47496 Y13.29502
G01 X7.08329 Y13.29502
G01 X7.06785 Y13.32390
G01 X7.03676 Y13.36180
G01 X6.99889 Y13.39289
G01 X6.94232 Y13.42002
G01 X6.99889 Y13.44714
G01 X7.03676 Y13.47823
G01 X7.06785 Y13.51613
G01 X7.09096 Y13.55934
G01 X7.10519 Y13.60625
G01 X7.10999 Y13.65502
G01 X7.10999 Y14.45502
G01 X7.10519 Y14.50378
G01 X7.09096 Y14.55067
G01 X7.06785 Y14.59390
G01 X7.03676 Y14.63180
G01 X6.99889 Y14.66289
G01 X6.95566 Y14.68598
G01 X6.90877 Y14.70020
G01 X6.85997 Y14.70500
G01 X5.05998 Y14.70500
G01 X5.01121 Y14.70020
G01 X4.96432 Y14.68598
G01 X4.92109 Y14.66289
G01 X4.89998 Y14.64336
G01 X4.89998 Y14.87198
G01 X4.97159 Y14.95339
G01 X5.15000 Y15.13180
G01 X5.15000 Y15.65001
G01 X5.07677 Y15.72324
G01 X5.15000 Y15.65001
G01 X12.14996 Y15.65001
G01 X12.22318 Y15.72324
G01 X12.14996 Y15.65001
G01 X12.14996 Y15.13182
G01 X12.22837 Y15.05339
G01 X11.89997 Y15.38181
G01 X11.89997 Y15.40002
G01 X11.88018 Y15.40002
G01 X11.89997 Y15.40002
G01 X11.95062 Y15.43835
G01 X11.89997 Y15.40002
G01 X11.88018 Y15.40002
G01 X11.84109 Y15.42141
G01 X11.80279 Y15.42989
G01 X10.33995 Y15.42778
G01 X10.12029 Y15.41404
G01 X9.89307 Y15.37284
G01 X9.66683 Y15.30325
G01 X9.44237 Y15.20518
G01 X9.34305 Y15.15004
G01 X7.85687 Y15.15004
G01 X7.75756 Y15.20518
G01 X7.53310 Y15.30325
G01 X7.30686 Y15.37284
G01 X7.09487 Y15.41214
G01 X7.32098 Y15.36886
G01 X7.53287 Y15.30266
G01 X7.76874 Y15.19959
G01 X7.99033 Y15.07478
G01 X8.20203 Y14.92880
G01 X8.52195 Y14.65001
G01 X8.67798 Y14.65001
G01 X8.96370 Y14.90002
G01 X8.59998 Y14.58174
G01 X8.21352 Y14.91989
G01 X8.23622 Y14.90002
G01 X8.96370 Y14.90002
G01 X8.99789 Y14.92880
G01 X9.20960 Y15.07478
G01 X9.44237 Y15.20518
G01 X9.65423 Y15.29786
G01 X9.87894 Y15.36886
G01 X10.10505 Y15.41214
G01 X10.04039 Y15.40002
G01 X7.15954 Y15.40002
G01 X7.07963 Y15.41404
G01 X6.85997 Y15.42778
G01 X5.49716 Y15.42989
G01 X5.45886 Y15.42141
G01 X5.41974 Y15.40002
G01 X5.39998 Y15.40002
G01 X5.34931 Y15.43838
G01 X5.39998 Y15.40002
G01 X5.41974 Y15.40002
G01 X5.39998 Y15.40002
G01 X5.39998 Y15.38181
G01 X5.15000 Y15.13180
G01 X5.40791 Y15.39240
G01 X5.45886 Y15.42141
G01 X5.49749 Y15.42753
G01 X6.85997 Y15.42753
G01 X7.07963 Y15.41404
G01 X7.15954 Y15.40002
G01 X10.04039 Y15.40002
G01 X10.12029 Y15.41404
G01 X10.33995 Y15.42753
G01 X11.82202 Y15.42598
G01 X11.85923 Y15.41389
G01 X11.89085 Y15.39090
G01 X11.89372 Y15.39517
G01 X11.89085 Y15.39090
G01 X12.23213 Y15.04948
G01 X12.31391 Y14.96004
G01 X12.38620 Y14.87092
G01 X12.40177 Y14.84996
G01 X12.41450 Y14.76863
G01 X12.46608 Y14.65339
G01 X12.48478 Y14.62106
G01 X12.50805 Y14.59185
G01 X12.54470 Y14.55905
G01 X12.36649 Y14.55903
G01 X12.34785 Y14.59390
G01 X12.31676 Y14.63180
G01 X12.27889 Y14.66289
G01 X12.23566 Y14.68598
G01 X12.18877 Y14.70020
G01 X12.14000 Y14.70500
G01 X10.33998 Y14.70500
G01 X10.29121 Y14.70020
G01 X10.24432 Y14.68598
G01 X10.20109 Y14.66289
G01 X10.16322 Y14.63180
G01 X10.13213 Y14.59390
G01 X10.10902 Y14.55067
G01 X10.09479 Y14.50378
G01 X10.08999 Y14.45502
G01 X10.08999 Y13.65502
G01 X10.11666 Y13.54504
G01 X10.08999 Y13.65502
G01 X10.09479 Y13.60625
G01 X10.11666 Y13.54504
G01 X9.85336 Y13.54504
G01 X9.83998 Y13.65502
G01 X9.83998 Y14.45502
G01 X9.84961 Y14.55255
G01 X9.87805 Y14.64635
G01 X9.92426 Y14.73279
G01 X9.98644 Y14.80856
G01 X10.06220 Y14.87074
G01 X10.14864 Y14.91694
G01 X10.24244 Y14.94541
G01 X10.33998 Y14.95501
G01 X11.97320 Y14.95501
G01 X12.12377 Y14.79771
G01 X12.20533 Y14.69520
G01 X12.23566 Y14.68598
G01 X12.20533 Y14.69520
G01 X12.12377 Y14.79771
G01 X12.04965 Y14.87856
G01 X11.75069 Y15.17752
G01 X10.34384 Y15.17752
G01 X10.14353 Y15.16500
G01 X10.05298 Y15.14793
G01 X9.92332 Y15.07861
G01 X9.80965 Y14.98534
G01 X9.71638 Y14.87170
G01 X9.64707 Y14.74204
G01 X9.60439 Y14.60132
G01 X9.58999 Y14.45502
G01 X9.58999 Y13.65502
G01 X9.60081 Y13.54504
G01 X9.35083 Y13.54504
G01 X9.33998 Y13.65502
G01 X9.33998 Y14.45502
G01 X9.35921 Y14.65011
G01 X9.41610 Y14.83769
G01 X9.46701 Y14.93289
G01 X9.54831 Y14.97864
G01 X9.74818 Y15.06609
G01 X9.94648 Y15.12806
G01 X10.05382 Y15.14818
G01 X9.94648 Y15.12806
G01 X9.74818 Y15.06609
G01 X9.54831 Y14.97864
G01 X9.34679 Y14.86528
G01 X9.14554 Y14.72692
G01 X9.11417 Y14.69947
G01 X9.08999 Y14.45502
G01 X9.08999 Y13.65502
G01 X9.10081 Y13.54504
G01 X8.85083 Y13.54504
G01 X8.83998 Y13.65502
G01 X8.83998 Y14.45502
G01 X8.84049 Y14.45999
G01 X9.11417 Y14.69947
G01 X8.72497 Y14.35824
G01 X8.72497 Y13.54504
G01 X10.11666 Y13.54504
G01 X10.13213 Y13.51613
G01 X10.16322 Y13.47823
G01 X10.20109 Y13.44714
G01 X10.25755 Y13.42004
G01 X10.20109 Y13.39289
G01 X10.16322 Y13.36180
G01 X10.13213 Y13.32390
G01 X10.11669 Y13.29502
G01 X10.09479 Y13.23378
G01 X10.08999 Y13.18502
G01 X10.08999 Y12.38502
G01 X10.09479 Y12.33625
G01 X10.11664 Y12.27504
G01 X9.85336 Y12.27504
G01 X9.84961 Y12.28746
G01 X9.83998 Y12.38502
G01 X9.83998 Y13.18502
G01 X9.84961 Y13.28255
G01 X9.85339 Y13.29502
G01 X9.83998 Y13.18502
G01 X9.83998 Y12.38502
G01 X9.85336 Y12.27504
G01 X10.11664 Y12.27504
G01 X10.13213 Y12.24613
G01 X10.16322 Y12.20823
G01 X10.20109 Y12.17714
G01 X10.25755 Y12.15002
G01 X10.20109 Y12.12289
G01 X10.16322 Y12.09180
G01 X10.13213 Y12.05390
G01 X10.11669 Y12.02505
G01 X9.60081 Y12.02502
G01 X9.58999 Y11.91502
G01 X9.58999 Y11.11502
G01 X9.60081 Y11.00504
G01 X9.35083 Y11.00504
G01 X9.33998 Y11.11502
G01 X9.33998 Y11.91502
G01 X9.35083 Y12.02502
G01 X9.60081 Y12.02502
G01 X9.10081 Y12.02502
G01 X9.08999 Y11.91502
G01 X9.08999 Y11.11502
G01 X9.10081 Y11.00504
G01 X8.85083 Y11.00504
G01 X8.83998 Y11.11502
G01 X8.83998 Y11.91502
G01 X8.85083 Y12.02502
G01 X9.10081 Y12.02502
G01 X8.72497 Y12.02502
G01 X8.72497 Y11.00504
G01 X10.11664 Y11.00504
G01 X10.08999 Y11.11502
G01 X10.11664 Y11.00504
G01 X9.85336 Y11.00504
G01 X9.84961 Y11.01746
G01 X9.83998 Y11.11502
G01 X9.83998 Y11.91502
G01 X9.84961 Y12.01255
G01 X9.85339 Y12.02502
G01 X10.11669 Y12.02505
G01 X10.13213 Y12.05390
G01 X10.16322 Y12.09180
G01 X10.20109 Y12.12289
G01 X10.25755 Y12.15002
G01 X10.20109 Y12.17714
G01 X10.16322 Y12.20823
G01 X10.13213 Y12.24613
G01 X10.11664 Y12.27504
G01 X10.08999 Y12.38502
G01 X10.11664 Y12.27504
G01 X9.60081 Y12.27504
G01 X9.58999 Y12.38502
G01 X9.58999 Y13.18502
G01 X9.60081 Y13.29502
G01 X9.35083 Y13.29502
G01 X9.33998 Y13.18502
G01 X9.33998 Y12.38502
G01 X9.35083 Y12.27504
G01 X9.60081 Y12.27504
G01 X9.10081 Y12.27504
G01 X9.08999 Y12.38502
G01 X9.08999 Y13.18502
G01 X9.10081 Y13.29502
G01 X8.85083 Y13.29502
G01 X8.83998 Y13.18502
G01 X8.83998 Y12.38502
G01 X8.85083 Y12.27504
G01 X9.10081 Y12.27504
G01 X8.72497 Y12.27504
G01 X8.72497 Y13.29502
G01 X10.11669 Y13.29502
G01 X10.13213 Y13.32390
G01 X10.16322 Y13.36180
G01 X10.20109 Y13.39289
G01 X10.25755 Y13.42004
G01 X12.22232 Y13.42004
G01 X12.27889 Y13.39289
G01 X12.31676 Y13.36180
G01 X12.34785 Y13.32390
G01 X12.36649 Y13.28903
G01 X14.23347 Y13.28903
G01 X14.19692 Y13.32195
G01 X14.14548 Y13.38113
G01 X14.10510 Y13.44834
G01 X14.08277 Y13.49937
G01 X14.01772 Y13.53668
G01 X13.97281 Y13.54504
G01 X13.97378 Y13.54986
G01 X13.97281 Y13.54504
G01 X12.36332 Y13.54504
G01 X12.34785 Y13.51613
G01 X12.31676 Y13.47823
G01 X12.27889 Y13.44714
G01 X12.22232 Y13.42004
G01 X12.27889 Y13.39289
G01 X12.31676 Y13.36180
G01 X12.34785 Y13.32390
G01 X12.36329 Y13.29502
G01 X13.93746 Y13.29505
G01 X13.94721 Y13.28903
G01 X13.93746 Y13.29505
G01 X12.36329 Y13.29502
G01 X12.34785 Y13.32390
G01 X12.31676 Y13.36180
G01 X12.27889 Y13.39289
G01 X12.22232 Y13.42004
G01 X12.27889 Y13.44714
G01 X12.31676 Y13.47823
G01 X12.34785 Y13.51613
G01 X12.36652 Y13.55103
G01 X14.06629 Y13.55103
G01 X14.09321 Y13.47165
G01 X14.13123 Y13.40307
G01 X14.16194 Y13.36078
G01 X14.21543 Y13.30343
G01 X14.23636 Y13.28791
G01 X14.33580 Y13.25824
G01 X14.38808 Y13.24714
G01 X14.48323 Y13.23485
G01 X14.54998 Y13.23203
G01 X15.85000 Y13.23203
G01 X15.91673 Y13.23485
G01 X16.01187 Y13.24714
G01 X16.11137 Y13.27094
G01 X16.16704 Y13.28926
G01 X16.23804 Y13.36078
G01 X16.26874 Y13.40307
G01 X16.30677 Y13.47165
G01 X16.33230 Y13.54577
G01 X16.34103 Y13.58352
G01 X39.55371 Y13.58352
G01 X42.15421 Y10.98304
G01 X42.05947 Y10.87575
G01 X41.94068 Y10.67275
G01 X41.91942 Y10.62500
G01 X41.84804 Y10.40090
G01 X41.82074 Y10.14100
G01 X41.82211 Y9.36488
G01 X41.84804 Y9.13112
G01 X41.91942 Y8.90702
G01 X41.94068 Y8.85927
G01 X42.04522 Y8.67822
G01 X42.07593 Y8.63595
G01 X42.23433 Y8.46209
G01 X42.43974 Y8.31238
G01 X42.43974 Y7.38216
G01 X41.53859 Y6.48102
G01 X38.04968 Y6.48102
G01 X38.03906 Y6.57896
G01 X38.01615 Y6.65394
G01 X37.99489 Y6.70169
G01 X37.95450 Y6.76892
G01 X37.88455 Y6.84660
G01 X37.82194 Y6.89377
G01 X37.77668 Y6.91990
G01 X37.70449 Y6.95053
G01 X37.62809 Y6.96819
G01 X37.54998 Y6.97505
G01 X36.73690 Y6.97472
G01 X36.67188 Y6.96819
G01 X36.59548 Y6.95053
G01 X36.50000 Y6.90807
G01 X36.43576 Y6.86306
G01 X36.39692 Y6.82808
G01 X36.36195 Y6.78927
G01 X36.33124 Y6.74698
G01 X36.29322 Y6.67840
G01 X36.26769 Y6.60426
G01 X36.25682 Y6.55315
G01 X36.24998 Y6.47502
G01 X36.24998 Y5.66281
G01 X34.69124 Y4.10411
G01 X31.50692 Y4.10411
G01 X31.77151 Y4.10411
G01 X31.81121 Y4.12865
G01 X31.89559 Y4.19199
G01 X32.00750 Y4.28955
G01 X32.23203 Y4.28996
G01 X32.35726 Y4.29634
G01 X32.53770 Y4.32280
G01 X32.66752 Y4.35412
G01 X33.18227 Y4.35412
G01 X32.66752 Y4.35412
G01 X32.79124 Y4.39044
G01 X32.92497 Y4.44175
G01 X33.11118 Y4.37337
G01 X33.25350 Y4.33515
G01 X33.43389 Y4.30294
G01 X33.58679 Y4.29088
G01 X34.47714 Y4.29024
G01 X34.56576 Y4.29359
G01 X34.56685 Y4.28844
G01 X34.56576 Y4.29359
G01 X34.60203 Y4.30037
G01 X34.70508 Y4.35283
G01 X34.80635 Y4.41628
G01 X34.93891 Y4.51325
G01 X35.10277 Y4.66794
G01 X35.20914 Y4.79801
G01 X35.27871 Y4.89758
G01 X35.36893 Y5.06022
G01 X35.43091 Y5.19727
G01 X36.00000 Y5.76636
G01 X36.01902 Y5.75849
G01 X36.00000 Y5.76636
G01 X36.00000 Y6.40708
G01 X36.00772 Y6.42575
G01 X35.77346 Y5.86021
G01 X35.77648 Y5.85833
G01 X35.77346 Y5.86021
G01 X35.74635 Y5.81965
G01 X35.64793 Y5.72123
G01 X35.43091 Y5.19727
G01 X35.64793 Y5.72123
G01 X35.74635 Y5.81965
G01 X35.76622 Y5.84558
G01 X36.00772 Y6.42575
G01 X36.05524 Y6.52928
G01 X36.10904 Y6.62854
G01 X36.41750 Y7.14619
G01 X36.51823 Y7.18830
G01 X36.61991 Y7.21271
G01 X36.69769 Y7.22295
G01 X36.74998 Y7.22503
G01 X37.57614 Y7.22432
G01 X37.68008 Y7.21271
G01 X37.78176 Y7.18830
G01 X37.87835 Y7.14830
G01 X37.92499 Y7.12452
G01 X38.01117 Y7.06532
G01 X38.05184 Y7.03237
G01 X38.08884 Y6.99537
G01 X38.15676 Y6.91586
G01 X38.21140 Y6.82671
G01 X38.23515 Y6.78008
G01 X38.25389 Y6.73121
G01 X38.23223 Y6.69501
G01 X38.25389 Y6.73121
G01 X41.43504 Y6.73103
G01 X41.44294 Y6.71198
G01 X41.43504 Y6.73103
G01 X42.18972 Y7.48571
G01 X42.20877 Y7.47781
G01 X42.18972 Y7.48571
G01 X42.18972 Y8.18376
G01 X42.21599 Y8.19684
G01 X42.18972 Y8.18376
G01 X42.10771 Y8.24337
G01 X42.06704 Y8.27629
G01 X42.03003 Y8.31330
G01 X41.92572 Y8.42914
G01 X41.92572 Y8.06948
G01 X41.93974 Y8.05813
G01 X41.93974 Y7.58924
G01 X41.95937 Y7.58124
G01 X41.93974 Y7.58924
G01 X41.33151 Y6.98101
G01 X41.33938 Y6.96199
G01 X41.33151 Y6.98101
G01 X38.41097 Y6.98101
G01 X38.39400 Y6.95013
G01 X38.41097 Y6.98101
G01 X38.35900 Y7.06283
G01 X38.30959 Y7.12384
G01 X38.21912 Y7.21815
G01 X38.11582 Y7.29831
G01 X38.04998 Y7.34109
G01 X37.92600 Y7.40034
G01 X37.60312 Y7.45439
G01 X37.44071 Y7.47504
G01 X36.74998 Y7.47504
G01 X36.64305 Y7.46715
G01 X36.49601 Y7.27078
G01 X36.41750 Y7.14619
G01 X36.49601 Y7.27078
G01 X36.60515 Y7.42033
G01 X36.78562 Y7.62767
G01 X36.87345 Y7.59930
G01 X37.07576 Y7.54495
G01 X37.29123 Y7.49872
G01 X37.68801 Y7.44093
G01 X37.96065 Y7.39402
G01 X38.06639 Y7.37063
G01 X38.26753 Y7.32209
G01 X38.48424 Y7.26313
G01 X38.52953 Y7.24893
G01 X38.54404 Y7.23103
G01 X38.54213 Y7.22346
G01 X38.54404 Y7.23103
G01 X38.58790 Y7.23278
G01 X39.92737 Y7.23103
G01 X39.96981 Y7.22427
G01 X39.92702 Y7.23103
G01 X38.58783 Y7.23103
G01 X38.52953 Y7.24893
G01 X38.58790 Y7.23278
G01 X38.62659 Y7.23349
G01 X38.79077 Y7.26227
G01 X39.00423 Y7.30756
G01 X39.26072 Y7.37629
G01 X39.51724 Y7.30756
G01 X39.73263 Y7.26174
G01 X39.96981 Y7.22427
G01 X40.19191 Y7.20090
G01 X40.42618 Y7.18841
G01 X40.63524 Y7.18876
G01 X40.87601 Y7.20141
G01 X41.14464 Y7.23100
G01 X41.22795 Y7.23103
G01 X41.23156 Y7.22150
G01 X41.22795 Y7.23103
G01 X41.27220 Y7.27527
G01 X41.22559 Y7.24690
G01 X41.19008 Y7.23684
G01 X41.19158 Y7.23214
G01 X41.19008 Y7.23684
G01 X41.14464 Y7.23100
G01 X41.20822 Y7.24055
G01 X41.24187 Y7.25574
G01 X41.53362 Y7.45132
G01 X41.71436 Y7.58967
G01 X41.75637 Y7.62849
G01 X41.76191 Y7.62394
G01 X41.75637 Y7.62849
G01 X41.86435 Y7.83522
G01 X41.91365 Y7.93910
G01 X41.92437 Y7.97431
G01 X41.93067 Y7.97286
G01 X41.92437 Y7.97431
G01 X41.92572 Y8.89061
G01 X41.84804 Y9.13112
G01 X41.82074 Y9.39102
G01 X41.82211 Y10.16714
G01 X41.84804 Y10.40090
G01 X41.92574 Y10.64143
G01 X41.92762 Y10.96140
G01 X41.91911 Y11.00135
G01 X41.91098 Y11.02010
G01 X41.91749 Y11.02353
G01 X41.91098 Y11.02010
G01 X41.88195 Y11.06069
G01 X41.80872 Y11.14672
G01 X41.66069 Y11.30361
G01 X41.57522 Y11.38408
G01 X41.40039 Y11.53290
G01 X41.35302 Y11.62198
G01 X41.28576 Y11.73010
G01 X41.21218 Y11.82751
G01 X41.13242 Y11.91888
G01 X39.65775 Y13.39302
G01 X39.55191 Y13.48334
G01 X39.52026 Y13.50239
G01 X39.52354 Y13.50955
G01 X39.52026 Y13.50239
G01 X39.44040 Y13.52367
G01 X39.30139 Y13.54869
G01 X39.21612 Y13.55827
G01 X39.15707 Y13.56030
G01 X16.45109 Y13.56241
G01 X16.40502 Y13.55245
G01 X16.40359 Y13.55616
G01 X16.40502 Y13.55245
G01 X16.31721 Y13.49939
G01 X16.29488 Y13.44834
G01 X16.25450 Y13.38113
G01 X16.20306 Y13.32195
G01 X16.16643 Y13.28903
G01 X39.11498 Y13.28903
G01 X39.18902 Y13.28293
G01 X39.23708 Y13.27338
G01 X39.33001 Y13.24018
G01 X39.37393 Y13.21671
G01 X39.41467 Y13.18949
G01 X39.47134 Y13.14140
G01 X40.88711 Y11.72566
G01 X40.92633 Y11.68095
G01 X40.97022 Y11.61522
G01 X40.98802 Y11.58027
G01 X41.01541 Y11.50613
G01 X41.03085 Y11.42863
G01 X41.03474 Y11.27892
G01 X41.15574 Y11.22355
G01 X41.36714 Y11.06993
G01 X41.54200 Y10.87575
G01 X41.66079 Y10.67275
G01 X41.68205 Y10.62500
G01 X41.75343 Y10.40090
G01 X41.78073 Y10.14100
G01 X41.77936 Y9.36488
G01 X41.75343 Y9.13112
G01 X41.68205 Y8.90702
G01 X41.66079 Y8.85927
G01 X41.55627 Y8.67822
G01 X41.52554 Y8.63595
G01 X41.36714 Y8.46209
G01 X41.15574 Y8.30847
G01 X40.91701 Y8.20220
G01 X40.66141 Y8.14787
G01 X40.40007 Y8.14787
G01 X40.14447 Y8.20220
G01 X39.90573 Y8.30847
G01 X39.69433 Y8.46209
G01 X39.51947 Y8.65627
G01 X39.40068 Y8.85927
G01 X39.38574 Y8.89056
G01 X39.38574 Y7.60159
G01 X39.57246 Y7.55140
G01 X39.77507 Y7.50834
G01 X39.93481 Y7.48294
G01 X39.81498 Y7.52640
G01 X39.62399 Y7.61144
G01 X39.53072 Y7.65897
G01 X39.38574 Y7.75754
G01 X39.38574 Y8.06948
G01 X39.58991 Y7.91822
G01 X39.65574 Y7.87548
G01 X39.72570 Y7.83984
G01 X39.91668 Y7.75480
G01 X39.98996 Y7.72666
G01 X40.06578 Y7.70634
G01 X40.27027 Y7.66288
G01 X40.34782 Y7.65061
G01 X40.42620 Y7.64649
G01 X40.63527 Y7.64649
G01 X40.71365 Y7.65061
G01 X40.79120 Y7.66288
G01 X40.99570 Y7.70634
G01 X41.07151 Y7.72666
G01 X41.14482 Y7.75480
G01 X41.33580 Y7.83984
G01 X41.40573 Y7.87548
G01 X41.47156 Y7.91822
G01 X41.67573 Y8.06946
G01 X41.67573 Y8.42912
G01 X41.53443 Y8.27629
G01 X41.32463 Y8.12048
G01 X41.28073 Y8.09199
G01 X41.23410 Y8.06821
G01 X41.04312 Y7.98317
G01 X40.99427 Y7.96443
G01 X40.94370 Y7.95089
G01 X40.68754 Y7.89922
G01 X40.42620 Y7.89648
G01 X40.37395 Y7.89922
G01 X40.32227 Y7.90743
G01 X40.06722 Y7.96443
G01 X40.01835 Y7.98317
G01 X39.78074 Y8.09199
G01 X39.73685 Y8.12048
G01 X39.52704 Y8.27629
G01 X39.38574 Y8.42914
G01 X39.38574 Y8.89056
G01 X39.30804 Y9.13112
G01 X39.28074 Y9.39102
G01 X39.28074 Y10.14100
G01 X39.30804 Y10.40090
G01 X39.38882 Y10.64944
G01 X39.51947 Y10.87575
G01 X39.69433 Y11.06993
G01 X39.88378 Y11.20930
G01 X39.94482 Y11.24245
G01 X38.90622 Y12.28103
G01 X16.14705 Y12.28103
G01 X16.08467 Y12.30191
G01 X15.98581 Y12.32553
G01 X15.86113 Y12.33973
G01 X14.57500 Y12.34054
G01 X14.50865 Y12.33775
G01 X14.41414 Y12.32553
G01 X14.31528 Y12.30191
G01 X14.25135 Y12.28045
G01 X14.22191 Y12.25309
G01 X14.17048 Y12.19391
G01 X14.13009 Y12.12670
G01 X14.10644 Y12.07161
G01 X14.04086 Y12.03351
G01 X13.99565 Y12.02505
G01 X13.99664 Y12.02012
G01 X13.99565 Y12.02505
G01 X12.36329 Y12.02505
G01 X12.34785 Y12.05390
G01 X12.31676 Y12.09180
G01 X12.27889 Y12.12289
G01 X12.22232 Y12.15004
G01 X12.27889 Y12.17714
G01 X12.31676 Y12.20823
G01 X12.34785 Y12.24613
G01 X12.36332 Y12.27504
G01 X13.96004 Y12.27506
G01 X13.96966 Y12.28103
G01 X13.96004 Y12.27506
G01 X12.36332 Y12.27504
G01 X13.96004 Y12.27506
G01 X13.96966 Y12.28103
G01 X14.25285 Y12.28103
G01 X14.18694 Y12.21425
G01 X14.15623 Y12.17196
G01 X14.11820 Y12.10338
G01 X14.08996 Y12.01903
G01 X12.36649 Y12.01903
G01 X12.34785 Y12.05390
G01 X12.31676 Y12.09180
G01 X12.27889 Y12.12289
G01 X12.22232 Y12.15004
G01 X10.25755 Y12.15002
G01 X10.20109 Y12.12289
G01 X10.16322 Y12.09180
G01 X10.13213 Y12.05390
G01 X10.10902 Y12.01067
G01 X10.09479 Y11.96378
G01 X10.08999 Y11.91502
G01 X10.08999 Y11.11502
G01 X10.09479 Y11.06625
G01 X10.11664 Y11.00504
G01 X10.13213 Y10.97613
G01 X10.16322 Y10.93823
G01 X10.20109 Y10.90714
G01 X10.25755 Y10.88004
G01 X10.20109 Y10.85289
G01 X10.16322 Y10.82180
G01 X10.13213 Y10.78390
G01 X10.11669 Y10.75502
G01 X9.60081 Y10.75502
G01 X9.58999 Y10.64502
G01 X9.58999 Y9.84502
G01 X9.60439 Y9.69869
G01 X9.64707 Y9.55800
G01 X9.71638 Y9.42833
G01 X9.80965 Y9.31469
G01 X9.92332 Y9.22142
G01 X10.05298 Y9.15211
G01 X10.19367 Y9.10943
G01 X10.33998 Y9.09501
G01 X11.89997 Y9.09501
G01 X11.97320 Y9.16823
G01 X11.89997 Y9.09501
G01 X11.89997 Y8.90004
G01 X11.97320 Y8.82681
G01 X11.89997 Y8.90004
G01 X7.15947 Y8.90004
G01 X7.30686 Y8.92721
G01 X7.53310 Y8.99681
G01 X7.75756 Y9.09488
G01 X7.85687 Y9.15002
G01 X9.62294 Y9.15005
G01 X9.92550 Y9.00692
G01 X9.62294 Y9.15005
G01 X9.50851 Y9.28944
G01 X9.41610 Y9.46234
G01 X9.35921 Y9.64992
G01 X9.33998 Y9.84502
G01 X9.33998 Y10.64502
G01 X9.35083 Y10.75502
G01 X9.60081 Y10.75502
G01 X9.10081 Y10.75502
G01 X9.08999 Y10.64502
G01 X9.08999 Y9.84502
G01 X9.11400 Y9.60115
G01 X9.17501 Y9.40003
G01 X9.31130 Y9.29897
G01 X9.17501 Y9.40003
G01 X8.23622 Y9.40003
G01 X8.52192 Y9.65005
G01 X8.85918 Y9.65005
G01 X8.94979 Y9.56793
G01 X8.85918 Y9.65005
G01 X8.83998 Y9.84502
G01 X8.83998 Y10.64502
G01 X8.85083 Y10.75502
G01 X9.10081 Y10.75502
G01 X8.72497 Y10.75502
G01 X8.72497 Y9.89003
G01 X8.72804 Y9.88954
G01 X8.72497 Y9.89003
G01 X8.71885 Y9.85142
G01 X8.70109 Y9.81657
G01 X8.70861 Y9.81167
G01 X8.70109 Y9.81657
G01 X8.63726 Y9.75096
G01 X8.21352 Y9.38017
G01 X7.99033 Y9.22528
G01 X7.76874 Y9.10047
G01 X7.54570 Y9.00219
G01 X7.32098 Y8.93120
G01 X7.09487 Y8.88792
G01 X6.85997 Y8.87227
G01 X5.49716 Y8.87017
G01 X5.45886 Y8.87865
G01 X5.41974 Y8.90004
G01 X5.39998 Y8.90004
G01 X5.39998 Y8.91825
G01 X5.39998 Y8.90004
G01 X5.34931 Y8.86168
G01 X5.39998 Y8.90004
G01 X5.41974 Y8.90004
G01 X5.40910 Y8.90915
G01 X5.40621 Y8.90489
G01 X5.40910 Y8.90915
G01 X4.97159 Y9.34667
G01 X4.89998 Y9.42805
G01 X4.97159 Y9.34667
G01 X5.15000 Y9.16823
G01 X5.15000 Y8.65005
G01 X5.07677 Y8.57682
G01 X5.15000 Y8.65005
G01 X12.14996 Y8.65005
G01 X12.22318 Y8.57682
G01 X12.14996 Y8.65005
G01 X12.14998 Y9.34601
G01 X12.22324 Y9.41931
G01 X12.14998 Y9.34601
G01 X12.14000 Y9.34502
G01 X10.33998 Y9.34502
G01 X10.24244 Y9.35462
G01 X10.14864 Y9.38307
G01 X10.06220 Y9.42927
G01 X9.98644 Y9.49145
G01 X9.92426 Y9.56722
G01 X9.87805 Y9.65368
G01 X9.84961 Y9.74746
G01 X9.83998 Y9.84502
G01 X9.83998 Y10.64502
G01 X9.84961 Y10.74255
G01 X9.85336 Y10.75502
G01 X10.11669 Y10.75502
G01 X10.13213 Y10.78390
G01 X10.16322 Y10.82180
G01 X10.20109 Y10.85289
G01 X10.25755 Y10.88004
G01 X10.20109 Y10.90714
G01 X10.16322 Y10.93823
G01 X10.13213 Y10.97613
G01 X10.11664 Y11.00504
G01 X10.08999 Y11.11502
G01 X10.08999 Y11.91502
G01 X10.09479 Y11.96378
G01 X10.10902 Y12.01067
G01 X10.13213 Y12.05390
G01 X10.16322 Y12.09180
G01 X10.20109 Y12.12289
G01 X10.25755 Y12.15002
G01 X12.22232 Y12.15004
G01 X12.27889 Y12.17714
G01 X12.31676 Y12.20823
G01 X12.34785 Y12.24613
G01 X12.36652 Y12.28103
G01 X14.25285 Y12.28103
G01 X14.31528 Y12.30191
G01 X14.41414 Y12.32553
G01 X14.53883 Y12.33973
G01 X15.83496 Y12.34041
G01 X15.89130 Y12.33775
G01 X15.98581 Y12.32553
G01 X16.08467 Y12.30191
G01 X16.14865 Y12.28042
G01 X16.21302 Y12.21425
G01 X16.24375 Y12.17196
G01 X16.28175 Y12.10338
G01 X16.31406 Y12.00402
G01 X24.54998 Y12.00402
G01 X24.62402 Y11.99792
G01 X24.67208 Y11.98837
G01 X24.76502 Y11.95517
G01 X24.84968 Y11.90447
G01 X24.90634 Y11.85639
G01 X26.49273 Y10.27004
G01 X31.67293 Y10.27004
G01 X31.68804 Y10.40090
G01 X31.75942 Y10.62500
G01 X31.78068 Y10.67275
G01 X31.89947 Y10.87575
G01 X32.07433 Y11.06993
G01 X32.26378 Y11.20930
G01 X32.30905 Y11.23541
G01 X32.52447 Y11.32982
G01 X32.78007 Y11.38416
G01 X33.04141 Y11.38416
G01 X33.29701 Y11.32982
G01 X33.51242 Y11.23541
G01 X33.55769 Y11.20930
G01 X33.72682 Y11.08642
G01 X33.76566 Y11.05144
G01 X33.92200 Y10.87575
G01 X34.05573 Y10.64148
G01 X34.05573 Y11.10290
G01 X33.91443 Y11.25573
G01 X33.70463 Y11.41154
G01 X33.66073 Y11.44006
G01 X33.61410 Y11.46381
G01 X33.42312 Y11.54885
G01 X33.37427 Y11.56759
G01 X33.32370 Y11.58113
G01 X33.06754 Y11.63280
G01 X33.01527 Y11.63554
G01 X32.75395 Y11.63280
G01 X32.49777 Y11.58113
G01 X32.44722 Y11.56759
G01 X32.39835 Y11.54885
G01 X32.16074 Y11.44006
G01 X31.94771 Y11.28868
G01 X31.90704 Y11.25573
G01 X31.87003 Y11.21873
G01 X31.69721 Y11.02269
G01 X31.56417 Y10.79775
G01 X31.54042 Y10.75111
G01 X31.52167 Y10.70227
G01 X31.46247 Y10.52005
G01 X31.49615 Y10.47311
G01 X31.46247 Y10.52005
G01 X26.59628 Y10.52005
G01 X26.58841 Y10.50100
G01 X26.59628 Y10.52005
G01 X25.31620 Y11.80008
G01 X25.91978 Y11.55009
G01 X26.69984 Y10.77003
G01 X26.69196 Y10.75101
G01 X26.69984 Y10.77003
G01 X31.28083 Y10.77003
G01 X31.30747 Y10.72927
G01 X31.28083 Y10.77003
G01 X31.31202 Y10.85281
G01 X31.34768 Y10.92274
G01 X31.45220 Y11.10379
G01 X31.49495 Y11.16963
G01 X31.54436 Y11.23064
G01 X31.68426 Y11.38601
G01 X31.73976 Y11.44151
G01 X31.87285 Y11.54329
G01 X31.74829 Y11.50282
G01 X31.55629 Y11.42888
G01 X31.35322 Y11.33849
G01 X31.28388 Y11.30303
G01 X31.23569 Y11.22881
G01 X31.11705 Y11.02005
G01 X31.13585 Y10.98710
G01 X31.11705 Y11.02005
G01 X26.80339 Y11.02005
G01 X26.79552 Y11.00100
G01 X26.80339 Y11.02005
G01 X26.52333 Y11.30008
G01 X25.91978 Y11.55009
G01 X26.86138 Y11.16008
G01 X26.90921 Y11.15055
G01 X26.90830 Y11.14588
G01 X26.90921 Y11.15055
G01 X30.98934 Y11.15246
G01 X30.99084 Y11.14606
G01 X30.98934 Y11.15246
G01 X31.03013 Y11.16729
G01 X31.12101 Y11.21977
G01 X31.35322 Y11.33849
G01 X31.55629 Y11.42888
G01 X31.74829 Y11.50282
G01 X31.95114 Y11.56874
G01 X32.11598 Y11.61303
G01 X32.31862 Y11.65611
G01 X32.46683 Y11.67966
G01 X32.66935 Y11.70094
G01 X32.80945 Y11.70831
G01 X33.01199 Y11.70831
G01 X33.15207 Y11.70094
G01 X33.35461 Y11.67966
G01 X33.50285 Y11.65611
G01 X33.70546 Y11.61303
G01 X33.87039 Y11.56871
G01 X33.94862 Y11.54329
G01 X34.05573 Y11.46257
G01 X33.94862 Y11.54329
G01 X34.05573 Y11.50849
G01 X34.05573 Y10.64148
G01 X34.13343 Y10.40090
G01 X34.15936 Y10.16714
G01 X34.16073 Y9.39102
G01 X34.13343 Y9.13112
G01 X34.04968 Y8.87692
G01 X34.17404 Y8.89927
G01 X34.21138 Y8.89826
G01 X34.31377 Y8.87479
G01 X34.29942 Y8.90702
G01 X34.22804 Y9.13112
G01 X34.20211 Y9.36488
G01 X34.20074 Y10.14100
G01 X34.22804 Y10.40090
G01 X34.30572 Y10.64141
G01 X34.30572 Y11.46254
G01 X34.41285 Y11.54329
G01 X34.30572 Y11.46254
G01 X34.30572 Y11.50849
G01 X34.49114 Y11.56874
G01 X34.65601 Y11.61303
G01 X34.85865 Y11.65611
G01 X35.00683 Y11.67966
G01 X35.20935 Y11.70094
G01 X35.34945 Y11.70831
G01 X35.55199 Y11.70831
G01 X35.69207 Y11.70094
G01 X35.89461 Y11.67966
G01 X36.04282 Y11.65611
G01 X36.24546 Y11.61303
G01 X36.41041 Y11.56871
G01 X36.48862 Y11.54329
G01 X36.59573 Y11.46257
G01 X36.48862 Y11.54329
G01 X36.59573 Y11.50849
G01 X36.59573 Y10.64148
G01 X36.59573 Y11.10290
G01 X36.49144 Y11.21873
G01 X36.45443 Y11.25573
G01 X36.41376 Y11.28868
G01 X36.24463 Y11.41154
G01 X36.20073 Y11.44006
G01 X36.15410 Y11.46381
G01 X35.91427 Y11.56759
G01 X35.65923 Y11.62462
G01 X35.60754 Y11.63280
G01 X35.55527 Y11.63554
G01 X35.29395 Y11.63280
G01 X35.03777 Y11.58113
G01 X34.98722 Y11.56759
G01 X34.93835 Y11.54885
G01 X34.74737 Y11.46381
G01 X34.70074 Y11.44006
G01 X34.65685 Y11.41154
G01 X34.44704 Y11.25573
G01 X34.30572 Y11.10288
G01 X34.30572 Y10.64141
G01 X34.32068 Y10.67275
G01 X34.43947 Y10.87575
G01 X34.61433 Y11.06993
G01 X34.82573 Y11.22355
G01 X35.04003 Y11.32045
G01 X35.08974 Y11.33661
G01 X35.29423 Y11.38007
G01 X35.34620 Y11.38553
G01 X35.58141 Y11.38416
G01 X35.81173 Y11.33661
G01 X35.86144 Y11.32045
G01 X36.07574 Y11.22355
G01 X36.26682 Y11.08642
G01 X36.30566 Y11.05144
G01 X36.46200 Y10.87575
G01 X36.58079 Y10.67275
G01 X36.60205 Y10.62500
G01 X36.67343 Y10.40090
G01 X36.69936 Y10.16714
G01 X36.69936 Y9.36488
G01 X36.67343 Y9.13112
G01 X36.60205 Y8.90702
G01 X36.58079 Y8.85927
G01 X36.46200 Y8.65627
G01 X36.30566 Y8.48058
G01 X36.26682 Y8.44560
G01 X36.07574 Y8.30847
G01 X35.95474 Y8.25310
G01 X35.95354 Y7.22628
G01 X35.93909 Y7.12869
G01 X35.92464 Y7.08101
G01 X35.88242 Y6.99181
G01 X35.85519 Y6.95107
G01 X35.80711 Y6.89440
G01 X34.94999 Y6.03733
G01 X34.94862 Y5.19887
G01 X34.93907 Y5.12107
G01 X34.91613 Y5.04607
G01 X34.89487 Y4.99832
G01 X34.85448 Y4.93111
G01 X34.78456 Y4.85349
G01 X34.69997 Y4.79199
G01 X34.60450 Y4.74947
G01 X34.50246 Y4.72778
G01 X33.65040 Y4.72501
G01 X33.57188 Y4.73184
G01 X33.52075 Y4.74277
G01 X33.49548 Y4.74947
G01 X33.42329 Y4.78013
G01 X33.37803 Y4.80624
G01 X33.33577 Y4.83700
G01 X33.29693 Y4.87195
G01 X33.24547 Y4.93111
G01 X33.23122 Y4.95308
G01 X33.19322 Y5.02166
G01 X33.16091 Y5.12107
G01 X33.14999 Y5.22501
G01 X33.14999 Y5.34607
G01 X32.92500 Y5.34607
G01 X32.92500 Y5.03697
G01 X32.88515 Y4.91996
G01 X32.83526 Y4.82806
G01 X32.80676 Y4.78417
G01 X32.77382 Y4.74350
G01 X32.70183 Y4.66771
G01 X32.60801 Y4.59695
G01 X32.71080 Y4.62720
G01 X32.87415 Y4.69176
G01 X32.91451 Y4.70208
G01 X32.91423 Y4.71579
G01 X32.91451 Y4.70208
G01 X32.95606 Y4.69860
G01 X33.13935 Y4.62710
G01 X33.24194 Y4.59695
G01 X33.14814 Y4.66771
G01 X33.07615 Y4.74350
G01 X33.04323 Y4.78417
G01 X33.01471 Y4.82806
G01 X32.96482 Y4.91996
G01 X32.92500 Y5.03697
G01 X32.92500 Y5.34607
G01 X32.69998 Y5.34607
G01 X32.69998 Y5.22501
G01 X32.69315 Y5.14691
G01 X32.68230 Y5.09578
G01 X32.65675 Y5.02166
G01 X32.60450 Y4.93111
G01 X32.55307 Y4.87195
G01 X32.51423 Y4.83700
G01 X32.44999 Y4.79199
G01 X32.35449 Y4.74947
G01 X32.23920 Y4.72671
G01 X31.52525 Y4.72501
G01 X31.77770 Y4.72501
G01 X31.87123 Y4.66045
G01 X32.00935 Y4.53957
G01 X32.24931 Y4.54053
G01 X32.38002 Y4.55090
G01 X32.49528 Y4.56926
G01 X32.66475 Y4.61219
G01 X32.87415 Y4.69176
G01 X32.91451 Y4.70208
G01 X32.95606 Y4.69860
G01 X33.13935 Y4.62710
G01 X33.30874 Y4.57899
G01 X33.51646 Y4.54602
G01 X33.65159 Y4.53957
G01 X34.52799 Y4.54231
G01 X34.66749 Y4.62417
G01 X34.81857 Y4.74002
G01 X34.91857 Y4.83819
G01 X35.00879 Y4.94759
G01 X35.09101 Y5.07170
G01 X35.14468 Y5.17078
G01 X35.20000 Y5.29306
G01 X35.20000 Y5.93372
G01 X35.18095 Y5.94162
G01 X35.20000 Y5.93372
G01 X35.76898 Y6.50271
G01 X35.55199 Y5.97888
G01 X35.45359 Y5.88043
G01 X35.43373 Y5.85455
G01 X35.43020 Y5.85689
G01 X35.43373 Y5.85455
G01 X35.20000 Y5.29306
G01 X35.43373 Y5.85455
G01 X35.45359 Y5.88043
G01 X35.55199 Y5.97888
G01 X35.77734 Y6.52287
G01 X35.83391 Y6.64563
G01 X35.94861 Y6.84947
G01 X36.20475 Y7.27748
G01 X36.20475 Y8.09458
G01 X36.17754 Y8.10842
G01 X36.20475 Y8.09458
G01 X36.41376 Y8.24337
G01 X36.45443 Y8.27629
G01 X36.49144 Y8.31330
G01 X36.59573 Y8.42912
G01 X36.59573 Y8.06946
G01 X36.45473 Y7.96412
G01 X36.42824 Y7.97738
G01 X36.45473 Y7.96412
G01 X36.45473 Y7.63164
G01 X36.40503 Y7.57019
G01 X36.29207 Y7.41541
G01 X36.20475 Y7.27748
G01 X36.28824 Y7.40984
G01 X36.40503 Y7.57019
G01 X36.45443 Y7.63131
G01 X36.60045 Y7.79575
G01 X36.59573 Y7.82861
G01 X36.59573 Y8.89054
G01 X36.84572 Y8.89061
G01 X36.86068 Y8.85927
G01 X36.97947 Y8.65627
G01 X37.13581 Y8.48058
G01 X37.17467 Y8.44560
G01 X37.36573 Y8.30847
G01 X37.58003 Y8.21157
G01 X37.62974 Y8.19541
G01 X37.86007 Y8.14787
G01 X38.12141 Y8.14787
G01 X38.35173 Y8.19541
G01 X38.40144 Y8.21157
G01 X38.61574 Y8.30847
G01 X38.80682 Y8.44560
G01 X38.84566 Y8.48058
G01 X39.00200 Y8.65627
G01 X39.12079 Y8.85927
G01 X39.14205 Y8.90702
G01 X39.21343 Y9.13112
G01 X39.23936 Y9.36488
G01 X39.23936 Y10.16714
G01 X39.21343 Y10.40090
G01 X39.13573 Y10.64146
G01 X39.13573 Y11.10290
G01 X38.99443 Y11.25573
G01 X38.78463 Y11.41154
G01 X38.74073 Y11.44006
G01 X38.69410 Y11.46381
G01 X38.50312 Y11.54885
G01 X38.45427 Y11.56759
G01 X38.40370 Y11.58113
G01 X38.14754 Y11.63280
G01 X37.88620 Y11.63554
G01 X37.83395 Y11.63280
G01 X37.78227 Y11.62462
G01 X37.52722 Y11.56759
G01 X37.28737 Y11.46381
G01 X37.24074 Y11.44006
G01 X37.19685 Y11.41154
G01 X37.02771 Y11.28868
G01 X36.98704 Y11.25573
G01 X36.95003 Y11.21873
G01 X36.84572 Y11.10288
G01 X36.84572 Y10.64141
G01 X36.84572 Y11.46254
G01 X36.95288 Y11.54331
G01 X36.84572 Y11.46254
G01 X36.84572 Y11.50849
G01 X37.03111 Y11.56874
G01 X37.19601 Y11.61303
G01 X37.39865 Y11.65611
G01 X37.54683 Y11.67966
G01 X37.74935 Y11.70094
G01 X37.88948 Y11.70831
G01 X38.09197 Y11.70831
G01 X38.23210 Y11.70094
G01 X38.43461 Y11.67966
G01 X38.64045 Y11.64387
G01 X38.72115 Y11.58840
G01 X38.83929 Y11.49782
G01 X38.99374 Y11.36589
G01 X39.13573 Y11.22706
G01 X39.13573 Y10.64146
G01 X39.12079 Y10.67275
G01 X39.00200 Y10.87575
G01 X38.84566 Y11.05144
G01 X38.80682 Y11.08642
G01 X38.61574 Y11.22355
G01 X38.40144 Y11.32045
G01 X38.35173 Y11.33661
G01 X38.12141 Y11.38416
G01 X37.86007 Y11.38416
G01 X37.62974 Y11.33661
G01 X37.58003 Y11.32045
G01 X37.36573 Y11.22355
G01 X37.17467 Y11.08642
G01 X37.13581 Y11.05144
G01 X36.97947 Y10.87575
G01 X36.86068 Y10.67275
G01 X36.83942 Y10.62500
G01 X36.76804 Y10.40090
G01 X36.74074 Y10.14100
G01 X36.74211 Y9.36488
G01 X36.76804 Y9.13112
G01 X36.84572 Y8.89061
G01 X36.84572 Y7.87101
G01 X36.94145 Y7.83989
G01 X37.13744 Y7.78724
G01 X37.34008 Y7.74416
G01 X37.51772 Y7.71596
G01 X37.64051 Y7.70159
G01 X37.96979 Y7.64649
G01 X38.17365 Y7.65061
G01 X38.25120 Y7.66288
G01 X38.45570 Y7.70634
G01 X38.53151 Y7.72666
G01 X38.60482 Y7.75480
G01 X38.79580 Y7.83984
G01 X38.86573 Y7.87548
G01 X38.93156 Y7.91822
G01 X39.13573 Y8.06948
G01 X39.13573 Y8.89056
G01 X39.13573 Y8.42912
G01 X38.99443 Y8.27629
G01 X38.78463 Y8.12048
G01 X38.74073 Y8.09199
G01 X38.69410 Y8.06821
G01 X38.45427 Y7.96443
G01 X38.19923 Y7.90743
G01 X38.14754 Y7.89922
G01 X38.09527 Y7.89648
G01 X37.83395 Y7.89922
G01 X37.57777 Y7.95089
G01 X37.52722 Y7.96443
G01 X37.28737 Y8.06821
G01 X37.24074 Y8.09199
G01 X37.19685 Y8.12048
G01 X36.98704 Y8.27629
G01 X36.84572 Y8.42914
G01 X36.84572 Y8.06948
G01 X37.04991 Y7.91822
G01 X37.11574 Y7.87548
G01 X37.18570 Y7.83984
G01 X37.37668 Y7.75480
G01 X37.44973 Y7.72676
G01 X37.72872 Y7.68762
G01 X38.06316 Y7.62811
G01 X38.33073 Y7.56397
G01 X38.61267 Y7.48490
G01 X38.74538 Y7.50814
G01 X38.94899 Y7.55140
G01 X39.13573 Y7.60159
G01 X39.13573 Y8.06948
G01 X39.13573 Y7.75754
G01 X38.99075 Y7.65897
G01 X38.89748 Y7.61144
G01 X38.70649 Y7.52640
G01 X38.60390 Y7.48764
G01 X39.93481 Y7.48294
G01 X40.00576 Y7.47169
G01 X40.20827 Y7.45041
G01 X40.42945 Y7.43877
G01 X40.63199 Y7.43877
G01 X40.85318 Y7.45041
G01 X41.05757 Y7.47190
G01 X41.13740 Y7.48587
G01 X41.05757 Y7.47190
G01 X41.13021 Y7.48122
G01 X41.38937 Y7.65551
G01 X41.55823 Y7.78498
G01 X41.67573 Y8.02087
G01 X41.67573 Y8.89056
G01 X41.75343 Y9.13112
G01 X41.78073 Y9.39102
G01 X41.77936 Y10.16714
G01 X41.75343 Y10.40090
G01 X41.67573 Y10.64146
G01 X41.67573 Y10.91746
G01 X41.62074 Y10.98187
G01 X41.48124 Y11.12883
G01 X41.41038 Y11.19607
G01 X41.20926 Y11.36780
G01 X41.20682 Y11.36577
G01 X41.20926 Y11.36780
G01 X41.18962 Y11.39589
G01 X41.13606 Y11.49772
G01 X41.07865 Y11.58878
G01 X41.01734 Y11.67087
G01 X40.92894 Y11.76932
G01 X39.51523 Y13.18301
G01 X39.41444 Y13.27259
G01 X39.38851 Y13.27912
G01 X39.26776 Y13.30097
G01 X39.11340 Y13.31128
G01 X16.48764 Y13.31128
G01 X16.45269 Y13.28903
G04 P0 ( dwell for no time -- G64 should not smooth over this point )
G00 Z5.00000 ( retract )

G00 X25.31620 Y11.80008 ( rapid move to begin. )
G01 F100.00000
( Mill infeed pass 1/1 )
G01 Z-0.18000
G04 P0 ( dwell for no time -- G64 should not smooth over this point )
G01 F200.00000
G01 X25.31620 Y11.80008
G01 X25.03583 Y11.91623
G01 X24.94495 Y11.95002
G01 X24.86304 Y11.97491
G01 X24.70017 Y12.00740
G01 X24.54838 Y12.01753
G01 X16.41535 Y12.01644
G01 X16.36966 Y12.02624
G01 X16.36829 Y12.02261
G01 X16.36966 Y12.02624
G01 X16.29351 Y12.07161
G01 X16.26989 Y12.12670
G01 X16.22950 Y12.19391
G01 X16.17807 Y12.25309
G01 X16.14705 Y12.28103
G01 X16.43019 Y12.28103
G01 X16.45157 Y12.26754
G01 X24.54998 Y12.26754
G01 X24.65019 Y12.26355
G01 X24.78361 Y12.24776
G01 X24.87696 Y12.22916
G01 X24.93312 Y12.21644
G01 X25.07899 Y12.16754
G01 X26.93408 Y11.40056
G01 X30.93415 Y11.40056
G01 X31.00438 Y11.44090
G01 X31.24243 Y11.56262
G01 X31.45754 Y11.65858
G01 X31.66145 Y11.73770
G01 X31.87694 Y11.80750
G01 X32.06079 Y11.85690
G01 X32.27610 Y11.90315
G01 X32.43742 Y11.92794
G01 X32.64646 Y11.94992
G01 X32.80618 Y11.95881
G01 X33.01524 Y11.95830
G01 X33.16846 Y11.95042
G01 X33.38403 Y11.92794
G01 X33.55164 Y11.90132
G01 X33.76068 Y11.85690
G01 X33.93841 Y11.80930
G01 X34.02596 Y11.78103
G01 X34.33549 Y11.78103
G01 X34.02596 Y11.78103
G01 X34.18072 Y11.73023
G01 X34.42312 Y11.80933
G01 X34.60079 Y11.85690
G01 X34.81610 Y11.90315
G01 X34.97742 Y11.92794
G01 X35.18646 Y11.94992
G01 X35.34618 Y11.95881
G01 X35.55527 Y11.95830
G01 X35.70846 Y11.95042
G01 X35.92403 Y11.92794
G01 X36.09164 Y11.90132
G01 X36.30068 Y11.85690
G01 X36.47841 Y11.80930
G01 X36.56596 Y11.78103
G01 X36.87549 Y11.78103
G01 X36.56596 Y11.78103
G01 X36.72072 Y11.73023
G01 X36.95694 Y11.80750
G01 X37.13434 Y11.85533
G01 X37.35610 Y11.90313
G01 X37.51087 Y11.92708
G01 X37.72646 Y11.94992
G01 X37.87960 Y11.95865
G01 X38.09527 Y11.95830
G01 X38.25501 Y11.95037
G01 X38.47058 Y11.92708
G01 X38.62524 Y11.90252
G01 X38.71676 Y11.88324
G01 X38.71853 Y11.88819
G01 X38.71676 Y11.88324
G01 X38.76156 Y11.86399
G01 X38.87104 Y11.78923
G01 X38.99915 Y11.69005
G01 X39.15879 Y11.55408
G01 X39.27083 Y11.44760
G01 X39.35140 Y11.36297
G01 X39.35394 Y11.36483
G01 X39.35140 Y11.36297
G01 X39.37683 Y11.32325
G01 X39.38348 Y11.30051
G01 X39.39039 Y11.30219
G01 X39.38348 Y11.30051
G01 X39.38574 Y10.64143
G01 X39.38574 Y11.10288
G01 X39.49003 Y11.21873
G01 X39.55519 Y11.27852
G01 X39.65559 Y11.27941
G01 X39.55519 Y11.27852
G01 X38.80266 Y12.03102
G01 X38.81053 Y12.05007
G01 X38.80266 Y12.03102
G01 X25.41198 Y12.03102
G01 X26.61909 Y11.53102
G01 X31.18063 Y11.53102
G01 X31.24850 Y11.56551
G01 X31.46346 Y11.66104
G01 X31.66158 Y11.73734
G01 X31.79548 Y11.78103
G01 X26.01554 Y11.78103
G04 P0 ( dwell for no time -- G64 should not smooth over this point )
G00 Z5.00000 ( retract )

G00 X26.31922 Y16.02004 ( rapid move to begin. )
G01 F100.00000
( Mill infeed pass 1/1 )
G01 Z-0.18000
G04 P0 ( dwell for no time -- G64 should not smooth over this point )
G01 F200.00000
G01 X26.31922 Y16.02004
G01 X26.31922 Y18.32001
G01 X26.32516 Y18.37294
G01 X26.35366 Y18.43161
G01 X26.39839 Y18.47634
G01 X26.45704 Y18.50482
G01 X26.48762 Y18.51013
G01 X27.53232 Y18.51013
G01 X27.56291 Y18.50482
G01 X27.62158 Y18.47634
G01 X27.66628 Y18.43164
G01 X27.69478 Y18.37294
G01 X27.70073 Y18.32001
G01 X27.70073 Y16.02004
G01 X27.69478 Y15.96710
G01 X27.66628 Y15.90843
G01 X27.62158 Y15.86370
G01 X27.56291 Y15.83523
G01 X27.53230 Y15.82992
G01 X26.48765 Y15.82992
G01 X26.45704 Y15.83523
G01 X26.39837 Y15.86372
G01 X26.35366 Y15.90843
G01 X26.32516 Y15.96710
G01 X26.31922 Y16.02004
G04 P0 ( dwell for no time -- G64 should not smooth over this point )
G00 Z5.00000 ( retract )

G00 X47.39586 Y4.15001 ( rapid move to begin. )
G01 F100.00000
( Mill infeed pass 1/1 )
G01 Z-0.18000
G04 P0 ( dwell for no time -- G64 should not smooth over this point )
G01 F200.00000
G01 X47.39586 Y4.15001
G01 X47.41034 Y4.00292
G01 X47.45326 Y3.86144
G01 X47.52294 Y3.73106
G01 X47.61674 Y3.61676
G01 X47.73099 Y3.52298
G01 X47.86137 Y3.45336
G01 X48.00284 Y3.41044
G01 X48.14999 Y3.39591
G01 X48.29710 Y3.41044
G01 X48.43858 Y3.45336
G01 X48.56896 Y3.52298
G01 X48.68323 Y3.61678
G01 X48.77701 Y3.73106
G01 X48.84673 Y3.86144
G01 X48.88961 Y4.00292
G01 X48.90409 Y4.15001
G01 X48.88961 Y4.29715
G01 X48.84671 Y4.43863
G01 X48.77701 Y4.56901
G01 X48.68323 Y4.68328
G01 X48.56896 Y4.77706
G01 X48.43858 Y4.84675
G01 X48.29710 Y4.88965
G01 X48.14999 Y4.90416
G01 X48.00284 Y4.88965
G01 X47.86137 Y4.84675
G01 X47.73099 Y4.77706
G01 X47.61671 Y4.68328
G01 X47.52294 Y4.56901
G01 X47.45326 Y4.43863
G01 X47.41034 Y4.29715
G01 X47.39586 Y4.15001
G01 X47.39997 Y4.15001
G01 X47.41638 Y4.30594
G01 X47.45545 Y4.43063
G01 X47.47671 Y4.47838
G01 X47.52898 Y4.56893
G01 X47.55969 Y4.61122
G01 X47.64793 Y4.70716
G01 X47.75304 Y4.78529
G01 X47.79830 Y4.81142
G01 X47.91311 Y4.86138
G01 X48.06431 Y4.89479
G01 X48.23571 Y4.89473
G01 X48.35646 Y4.87010
G01 X48.40617 Y4.85397
G01 X48.52776 Y4.79773
G01 X48.63149 Y4.72387
G01 X48.67033 Y4.68887
G01 X48.74028 Y4.61122
G01 X48.77099 Y4.56893
G01 X48.83515 Y4.45506
G01 X48.88359 Y4.30594
G01 X48.90000 Y4.15001
G01 X48.88770 Y4.01993
G01 X48.87683 Y3.96880
G01 X48.83515 Y3.84495
G01 X48.77099 Y3.73111
G01 X48.74028 Y3.68884
G01 X48.67033 Y3.61115
G01 X48.63149 Y3.57620
G01 X48.52799 Y3.50243
G01 X48.40617 Y3.44610
G01 X48.35646 Y3.42994
G01 X48.23622 Y3.40536
G01 X48.09771 Y3.40276
G01 X48.04574 Y3.40823
G01 X47.94351 Y3.42994
G01 X47.89380 Y3.44610
G01 X47.77211 Y3.50236
G01 X47.66848 Y3.57620
G01 X47.62964 Y3.61115
G01 X47.54323 Y3.70916
G01 X47.46482 Y3.84495
G01 X47.42314 Y3.96880
G01 X47.41229 Y4.01993
G01 X47.39997 Y4.15001
G04 P0 ( dwell for no time -- G64 should not smooth over this point )
G00 Z5.00000 ( retract )

G00 X50.21137 Y11.04270 ( rapid move to begin. )
G01 F100.00000
( Mill infeed pass 1/1 )
G01 Z-0.18000
G04 P0 ( dwell for no time -- G64 should not smooth over this point )
G01 F200.00000
G01 X50.21137 Y11.04270
G01 X50.14681 Y11.17275
G01 X50.04229 Y11.35380
G01 X49.97101 Y11.46353
G01 X49.88869 Y11.56521
G01 X49.74879 Y11.72058
G01 X49.65628 Y11.81309
G01 X49.62372 Y11.83945
G01 X49.62123 Y11.83755
G01 X49.62372 Y11.83945
G01 X49.60513 Y11.88431
G01 X49.50685 Y12.05540
G01 X49.38641 Y12.21166
G01 X49.30404 Y12.30257
G01 X48.10328 Y13.50333
G01 X48.01237 Y13.58570
G01 X47.85611 Y13.70615
G01 X47.68501 Y13.80442
G01 X47.57414 Y13.85687
G01 X47.38717 Y13.91989
G01 X47.14684 Y13.96769
G01 X46.94999 Y13.98103
G01 X44.22556 Y13.98103
G01 X44.21769 Y13.96200
G01 X44.22556 Y13.98103
G01 X37.68097 Y20.52559
G01 X37.66207 Y20.51774
G01 X37.68097 Y20.52559
G01 X37.68097 Y22.84001
G01 X37.66763 Y23.03689
G01 X37.64963 Y23.15822
G01 X37.59814 Y23.34867
G01 X37.50436 Y23.57506
G01 X37.46916 Y23.64095
G01 X37.40609 Y23.74616
G01 X37.28564 Y23.90242
G01 X37.20327 Y23.99333
G01 X36.15788 Y25.03866
G01 X36.32372 Y24.99934
G01 X36.60188 Y24.94824
G01 X37.38003 Y24.17008
G01 X37.52628 Y24.00328
G01 X37.61396 Y23.88504
G01 X37.68966 Y23.75878
G01 X37.72486 Y23.69292
G01 X37.83738 Y23.42127
G01 X37.85907 Y23.34979
G01 X37.91643 Y23.06137
G01 X37.93098 Y22.84001
G01 X37.93098 Y20.62915
G01 X37.91193 Y20.62127
G01 X37.93098 Y20.62915
G01 X44.32912 Y14.23104
G01 X44.32124 Y14.21199
G01 X44.32912 Y14.23104
G01 X45.14997 Y14.23104
G01 X45.14999 Y14.15001
G01 X45.14997 Y14.48103
G01 X44.43267 Y14.48103
G01 X44.42480 Y14.46200
G01 X44.43267 Y14.48103
G01 X38.18097 Y20.73270
G01 X38.16194 Y20.72483
G01 X38.18097 Y20.73270
G01 X38.18097 Y22.84001
G01 X38.17254 Y23.01156
G01 X38.16522 Y23.08588
G01 X38.09829 Y23.42236
G01 X38.07663 Y23.49383
G01 X37.94533 Y23.81078
G01 X37.91013 Y23.87664
G01 X37.82184 Y24.02396
G01 X37.71953 Y24.16188
G01 X37.67216 Y24.21961
G01 X37.55681 Y24.34687
G01 X37.44767 Y24.45601
G01 X37.24127 Y24.56800
G01 X36.91828 Y24.76541
G01 X36.67168 Y24.93648
G01 X36.32372 Y24.99934
G01 X35.99446 Y25.07763
G01 X35.66523 Y25.17778
G01 X37.02649 Y23.81654
G01 X37.09240 Y23.74382
G01 X37.19824 Y23.60727
G01 X37.24869 Y23.52309
G01 X37.28389 Y23.45723
G01 X37.35892 Y23.27611
G01 X37.40444 Y23.10946
G01 X37.41884 Y23.01238
G01 X37.43098 Y22.84001
G01 X37.43098 Y20.42203
G01 X37.41193 Y20.41416
G01 X37.43098 Y20.42203
G01 X44.12200 Y13.73104
G01 X44.11413 Y13.71199
G01 X44.12200 Y13.73104
G01 X46.94999 Y13.73104
G01 X47.12233 Y13.71890
G01 X47.31458 Y13.68065
G01 X47.47846 Y13.62591
G01 X47.63305 Y13.54874
G01 X47.71722 Y13.49830
G01 X47.79604 Y13.43983
G01 X47.92649 Y13.32654
G01 X49.12725 Y12.12578
G01 X49.19316 Y12.05306
G01 X49.29901 Y11.91651
G01 X49.38465 Y11.76648
G01 X49.41874 Y11.68421
G01 X49.41552 Y11.68174
G01 X49.41874 Y11.68421
G01 X49.48900 Y11.62731
G01 X49.56301 Y11.55329
G01 X49.70289 Y11.39792
G01 X49.76878 Y11.31659
G01 X49.82578 Y11.22881
G01 X49.93030 Y11.04776
G01 X49.97782 Y10.95449
G01 X50.03474 Y10.79698
G01 X49.99146 Y10.73740
G01 X49.84798 Y10.55899
G01 X49.77757 Y10.77951
G01 X49.74945 Y10.85281
G01 X49.71381 Y10.92274
G01 X49.60927 Y11.10379
G01 X49.56652 Y11.16963
G01 X49.51712 Y11.23064
G01 X49.37724 Y11.38601
G01 X49.32171 Y11.44151
G01 X49.26070 Y11.49091
G01 X49.21605 Y11.52335
G01 X49.21120 Y11.51969
G01 X49.21605 Y11.52335
G01 X49.16418 Y11.64862
G01 X49.12898 Y11.71448
G01 X49.09113 Y11.77763
G01 X48.99990 Y11.89447
G01 X48.95047 Y11.94900
G01 X47.74971 Y13.14976
G01 X47.63744 Y13.24659
G01 X47.57833 Y13.29043
G01 X47.44933 Y13.36348
G01 X47.38278 Y13.39495
G01 X47.24201 Y13.44140
G01 X47.09782 Y13.47011
G01 X46.94999 Y13.48103
G01 X44.01845 Y13.48103
G01 X44.01057 Y13.46200
G01 X44.01845 Y13.48103
G01 X37.18097 Y20.31850
G01 X37.16195 Y20.31060
G01 X37.18097 Y20.31850
G01 X37.18097 Y22.84001
G01 X37.17005 Y22.98787
G01 X37.14135 Y23.13206
G01 X37.11968 Y23.20354
G01 X37.06342 Y23.33938
G01 X36.99037 Y23.46838
G01 X36.94653 Y23.52749
G01 X36.84970 Y23.63976
G01 X35.41971 Y25.06975
G01 X35.30744 Y25.16658
G01 X35.24834 Y25.21042
G01 X35.11933 Y25.28347
G01 X35.05278 Y25.31494
G01 X34.98349 Y25.33973
G01 X34.91201 Y25.36139
G01 X34.76782 Y25.39010
G01 X34.61999 Y25.40102
G01 X30.76999 Y25.40102
G01 X30.69645 Y25.39741
G01 X30.59368 Y25.38443
G01 X30.69696 Y25.50976
G01 X30.82828 Y25.65103
G01 X31.51446 Y25.65103
G01 X30.82828 Y25.65103
G01 X30.69696 Y25.50976
G01 X30.55904 Y25.34237
G01 X30.50727 Y25.27260
G01 X30.41764 Y25.13894
G01 X30.31736 Y24.96010
G01 X30.28401 Y24.88954
G01 X30.13095 Y24.52337
G01 X30.28401 Y24.88954
G01 X30.36613 Y25.05103
G01 X30.43283 Y25.08395
G01 X30.55050 Y25.12218
G01 X30.64664 Y25.14130
G01 X30.72096 Y25.14862
G01 X34.61999 Y25.15103
G01 X34.74331 Y25.14130
G01 X34.83945 Y25.12218
G01 X34.91092 Y25.10049
G01 X34.95712 Y25.08395
G01 X35.06736 Y25.02777
G01 X35.14884 Y24.97331
G01 X35.24295 Y24.89299
G01 X36.67295 Y23.46300
G01 X36.78250 Y23.32947
G01 X36.84292 Y23.22152
G01 X36.88044 Y23.13097
G01 X36.90213 Y23.05949
G01 X36.92126 Y22.96336
G01 X36.93098 Y22.84001
G01 X36.93098 Y20.21495
G01 X36.91193 Y20.20705
G01 X36.93098 Y20.21495
G01 X43.91489 Y13.23104
G01 X43.90702 Y13.21199
G01 X43.91489 Y13.23104
G01 X46.94999 Y13.23104
G01 X47.07331 Y13.22131
G01 X47.16944 Y13.20219
G01 X47.24092 Y13.18049
G01 X47.28712 Y13.16396
G01 X47.39736 Y13.10777
G01 X47.47884 Y13.05332
G01 X47.57295 Y12.97300
G01 X48.77371 Y11.77224
G01 X48.85402 Y11.67814
G01 X48.90848 Y11.59665
G01 X48.94369 Y11.53076
G01 X48.98120 Y11.44021
G01 X49.00269 Y11.36937
G01 X48.99619 Y11.36445
G01 X49.00269 Y11.36937
G01 X49.15443 Y11.25573
G01 X49.33131 Y11.06335
G01 X49.36426 Y11.02269
G01 X49.39276 Y10.97880
G01 X49.49730 Y10.79775
G01 X49.52105 Y10.75111
G01 X49.53982 Y10.70227
G01 X49.61795 Y10.45289
G01 X49.63495 Y10.31733
G01 X49.52684 Y10.19358
G01 X49.40073 Y10.02345
G01 X49.53312 Y10.20118
G01 X49.80990 Y10.51164
G01 X49.99146 Y10.73740
G01 X50.19662 Y11.01977
G01 X50.51239 Y11.51050
G01 X50.72849 Y11.87702
G01 X51.14995 Y12.55924
G01 X51.14998 Y14.15001
G01 X50.99209 Y14.15004
G01 X51.07180 Y14.07033
G01 X51.14995 Y13.98407
G01 X51.07180 Y14.07033
G01 X50.99209 Y14.15004
G01 X50.63855 Y14.15001
G01 X50.89501 Y13.89355
G01 X51.14995 Y13.60945
G01 X50.89501 Y13.89355
G01 X50.63855 Y14.15001
G01 X49.93144 Y14.15001
G01 X50.28498 Y14.15001
G01 X50.71823 Y13.71676
G01 X50.93243 Y13.48044
G01 X50.97980 Y13.42271
G01 X51.14995 Y13.19330
G01 X51.14995 Y12.77976
G01 X51.03441 Y12.90567
G01 X50.96194 Y13.02766
G01 X50.78656 Y13.26411
G01 X50.73919 Y13.32185
G01 X50.54147 Y13.54001
G01 X49.93144 Y14.15001
G01 X49.22433 Y14.15001
G01 X49.57787 Y14.15001
G01 X50.36469 Y13.36322
G01 X50.54592 Y13.16325
G01 X50.59331 Y13.10551
G01 X50.75407 Y12.88875
G01 X50.83560 Y12.75078
G01 X51.00340 Y12.56891
G01 X51.08991 Y12.46206
G01 X50.95089 Y12.23704
G01 X50.81762 Y12.40163
G01 X50.67772 Y12.55698
G01 X50.63721 Y12.59617
G01 X50.54620 Y12.74986
G01 X50.40005 Y12.94692
G01 X50.35267 Y13.00465
G01 X50.18790 Y13.18644
G01 X49.22433 Y14.15001
G01 X48.50521 Y14.15001
G01 X48.87076 Y14.15001
G01 X50.01115 Y13.00968
G01 X50.15941 Y12.84605
G01 X50.20680 Y12.78832
G01 X50.33832 Y12.61098
G01 X50.43848 Y12.44128
G01 X50.49194 Y12.38969
G01 X50.63182 Y12.23434
G01 X50.78005 Y12.05131
G01 X50.80878 Y12.00701
G01 X50.66474 Y11.77044
G01 X50.57779 Y11.90437
G01 X50.44604 Y12.06706
G01 X50.30617 Y12.22241
G01 X50.23771 Y12.28885
G01 X50.13047 Y12.47209
G01 X50.01356 Y12.62972
G01 X49.96616 Y12.68745
G01 X49.83436 Y12.83290
G01 X48.63360 Y14.03365
G01 X48.50521 Y14.15001
G01 X47.48971 Y14.15001
G01 X48.07663 Y14.15001
G01 X48.27183 Y14.01958
G01 X48.32956 Y13.97221
G01 X48.45682 Y13.85687
G01 X49.65758 Y12.65611
G01 X49.77292 Y12.52886
G01 X49.82029 Y12.47112
G01 X49.92260 Y12.33320
G01 X50.01089 Y12.18588
G01 X50.03431 Y12.13948
G01 X50.12037 Y12.05515
G01 X50.26027 Y11.89978
G01 X50.37553 Y11.75743
G01 X50.47531 Y11.60379
G01 X50.52077 Y11.52502
G01 X50.36870 Y11.28720
G01 X50.25880 Y11.47880
G01 X50.17327 Y11.61047
G01 X50.07447 Y11.73249
G01 X49.93459 Y11.88786
G01 X49.82822 Y11.99221
G01 X49.79042 Y12.06803
G01 X49.71473 Y12.19429
G01 X49.62705 Y12.31253
G01 X49.48079 Y12.47933
G01 X48.28003 Y13.68009
G01 X48.11323 Y13.82634
G01 X47.99500 Y13.91402
G01 X47.80287 Y14.02492
G01 X47.66980 Y14.08786
G01 X47.48971 Y14.15001
G01 X45.14999 Y14.15001
G01 X45.07676 Y14.07681
G01 X45.14999 Y14.15001
G01 X45.14999 Y18.71345
G01 X42.94789 Y20.91556
G01 X42.38157 Y21.16633
G01 X41.87621 Y21.42348
G01 X41.75262 Y21.49051
G01 X41.62925 Y21.52706
G01 X41.75262 Y21.49051
G01 X41.87621 Y21.42348
G01 X42.30397 Y21.20590
G01 X45.14997 Y18.35991
G01 X45.14997 Y18.00637
G01 X41.62925 Y21.52706
G01 X40.91696 Y21.76381
G01 X40.88399 Y21.78058
G01 X40.88107 Y21.77583
G01 X40.88399 Y21.78058
G01 X40.54848 Y22.10224
G01 X40.33781 Y22.31291
G01 X39.93098 Y22.74326
G01 X40.18096 Y22.47875
G01 X40.18096 Y21.56115
G01 X40.16194 Y21.55325
G01 X40.18096 Y21.56115
G01 X45.14997 Y16.59215
G01 X45.14997 Y16.94569
G01 X40.43098 Y21.66468
G01 X40.41195 Y21.65680
G01 X40.43098 Y21.66468
G01 X40.43098 Y22.21972
G01 X40.68096 Y21.97446
G01 X40.68096 Y21.76823
G01 X40.66194 Y21.76036
G01 X40.68096 Y21.76823
G01 X45.14997 Y17.29926
G01 X45.14997 Y17.65280
G01 X41.10004 Y21.70273
G01 X45.14997 Y17.65280
G01 X45.14997 Y16.23858
G01 X39.93098 Y21.45759
G01 X39.91195 Y21.44969
G01 X39.93098 Y21.45759
G01 X39.93098 Y22.74326
G01 X39.56771 Y23.15025
G01 X39.38020 Y23.35416
G01 X39.67144 Y23.03407
G01 X39.68097 Y22.84001
G01 X39.68097 Y21.35404
G01 X39.66225 Y21.34621
G01 X39.68097 Y21.35404
G01 X45.05398 Y15.98102
G01 X45.04611 Y15.96200
G01 X45.05398 Y15.98102
G01 X45.14997 Y15.98102
G01 X45.14997 Y15.73104
G01 X44.95042 Y15.73104
G01 X44.94255 Y15.71201
G01 X44.95042 Y15.73104
G01 X39.43098 Y21.25048
G01 X39.41195 Y21.24258
G01 X39.43098 Y21.25048
G01 X39.43098 Y22.84001
G01 X39.41653 Y23.13407
G01 X39.40921 Y23.20841
G01 X39.38020 Y23.35416
G01 X39.18343 Y23.56615
G01 X38.75943 Y23.79579
G01 X39.07264 Y23.62510
G01 X39.16042 Y23.18390
G01 X39.16773 Y23.10958
G01 X39.18097 Y22.84001
G01 X39.18097 Y21.14692
G01 X39.16194 Y21.13903
G01 X39.18097 Y21.14692
G01 X44.84687 Y15.48102
G01 X44.83899 Y15.46200
G01 X44.84687 Y15.48102
G01 X45.14997 Y15.48102
G01 X45.14997 Y15.23104
G01 X44.74334 Y15.23104
G01 X44.73544 Y15.21199
G01 X44.74334 Y15.23104
G01 X38.93098 Y21.04337
G01 X38.91193 Y21.03550
G01 X38.93098 Y21.04337
G01 X38.93098 Y22.84001
G01 X38.91894 Y23.08507
G01 X38.91163 Y23.15939
G01 X38.81599 Y23.64006
G01 X38.79433 Y23.71154
G01 X38.75943 Y23.79579
G01 X38.02077 Y24.17488
G01 X38.41742 Y23.97133
G01 X38.55509 Y23.63897
G01 X38.57678 Y23.56749
G01 X38.66281 Y23.13488
G01 X38.67015 Y23.06056
G01 X38.68097 Y22.84001
G01 X38.68097 Y20.93981
G01 X38.66222 Y20.93199
G01 X38.68097 Y20.93981
G01 X44.63978 Y14.98102
G01 X44.63188 Y14.96200
G01 X44.63978 Y14.98102
G01 X45.14997 Y14.98102
G01 X45.14997 Y14.73104
G01 X44.53623 Y14.73104
G01 X44.52833 Y14.71199
G01 X44.53623 Y14.73104
G01 X38.43098 Y20.83626
G01 X38.41193 Y20.82838
G01 X38.43098 Y20.83626
G01 X38.43098 Y22.84001
G01 X38.42135 Y23.03605
G01 X38.41401 Y23.11040
G01 X38.38521 Y23.30453
G01 X38.33753 Y23.49493
G01 X38.31584 Y23.56640
G01 X38.16580 Y23.92863
G01 X38.13060 Y23.99449
G01 X38.02077 Y24.17488
G01 X37.62854 Y24.36394
G01 X37.43845 Y24.46076
G01 X37.24686 Y24.56477
G01 X36.91828 Y24.76541
G01 X36.67168 Y24.93648
G01 X36.32372 Y24.99934
G01 X35.98793 Y25.07938
G01 X35.75982 Y25.14687
G01 X35.43906 Y25.25741
G01 X35.11397 Y25.35880
G01 X34.91844 Y25.41291
G01 X34.51994 Y25.50963
G01 X34.30940 Y25.56622
G01 X34.18072 Y25.60785
G01 X34.05215 Y25.56625
G01 X33.83516 Y25.50780
G01 X33.61964 Y25.46246
G01 X33.42081 Y25.43107
G01 X33.20524 Y25.40856
G01 X33.02182 Y25.39894
G01 X32.80620 Y25.39876
G01 X32.60968 Y25.40910
G01 X32.40061 Y25.43086
G01 X32.19541 Y25.46345
G01 X31.97994 Y25.50963
G01 X31.76935 Y25.56599
G01 X31.54786 Y25.63820
G01 X31.30755 Y25.73053
G01 X31.03125 Y25.85550
G01 X30.85942 Y25.68367
G01 X30.69696 Y25.50976
G01 X30.55904 Y25.34237
G01 X30.50727 Y25.27260
G01 X30.41764 Y25.13894
G01 X30.31736 Y24.96010
G01 X30.26315 Y24.84252
G01 X30.13095 Y24.52337
G01 X29.89813 Y24.29056
G01 X29.89998 Y26.94102
G01 X29.89366 Y27.01118
G01 X29.88546 Y27.05242
G01 X29.87047 Y27.09169
G01 X29.81517 Y27.20000
G01 X29.79191 Y27.22921
G01 X29.75520 Y27.26205
G01 X30.02340 Y27.26203
G01 X30.05317 Y27.24275
G01 X30.20115 Y27.12964
G01 X30.30694 Y27.03180
G01 X31.03326 Y26.30554
G01 X31.04728 Y26.28885
G01 X31.06562 Y26.24951
G01 X31.10938 Y26.09523
G01 X31.40046 Y25.96287
G01 X31.63458 Y25.87272
G01 X31.83740 Y25.80681
G01 X32.04161 Y25.75194
G01 X32.24425 Y25.70887
G01 X32.43005 Y25.67935
G01 X32.63254 Y25.65807
G01 X32.80948 Y25.64877
G01 X33.01197 Y25.64877
G01 X33.11687 Y25.65428
G01 X33.18885 Y25.65807
G01 X33.39139 Y25.67935
G01 X33.57722 Y25.70887
G01 X33.77986 Y25.75192
G01 X33.98413 Y25.80683
G01 X34.05573 Y25.83010
G01 X34.05573 Y26.89055
G01 X34.13343 Y27.13111
G01 X34.15936 Y27.36487
G01 X34.16073 Y28.14102
G01 X34.13343 Y28.40091
G01 X34.07928 Y28.57195
G01 X34.04930 Y28.62087
G01 X33.89302 Y28.82882
G01 X33.72202 Y29.01219
G01 X33.53348 Y29.17597
G01 X33.37890 Y29.28503
G01 X33.26536 Y29.30667
G01 X33.05629 Y29.32865
G01 X32.80620 Y29.33078
G01 X32.55611 Y29.30667
G01 X32.40013 Y29.27602
G01 X32.30905 Y29.23543
G01 X32.26378 Y29.20929
G01 X32.07433 Y29.06995
G01 X32.00163 Y28.99126
G01 X31.99884 Y29.03446
G01 X31.99053 Y29.07089
G01 X31.94027 Y29.18166
G01 X31.92160 Y29.21402
G01 X31.89828 Y29.24323
G01 X31.86165 Y29.27602
G01 X32.40013 Y29.27602
G01 X32.55611 Y29.30667
G01 X32.80620 Y29.33078
G01 X33.05629 Y29.32865
G01 X33.26536 Y29.30667
G01 X33.37890 Y29.28503
G01 X33.53348 Y29.17597
G01 X33.72202 Y29.01219
G01 X33.89302 Y28.82882
G01 X34.04930 Y28.62087
G01 X34.07928 Y28.57195
G01 X34.13343 Y28.40091
G01 X34.15936 Y28.16715
G01 X34.16073 Y27.39101
G01 X34.13752 Y27.15697
G01 X34.12665 Y27.10584
G01 X34.06205 Y26.90701
G01 X34.04079 Y26.85928
G01 X33.92200 Y26.65629
G01 X33.76566 Y26.48059
G01 X33.72682 Y26.44562
G01 X33.53574 Y26.30848
G01 X33.29701 Y26.20219
G01 X33.04141 Y26.14785
G01 X32.80620 Y26.14648
G01 X32.75423 Y26.15194
G01 X32.52447 Y26.20219
G01 X32.30905 Y26.29660
G01 X32.26378 Y26.32273
G01 X32.09467 Y26.44562
G01 X32.05581 Y26.48059
G01 X31.89947 Y26.65629
G01 X31.76882 Y26.88260
G01 X31.68804 Y27.13111
G01 X31.67290 Y27.26203
G01 X30.02340 Y27.26203
G01 X30.19356 Y27.13591
G01 X30.24621 Y27.08928
G01 X31.03498 Y26.30686
G01 X31.06739 Y26.25027
G01 X31.10938 Y26.09523
G01 X31.40046 Y25.96287
G01 X31.59152 Y25.88928
G01 X31.49846 Y25.97874
G01 X31.35858 Y26.13409
G01 X31.29269 Y26.21544
G01 X31.23569 Y26.30323
G01 X31.11703 Y26.51204
G01 X31.13572 Y26.54483
G01 X31.11703 Y26.51204
G01 X30.82678 Y26.51204
G01 X30.57677 Y26.76203
G01 X31.28080 Y26.76203
G01 X31.30745 Y26.80279
G01 X31.28080 Y26.76203
G01 X31.31202 Y26.67922
G01 X31.34768 Y26.60927
G01 X31.45220 Y26.42822
G01 X31.49495 Y26.36238
G01 X31.54436 Y26.30137
G01 X31.68426 Y26.14603
G01 X31.73976 Y26.09050
G01 X31.80077 Y26.04110
G01 X31.96991 Y25.91821
G01 X32.03574 Y25.87547
G01 X32.10570 Y25.83983
G01 X32.29668 Y25.75479
G01 X32.36996 Y25.72667
G01 X32.44578 Y25.70635
G01 X32.65027 Y25.66289
G01 X32.70460 Y25.65428
G01 X32.80948 Y25.64877
G01 X33.01197 Y25.64877
G01 X33.11687 Y25.65428
G01 X33.37570 Y25.70635
G01 X33.45151 Y25.72667
G01 X33.52482 Y25.75479
G01 X33.71580 Y25.83983
G01 X33.78573 Y25.87547
G01 X33.85156 Y25.91821
G01 X34.05573 Y26.06947
G01 X34.05573 Y26.42913
G01 X33.91443 Y26.27630
G01 X33.70463 Y26.12047
G01 X33.66073 Y26.09197
G01 X33.61410 Y26.06823
G01 X33.37427 Y25.96442
G01 X33.11923 Y25.90742
G01 X33.06754 Y25.89924
G01 X33.01527 Y25.89650
G01 X32.75395 Y25.89924
G01 X32.70227 Y25.90742
G01 X32.44722 Y25.96442
G01 X32.20737 Y26.06823
G01 X32.16074 Y26.09197
G01 X32.11685 Y26.12047
G01 X31.90704 Y26.27630
G01 X31.73016 Y26.46866
G01 X31.69721 Y26.50935
G01 X31.66871 Y26.55324
G01 X31.54042 Y26.78090
G01 X31.46244 Y27.01204
G01 X31.49615 Y27.05895
G01 X31.46244 Y27.01204
G01 X30.32678 Y27.01204
G01 X30.19379 Y27.13622
G01 X30.02340 Y27.26203
G01 X29.75520 Y27.26205
G01 X29.79191 Y27.22921
G01 X29.81517 Y27.20000
G01 X29.87047 Y27.09169
G01 X29.88546 Y27.05242
G01 X29.89366 Y27.01118
G01 X29.89998 Y26.94102
G01 X29.89813 Y24.29056
G01 X30.32378 Y24.71621
G01 X30.39970 Y24.78006
G01 X30.44045 Y24.80729
G01 X30.50633 Y24.84250
G01 X30.55160 Y24.86124
G01 X30.62307 Y24.88293
G01 X30.67113 Y24.89249
G01 X30.76999 Y24.90102
G01 X34.61999 Y24.90102
G01 X34.71882 Y24.89249
G01 X34.76688 Y24.88293
G01 X34.83835 Y24.86124
G01 X34.88362 Y24.84250
G01 X34.94950 Y24.80729
G01 X34.99025 Y24.78006
G01 X35.06617 Y24.71621
G01 X36.49616 Y23.28621
G01 X36.57462 Y23.19058
G01 X36.63294 Y23.08149
G01 X36.66289 Y22.98693
G01 X36.67244 Y22.93887
G01 X36.68097 Y22.84001
G01 X36.68097 Y20.11139
G01 X43.81136 Y12.98103
G01 X46.94999 Y12.98103
G01 X47.04882 Y12.97249
G01 X47.09688 Y12.96294
G01 X47.16835 Y12.94125
G01 X47.21362 Y12.92251
G01 X47.27950 Y12.88730
G01 X47.32024 Y12.86007
G01 X47.39617 Y12.79622
G01 X48.59692 Y11.59546
G01 X48.67539 Y11.49983
G01 X48.72321 Y11.41291
G01 X48.74196 Y11.36765
G01 X48.76365 Y11.29617
G01 X48.77561 Y11.22360
G01 X48.98714 Y11.06993
G01 X49.16200 Y10.87575
G01 X49.29268 Y10.64944
G01 X49.37343 Y10.40090
G01 X49.40073 Y10.14100
G01 X49.40073 Y9.75530
G01 X49.43352 Y9.79193
G01 X49.46273 Y9.81525
G01 X49.57109 Y9.87052
G01 X49.60901 Y9.88500
G01 X49.72291 Y10.03839
G01 X49.99804 Y10.34695
G01 X50.19189 Y10.58794
G01 X50.40495 Y10.88151
G01 X50.72425 Y11.37775
G01 X50.94206 Y11.74705
G01 X51.14995 Y12.08360
G01 X51.14995 Y11.60006
G01 X51.14995 Y11.85324
G01 X51.02120 Y11.87514
G01 X50.87828 Y11.64037
G01 X50.92997 Y11.63744
G01 X51.14995 Y11.60006
G01 X51.14995 Y11.08502
G01 X51.14995 Y11.34369
G01 X50.90195 Y11.38903
G01 X50.73632 Y11.39835
G01 X50.57772 Y11.15002
G01 X50.70599 Y11.15004
G01 X50.87396 Y11.14059
G01 X51.03982 Y11.11240
G01 X51.14995 Y11.08502
G01 X51.14995 Y10.56323
G01 X51.14995 Y10.82414
G01 X51.06641 Y10.84992
G01 X50.98419 Y10.86869
G01 X50.84597 Y10.89218
G01 X50.70599 Y10.90003
G01 X50.41686 Y10.90003
G01 X50.23700 Y10.65002
G01 X50.70599 Y10.65004
G01 X50.81798 Y10.64375
G01 X50.92854 Y10.62495
G01 X51.01076 Y10.60618
G01 X51.14995 Y10.56323
G01 X51.14995 Y9.98228
G01 X51.14995 Y10.28715
G01 X51.06222 Y10.32942
G01 X50.95511 Y10.36244
G01 X50.78996 Y10.39531
G01 X50.70599 Y10.40003
G01 X50.04097 Y10.40003
G01 X49.99804 Y10.34695
G01 X49.81473 Y10.14337
G01 X49.82075 Y10.15002
G01 X50.70599 Y10.15005
G01 X50.76197 Y10.14690
G01 X50.89949 Y10.11873
G01 X50.97088 Y10.09671
G01 X51.03819 Y10.06427
G01 X51.09992 Y10.02221
G01 X51.14995 Y9.98228
G01 X51.14998 Y1.15001
G01 X1.14998 Y1.15001
G01 X1.14998 Y45.15000
G01 X51.14998 Y45.15000
G01 X51.14995 Y26.97493
G01 X51.09420 Y26.95362
G01 X50.88806 Y26.91262
G01 X50.70599 Y26.90002
G01 X50.50005 Y26.90002
G01 X50.29570 Y27.15380
G01 X50.08450 Y27.38831
G01 X49.82750 Y27.65001
G01 X50.07340 Y27.40002
G01 X50.70599 Y27.40002
G01 X50.78994 Y27.40475
G01 X50.83210 Y27.40950
G01 X50.95577 Y27.43409
G01 X51.07358 Y27.47907
G01 X51.14995 Y27.51587
G01 X51.14995 Y27.24158
G01 X51.02499 Y27.19385
G01 X50.86009 Y27.16106
G01 X50.81793 Y27.15631
G01 X50.70599 Y27.15001
G01 X50.29890 Y27.15001
G01 X50.56075 Y26.82428
G01 X50.80751 Y26.48407
G01 X51.14995 Y25.99924
G01 X51.14995 Y26.45672
G01 X51.14995 Y26.20274
G01 X51.02494 Y26.17788
G01 X50.80789 Y26.48352
G01 X50.86100 Y26.40874
G01 X50.94404 Y26.41577
G01 X51.14995 Y26.45672
G01 X51.14995 Y26.97493
G01 X51.14995 Y26.71072
G01 X50.91605 Y26.66421
G01 X50.68734 Y26.65004
G01 X50.56075 Y26.82428
G01 X50.68734 Y26.65004
G01 X50.91605 Y26.66421
G01 X51.14995 Y26.71072
G01 X51.14995 Y27.81349
G01 X51.10581 Y27.77826
G01 X51.04109 Y27.74089
G01 X50.96509 Y27.70429
G01 X50.88656 Y27.67432
G01 X50.80411 Y27.65791
G01 X50.70599 Y27.65001
G01 X49.82750 Y27.65001
G01 X49.70553 Y27.78301
G01 X49.64478 Y27.85921
G01 X49.60746 Y27.91755
G01 X49.53888 Y27.93607
G01 X49.50523 Y27.95230
G01 X49.47437 Y27.97333
G01 X49.40073 Y28.03553
G01 X49.39936 Y27.36487
G01 X49.37343 Y27.13111
G01 X49.29268 Y26.88260
G01 X49.16200 Y26.65629
G01 X48.98714 Y26.46208
G01 X48.77574 Y26.30848
G01 X48.56144 Y26.21156
G01 X48.51173 Y26.19543
G01 X48.28141 Y26.14785
G01 X48.02007 Y26.14785
G01 X47.76447 Y26.20219
G01 X47.54905 Y26.29660
G01 X47.50378 Y26.32273
G01 X47.33467 Y26.44562
G01 X47.29581 Y26.48059
G01 X47.13947 Y26.65629
G01 X47.02068 Y26.85928
G01 X47.00572 Y26.89063
G01 X47.00572 Y26.42916
G01 X47.14704 Y26.27630
G01 X47.18771 Y26.24336
G01 X47.40074 Y26.09197
G01 X47.63835 Y25.98319
G01 X47.68722 Y25.96442
G01 X47.94226 Y25.90742
G01 X47.99395 Y25.89924
G01 X48.04620 Y25.89650
G01 X48.30754 Y25.89924
G01 X48.35923 Y25.90742
G01 X48.61427 Y25.96442
G01 X48.85410 Y26.06823
G01 X48.90073 Y26.09197
G01 X49.11376 Y26.24336
G01 X49.15443 Y26.27630
G01 X49.33131 Y26.46866
G01 X49.36426 Y26.50935
G01 X49.49730 Y26.73426
G01 X49.52105 Y26.78090
G01 X49.53982 Y26.82977
G01 X49.61795 Y27.07915
G01 X49.64800 Y27.33876
G01 X49.65075 Y27.47325
G01 X49.51247 Y27.62415
G01 X49.44521 Y27.70848
G01 X49.40073 Y27.77678
G01 X49.44521 Y27.70848
G01 X49.51216 Y27.62392
G01 X49.62408 Y27.49992
G01 X49.90193 Y27.21755
G01 X50.10759 Y26.98908
G01 X50.36032 Y26.67483
G01 X50.60424 Y26.33851
G01 X51.14995 Y25.56754
G01 X51.14998 Y23.15002
G01 X47.00572 Y23.15002
G01 X47.00572 Y23.30392
G01 X47.16602 Y23.26097
G01 X47.37049 Y23.21751
G01 X47.70650 Y23.16429
G01 X47.97849 Y23.15002
G01 X50.27579 Y23.15005
G01 X50.52575 Y23.27740
G01 X50.85493 Y23.49117
G01 X51.02407 Y23.61405
G01 X51.14995 Y23.71601
G01 X51.14995 Y23.39648
G01 X51.00187 Y23.28891
G01 X50.78800 Y23.15002
G01 X48.32278 Y23.15002
G01 X49.64231 Y23.15005
G01 X49.88333 Y23.24255
G01 X50.07432 Y23.32757
G01 X50.40073 Y23.49391
G01 X50.70799 Y23.69343
G01 X50.87711 Y23.81631
G01 X51.14995 Y24.03727
G01 X51.14995 Y24.38804
G01 X50.99453 Y24.23264
G01 X50.73017 Y24.01857
G01 X50.56103 Y23.89569
G01 X50.27574 Y23.71039
G01 X49.97264 Y23.55596
G01 X49.78166 Y23.47092
G01 X49.46406 Y23.34903
G01 X49.13546 Y23.26097
G01 X48.93099 Y23.21751
G01 X48.59499 Y23.16429
G01 X48.32278 Y23.15002
G01 X47.97849 Y23.15002
G01 X47.70650 Y23.16429
G01 X47.37049 Y23.21751
G01 X47.16602 Y23.26097
G01 X47.00572 Y23.30392
G01 X47.00572 Y23.82086
G01 X47.00572 Y23.56239
G01 X47.21798 Y23.50552
G01 X47.42248 Y23.46206
G01 X47.73261 Y23.41294
G01 X48.04620 Y23.39650
G01 X48.25527 Y23.39650
G01 X48.56886 Y23.41294
G01 X48.87899 Y23.46206
G01 X49.08349 Y23.50552
G01 X49.38681 Y23.58680
G01 X49.67996 Y23.69932
G01 X49.87094 Y23.78436
G01 X50.15074 Y23.92690
G01 X50.41409 Y24.09795
G01 X50.58323 Y24.22081
G01 X50.82725 Y24.41844
G01 X51.04929 Y24.64047
G01 X51.14995 Y24.75225
G01 X51.14995 Y25.14407
G01 X51.00340 Y24.96312
G01 X50.86352 Y24.80775
G01 X50.65999 Y24.60422
G01 X50.43627 Y24.42307
G01 X50.26715 Y24.30018
G01 X50.02573 Y24.14341
G01 X49.76926 Y24.01273
G01 X49.57828 Y23.92772
G01 X49.30955 Y23.82454
G01 X49.03152 Y23.75004
G01 X48.82702 Y23.70658
G01 X48.54272 Y23.66155
G01 X48.25527 Y23.64649
G01 X48.04620 Y23.64649
G01 X47.75875 Y23.66155
G01 X47.47445 Y23.70658
G01 X47.26995 Y23.75004
G01 X47.00572 Y23.82086
G01 X47.00572 Y24.35408
G01 X47.00572 Y24.08667
G01 X47.06917 Y24.06231
G01 X47.32195 Y23.99460
G01 X47.52644 Y23.95111
G01 X47.78489 Y23.91019
G01 X48.04620 Y23.89650
G01 X48.25527 Y23.89650
G01 X48.51658 Y23.91019
G01 X48.77505 Y23.95111
G01 X48.97952 Y23.99460
G01 X49.23231 Y24.06231
G01 X49.47660 Y24.15609
G01 X49.66759 Y24.24113
G01 X49.90073 Y24.35992
G01 X50.12019 Y24.50244
G01 X50.28933 Y24.62533
G01 X50.49270 Y24.79000
G01 X50.67772 Y24.97504
G01 X50.81762 Y25.13041
G01 X50.98229 Y25.33376
G01 X51.14053 Y25.58047
G01 X50.98104 Y25.80422
G01 X50.90830 Y25.67823
G01 X50.78005 Y25.48070
G01 X50.63182 Y25.29769
G01 X50.49194 Y25.14232
G01 X50.32542 Y24.97580
G01 X50.14239 Y24.82759
G01 X49.97325 Y24.70470
G01 X49.77574 Y24.57643
G01 X49.56588 Y24.46950
G01 X49.37490 Y24.38449
G01 X49.15504 Y24.30008
G01 X48.92756 Y24.23912
G01 X48.72306 Y24.19566
G01 X48.49045 Y24.15881
G01 X48.25527 Y24.14649
G01 X48.04620 Y24.14649
G01 X47.81102 Y24.15881
G01 X47.57841 Y24.19566
G01 X47.37391 Y24.23912
G01 X47.14643 Y24.30008
G01 X47.00572 Y24.35408
G01 X47.00572 Y24.89655
G01 X47.00572 Y24.62289
G01 X47.22370 Y24.53785
G01 X47.42591 Y24.48367
G01 X47.63038 Y24.44019
G01 X47.83716 Y24.40745
G01 X48.04620 Y24.39650
G01 X48.25527 Y24.39650
G01 X48.46431 Y24.40745
G01 X48.67109 Y24.44019
G01 X48.87559 Y24.48367
G01 X49.07780 Y24.53785
G01 X49.27323 Y24.61286
G01 X49.46421 Y24.69790
G01 X49.65075 Y24.79294
G01 X49.82631 Y24.90696
G01 X49.99545 Y25.02982
G01 X50.15814 Y25.16157
G01 X50.30617 Y25.30960
G01 X50.44604 Y25.46498
G01 X50.57779 Y25.62766
G01 X50.69181 Y25.80323
G01 X50.82115 Y26.03300
G01 X50.65801 Y26.26274
G01 X50.57983 Y26.10927
G01 X50.47531 Y25.92822
G01 X50.37553 Y25.77460
G01 X50.26027 Y25.63226
G01 X50.12037 Y25.47689
G01 X49.99085 Y25.34737
G01 X49.84848 Y25.23208
G01 X49.67937 Y25.10920
G01 X49.52573 Y25.00945
G01 X49.36253 Y24.92629
G01 X49.17155 Y24.84125
G01 X49.00053 Y24.77562
G01 X48.82359 Y24.72820
G01 X48.61910 Y24.68474
G01 X48.43820 Y24.65609
G01 X48.25527 Y24.64649
G01 X48.04620 Y24.64649
G01 X47.86330 Y24.65609
G01 X47.68237 Y24.68474
G01 X47.47788 Y24.72820
G01 X47.30094 Y24.77562
G01 X47.12992 Y24.84125
G01 X47.00572 Y24.89655
G01 X47.00572 Y25.45545
G01 X47.00572 Y25.17244
G01 X47.23162 Y25.06965
G01 X47.37821 Y25.01336
G01 X47.52985 Y24.97272
G01 X47.73434 Y24.92926
G01 X47.88941 Y24.90470
G01 X48.04620 Y24.89650
G01 X48.25527 Y24.89650
G01 X48.41206 Y24.90470
G01 X48.56713 Y24.92926
G01 X48.77163 Y24.97272
G01 X48.92329 Y25.01336
G01 X49.06985 Y25.06965
G01 X49.26083 Y25.15466
G01 X49.40073 Y25.22596
G01 X49.53241 Y25.31146
G01 X49.70155 Y25.43434
G01 X49.82357 Y25.53315
G01 X49.93459 Y25.64417
G01 X50.07447 Y25.79952
G01 X50.17327 Y25.92154
G01 X50.25880 Y26.05324
G01 X50.36332 Y26.23427
G01 X50.43459 Y26.37417
G01 X50.48442 Y26.50396
G01 X50.36032 Y26.67483
G01 X50.30172 Y26.74768
G01 X50.25311 Y26.59799
G01 X50.20622 Y26.47584
G01 X50.14681 Y26.35928
G01 X50.04229 Y26.17823
G01 X49.97101 Y26.06851
G01 X49.88869 Y25.96680
G01 X49.74879 Y25.81146
G01 X49.65628 Y25.71892
G01 X49.55461 Y25.63660
G01 X49.38547 Y25.51372
G01 X49.27574 Y25.44245
G01 X49.15915 Y25.38306
G01 X48.96817 Y25.29802
G01 X48.84602 Y25.25113
G01 X48.71963 Y25.21727
G01 X48.51516 Y25.17382
G01 X48.38593 Y25.15334
G01 X48.25527 Y25.14649
G01 X48.04620 Y25.14649
G01 X47.91554 Y25.15334
G01 X47.78631 Y25.17382
G01 X47.58184 Y25.21727
G01 X47.45545 Y25.25113
G01 X47.33330 Y25.29802
G01 X47.14232 Y25.38306
G01 X47.02573 Y25.44245
G01 X47.00572 Y25.45545
G01 X47.00572 Y26.06950
G01 X47.00572 Y25.75756
G01 X47.15072 Y25.65896
G01 X47.24399 Y25.61143
G01 X47.43498 Y25.52642
G01 X47.53272 Y25.48890
G01 X47.63381 Y25.46180
G01 X47.83830 Y25.41834
G01 X47.94168 Y25.40196
G01 X48.04620 Y25.39650
G01 X48.25527 Y25.39650
G01 X48.35979 Y25.40196
G01 X48.46317 Y25.41834
G01 X48.66766 Y25.46180
G01 X48.76878 Y25.48890
G01 X48.86649 Y25.52642
G01 X49.05748 Y25.61143
G01 X49.15075 Y25.65896
G01 X49.23853 Y25.71598
G01 X49.40764 Y25.83884
G01 X49.48900 Y25.90473
G01 X49.56301 Y25.97874
G01 X49.70289 Y26.13409
G01 X49.76878 Y26.21544
G01 X49.82578 Y26.30323
G01 X49.93030 Y26.48428
G01 X49.97782 Y26.57755
G01 X50.01534 Y26.67526
G01 X50.07993 Y26.87409
G01 X50.10894 Y26.98735
G01 X49.88816 Y27.23205
G01 X49.87477 Y27.10470
G01 X49.86251 Y27.02718
G01 X49.84219 Y26.95133
G01 X49.77757 Y26.75250
G01 X49.74945 Y26.67922
G01 X49.71381 Y26.60927
G01 X49.60927 Y26.42822
G01 X49.56652 Y26.36238
G01 X49.51712 Y26.30137
G01 X49.37724 Y26.14603
G01 X49.32171 Y26.09050
G01 X49.26070 Y26.04110
G01 X49.09156 Y25.91821
G01 X49.02573 Y25.87547
G01 X48.95580 Y25.83983
G01 X48.76482 Y25.75479
G01 X48.69151 Y25.72667
G01 X48.61570 Y25.70635
G01 X48.41120 Y25.66289
G01 X48.33365 Y25.65060
G01 X48.25527 Y25.64648
G01 X48.04620 Y25.64648
G01 X47.96782 Y25.65060
G01 X47.89027 Y25.66289
G01 X47.68578 Y25.70635
G01 X47.60996 Y25.72667
G01 X47.53668 Y25.75479
G01 X47.34570 Y25.83983
G01 X47.27574 Y25.87547
G01 X47.20991 Y25.91821
G01 X47.00572 Y26.06950
G01 X47.00572 Y26.89063
G01 X46.92804 Y27.13111
G01 X46.90211 Y27.36487
G01 X46.90074 Y28.14102
G01 X46.92804 Y28.40091
G01 X47.01169 Y28.65506
G01 X46.88743 Y28.63279
G01 X46.85012 Y28.63380
G01 X46.74768 Y28.65722
G01 X46.76205 Y28.62502
G01 X46.83343 Y28.40091
G01 X46.85936 Y28.16715
G01 X46.86073 Y27.39101
G01 X46.83752 Y27.15697
G01 X46.82665 Y27.10584
G01 X46.75268 Y26.88260
G01 X46.63627 Y26.67823
G01 X46.60554 Y26.63594
G01 X46.46566 Y26.48059
G01 X46.42682 Y26.44562
G01 X46.23574 Y26.30848
G01 X46.02144 Y26.21156
G01 X45.97173 Y26.19543
G01 X45.76724 Y26.15194
G01 X45.71527 Y26.14648
G01 X45.48007 Y26.14785
G01 X45.24974 Y26.19543
G01 X45.20003 Y26.21156
G01 X44.98573 Y26.30848
G01 X44.77433 Y26.46208
G01 X44.59947 Y26.65629
G01 X44.48068 Y26.85928
G01 X44.46572 Y26.89063
G01 X44.46572 Y26.42916
G01 X44.57003 Y26.31331
G01 X44.60704 Y26.27630
G01 X44.64771 Y26.24336
G01 X44.81685 Y26.12047
G01 X44.86074 Y26.09197
G01 X44.90737 Y26.06823
G01 X45.14722 Y25.96442
G01 X45.40227 Y25.90742
G01 X45.45395 Y25.89924
