( pcb2gcode 2.5.0 )
( Software-independent Gcode )

G94 ( Millimeters per minute feed rate. )
G21 ( Units == Millimeters. )

G90 ( Absolute coordinates. )
G00 S10000 ( RPM spindle speed. )
G64 P0.01016 ( set maximum deviation from commanded toolpath )
G01 F200.00000 ( Feedrate. )


G00 Z10.00000 (Retract to tool change height)
T0
M5      (Spindle stop.)
G04 P1.00000 (Wait for spindle to stop)
(MSG, Change tool bit to mill diameter 0.40000mm)
M6      (Tool change.)
M0      (Temporary machine stop.)
M3 ( Spindle on clockwise. )
G04 P1.00000 (Wait for spindle to get up to speed)
G04 P0 ( dwell for no time -- G64 should not smooth over this point )
G00 Z5.00000 ( retract )

G00 X3.34561 Y4.15001 ( rapid move to begin. )
G01 F100.00000
( Mill infeed pass 1/1 )
G01 Z-0.20000
G04 P0 ( dwell for no time -- G64 should not smooth over this point )
G01 F200.00000
G01 X3.34561 Y4.15001
G01 X3.36107 Y4.30698
G01 X3.40682 Y4.45788
G01 X3.48117 Y4.59692
G01 X3.58122 Y4.71881
G01 X3.70309 Y4.81884
G01 X3.84218 Y4.89319
G01 X3.99305 Y4.93893
G01 X4.14997 Y4.95440
G01 X4.30689 Y4.93893
G01 X4.45777 Y4.89319
G01 X4.59686 Y4.81884
G01 X4.71875 Y4.71881
G01 X4.81878 Y4.59692
G01 X4.89313 Y4.45783
G01 X4.93887 Y4.30698
G01 X4.95434 Y4.15001
G01 X4.93887 Y3.99309
G01 X4.89313 Y3.84221
G01 X4.81878 Y3.70320
G01 X4.71875 Y3.58125
G01 X4.59683 Y3.48120
G01 X4.45780 Y3.40688
G01 X4.30689 Y3.36111
G01 X4.14997 Y3.34572
G01 X3.99305 Y3.36111
G01 X3.84215 Y3.40688
G01 X3.70311 Y3.48120
G01 X3.58122 Y3.58125
G01 X3.48117 Y3.70320
G01 X3.40682 Y3.84218
G01 X3.36107 Y3.99309
G01 X3.34561 Y4.15001
G01 X3.45000 Y4.15001
G01 X3.46529 Y4.29555
G01 X3.50301 Y4.41518
G01 X3.52000 Y4.45338
G01 X3.57228 Y4.54391
G01 X3.59686 Y4.57774
G01 X3.68160 Y4.67022
G01 X3.78243 Y4.74485
G01 X3.81863 Y4.76573
G01 X3.93367 Y4.81574
G01 X4.05615 Y4.84289
G01 X4.09772 Y4.84726
G01 X4.22315 Y4.84622
G01 X4.36630 Y4.81574
G01 X4.48134 Y4.76573
G01 X4.51754 Y4.74485
G01 X4.61837 Y4.67022
G01 X4.70313 Y4.57774
G01 X4.72770 Y4.54391
G01 X4.78947 Y4.43474
G01 X4.83468 Y4.29555
G01 X4.85000 Y4.15001
G01 X4.83796 Y4.02519
G01 X4.82927 Y3.98425
G01 X4.78947 Y3.86530
G01 X4.72770 Y3.75613
G01 X4.70313 Y3.72230
G01 X4.63318 Y3.64462
G01 X4.60212 Y3.61663
G01 X4.49998 Y3.54379
G01 X4.36630 Y3.48427
G01 X4.22315 Y3.45384
G01 X4.09772 Y3.45275
G01 X4.05615 Y3.45712
G01 X3.95388 Y3.47886
G01 X3.91413 Y3.49177
G01 X3.79999 Y3.54379
G01 X3.69785 Y3.61663
G01 X3.66679 Y3.64462
G01 X3.58368 Y3.73855
G01 X3.51050 Y3.86530
G01 X3.46529 Y4.00446
G01 X3.45000 Y4.15001
G04 P0 ( dwell for no time -- G64 should not smooth over this point )
G00 Z5.00000 ( retract )

G00 X5.39142 Y9.24502 ( rapid move to begin. )
G01 F100.00000
( Mill infeed pass 1/1 )
G01 Z-0.20000
G04 P0 ( dwell for no time -- G64 should not smooth over this point )
G01 F200.00000
G01 X5.39142 Y9.24502
G01 X5.13303 Y9.50341
G01 X5.05083 Y9.59734
G01 X5.01809 Y9.64972
G01 X4.98345 Y9.66023
G01 X4.94888 Y9.67872
G01 X4.91858 Y9.70359
G01 X4.89368 Y9.73389
G01 X4.87522 Y9.76849
G01 X4.86384 Y9.80600
G01 X4.85998 Y9.84502
G01 X4.85998 Y10.64502
G01 X4.86384 Y10.68403
G01 X4.87522 Y10.72155
G01 X4.89368 Y10.75612
G01 X4.91858 Y10.78644
G01 X4.94888 Y10.81131
G01 X4.98345 Y10.82980
G01 X5.02096 Y10.84118
G01 X5.05998 Y10.84502
G01 X6.85997 Y10.84502
G01 X6.89901 Y10.84118
G01 X6.93653 Y10.82980
G01 X6.97110 Y10.81131
G01 X7.00140 Y10.78644
G01 X7.02627 Y10.75612
G01 X7.04476 Y10.72155
G01 X7.05614 Y10.68403
G01 X7.06000 Y10.64502
G01 X7.06000 Y9.84502
G01 X7.05614 Y9.80600
G01 X7.04476 Y9.76849
G01 X7.02627 Y9.73389
G01 X7.00140 Y9.70359
G01 X6.97110 Y9.67872
G01 X6.93653 Y9.66023
G01 X6.89901 Y9.64885
G01 X6.85997 Y9.64502
G01 X5.05998 Y9.64502
G01 X5.01809 Y9.64972
G01 X5.05083 Y9.59734
G01 X5.13303 Y9.50341
G01 X5.19142 Y9.44502
G01 X6.85997 Y9.44502
G01 X6.93803 Y9.45269
G01 X7.01306 Y9.47547
G01 X7.08222 Y9.51243
G01 X7.14283 Y9.56216
G01 X7.19259 Y9.62279
G01 X7.22954 Y9.69193
G01 X7.25230 Y9.76699
G01 X7.26000 Y9.84502
G01 X7.26000 Y10.64502
G01 X7.25230 Y10.72304
G01 X7.23501 Y10.78002
G01 X7.00666 Y10.78002
G01 X7.64669 Y10.78002
G01 X7.66000 Y10.64502
G01 X7.66000 Y9.84502
G01 X7.64461 Y9.68893
G01 X7.59909 Y9.53887
G01 X7.52518 Y9.40057
G01 X7.42568 Y9.27933
G01 X7.30445 Y9.17984
G01 X7.23612 Y9.14332
G01 X7.46053 Y9.21053
G01 X7.66279 Y9.29902
G01 X7.71110 Y9.32620
G01 X7.78387 Y9.46234
G01 X7.84077 Y9.64992
G01 X7.86000 Y9.84502
G01 X7.86000 Y10.64502
G01 X7.84669 Y10.78002
G01 X7.64669 Y10.78002
G01 X8.49995 Y10.78002
G01 X8.49995 Y9.93145
G01 X8.06975 Y9.55335
G01 X7.86637 Y9.41355
G01 X7.66279 Y9.29902
G01 X7.46053 Y9.21053
G01 X7.25949 Y9.14771
G01 X7.05947 Y9.11020
G01 X6.85683 Y9.09755
G01 X5.53890 Y9.09755
G01 X5.39142 Y9.24502
G01 X6.85997 Y9.24502
G01 X6.97704 Y9.25655
G01 X7.08959 Y9.29069
G01 X7.19332 Y9.34614
G01 X7.28426 Y9.42076
G01 X7.35888 Y9.51167
G01 X7.41430 Y9.61540
G01 X7.44847 Y9.72795
G01 X7.46000 Y9.84502
G01 X7.46000 Y10.64502
G01 X7.44847 Y10.76206
G01 X7.44301 Y10.78002
G01 X7.23501 Y10.78002
G01 X8.44669 Y10.78002
G01 X8.46000 Y10.64502
G01 X8.46000 Y9.89480
G01 X8.06975 Y9.55335
G01 X8.00623 Y9.50969
G01 X8.03693 Y9.61091
G01 X8.06000 Y9.84502
G01 X8.06000 Y10.64502
G01 X8.04669 Y10.78002
G01 X8.24669 Y10.78002
G01 X8.26000 Y10.64502
G01 X8.26000 Y9.84502
G01 X8.24648 Y9.70801
G01 X8.06975 Y9.55335
G01 X7.59274 Y10.98002
G01 X7.00669 Y10.98004
G01 X6.97110 Y10.94872
G01 X6.93653 Y10.93023
G01 X6.89901 Y10.91885
G01 X6.85997 Y10.91502
G01 X5.05998 Y10.91502
G01 X5.02096 Y10.91885
G01 X4.98345 Y10.93023
G01 X4.94888 Y10.94872
G01 X4.91858 Y10.97359
G01 X4.89368 Y11.00389
G01 X4.87522 Y11.03849
G01 X4.86384 Y11.07600
G01 X4.85998 Y11.11502
G01 X4.85998 Y11.91502
G01 X4.86384 Y11.95403
G01 X4.87522 Y11.99155
G01 X4.89368 Y12.02612
G01 X4.91858 Y12.05644
G01 X4.94888 Y12.08131
G01 X4.98345 Y12.09980
G01 X5.02096 Y12.11118
G01 X5.05998 Y12.11502
G01 X6.85997 Y12.11502
G01 X6.89901 Y12.11118
G01 X6.93653 Y12.09980
G01 X6.97110 Y12.08131
G01 X7.00140 Y12.05644
G01 X7.02627 Y12.02612
G01 X7.04476 Y11.99155
G01 X7.05614 Y11.95403
G01 X7.06000 Y11.91502
G01 X7.06000 Y11.11502
G01 X7.05614 Y11.07600
G01 X7.04476 Y11.03849
G01 X7.02627 Y11.00389
G01 X7.00669 Y10.98004
G01 X7.23503 Y10.98004
G01 X7.25230 Y11.03699
G01 X7.26000 Y11.11502
G01 X7.26000 Y11.91502
G01 X7.25230 Y11.99304
G01 X7.23501 Y12.05002
G01 X7.23501 Y12.25004
G01 X7.25230 Y12.30699
G01 X7.26000 Y12.38502
G01 X7.26000 Y13.18502
G01 X7.25230 Y13.26304
G01 X7.23501 Y13.32002
G01 X7.23511 Y13.52004
G01 X8.44669 Y13.52004
G01 X8.46000 Y13.65502
G01 X8.46000 Y14.40523
G01 X8.24648 Y14.59205
G01 X8.26000 Y14.45502
G01 X8.26000 Y13.65502
G01 X8.24669 Y13.52004
G01 X8.04669 Y13.52004
G01 X8.06000 Y13.65502
G01 X8.06000 Y14.45502
G01 X8.03693 Y14.68913
G01 X8.00620 Y14.79037
G01 X7.86637 Y14.88651
G01 X7.71108 Y14.97386
G01 X7.78387 Y14.83769
G01 X7.84077 Y14.65011
G01 X7.86000 Y14.45502
G01 X7.86000 Y13.65502
G01 X7.84669 Y13.52004
G01 X7.64669 Y13.52004
G01 X7.66000 Y13.65502
G01 X7.66000 Y14.45502
G01 X7.64461 Y14.61107
G01 X7.59909 Y14.76116
G01 X7.52518 Y14.89946
G01 X7.42568 Y15.02070
G01 X7.30445 Y15.12019
G01 X7.23605 Y15.15674
G01 X6.62619 Y15.05501
G01 X5.39140 Y15.05501
G01 X6.85997 Y15.05501
G01 X6.97704 Y15.04348
G01 X7.08959 Y15.00935
G01 X7.19332 Y14.95390
G01 X7.28426 Y14.87927
G01 X7.35888 Y14.78837
G01 X7.41430 Y14.68463
G01 X7.44847 Y14.57206
G01 X7.46000 Y14.45502
G01 X7.46000 Y13.65502
G01 X7.44847 Y13.53795
G01 X7.44303 Y13.52004
G01 X7.23503 Y13.52004
G01 X7.23501 Y13.32002
G01 X7.44301 Y13.32002
G01 X7.44847 Y13.30206
G01 X7.46000 Y13.18502
G01 X7.46000 Y12.38502
G01 X7.44847 Y12.26795
G01 X7.44303 Y12.25004
G01 X7.00669 Y12.25004
G01 X6.97110 Y12.21872
G01 X6.93653 Y12.20023
G01 X6.89901 Y12.18885
G01 X6.85997 Y12.18502
G01 X5.05998 Y12.18502
G01 X5.02096 Y12.18885
G01 X4.98345 Y12.20023
G01 X4.94888 Y12.21872
G01 X4.91858 Y12.24359
G01 X4.89368 Y12.27389
G01 X4.87522 Y12.30849
G01 X4.86384 Y12.34600
G01 X4.85998 Y12.38502
G01 X4.85998 Y13.18502
G01 X4.86384 Y13.22403
G01 X4.87522 Y13.26155
G01 X4.89368 Y13.29612
G01 X4.91858 Y13.32644
G01 X4.94888 Y13.35131
G01 X4.98345 Y13.36980
G01 X5.02096 Y13.38118
G01 X5.05998 Y13.38502
G01 X6.85997 Y13.38502
G01 X6.89901 Y13.38118
G01 X6.93653 Y13.36980
G01 X6.97110 Y13.35131
G01 X7.00140 Y13.32644
G01 X7.02627 Y13.29612
G01 X7.04476 Y13.26155
G01 X7.05614 Y13.22403
G01 X7.06000 Y13.18502
G01 X7.06000 Y12.38502
G01 X7.05614 Y12.34600
G01 X7.04476 Y12.30849
G01 X7.02627 Y12.27389
G01 X7.00669 Y12.25004
G01 X8.49995 Y12.25004
G01 X8.49995 Y13.32002
G01 X7.84669 Y13.32002
G01 X7.86000 Y13.18502
G01 X7.86000 Y12.38502
G01 X7.84669 Y12.25004
G01 X7.64669 Y12.25004
G01 X7.66000 Y12.38502
G01 X7.66000 Y13.18502
G01 X7.64669 Y13.32002
G01 X7.84669 Y13.32002
G01 X7.00666 Y13.32002
G01 X8.44669 Y13.32002
G01 X8.46000 Y13.18502
G01 X8.46000 Y12.38502
G01 X8.44669 Y12.25004
G01 X8.24669 Y12.25004
G01 X8.26000 Y12.38502
G01 X8.26000 Y13.18502
G01 X8.24669 Y13.32002
G01 X8.04669 Y13.32002
G01 X8.06000 Y13.18502
G01 X8.06000 Y12.38502
G01 X8.04669 Y12.25002
G01 X7.23501 Y12.25004
G01 X7.23501 Y12.05002
G01 X7.44301 Y12.05002
G01 X7.44847 Y12.03206
G01 X7.46000 Y11.91502
G01 X7.46000 Y11.11502
G01 X7.44847 Y10.99795
G01 X7.44303 Y10.98004
G01 X7.23503 Y10.98004
G01 X7.64669 Y10.98004
G01 X7.66000 Y11.11502
G01 X7.66000 Y11.91502
G01 X7.64669 Y12.05002
G01 X7.84669 Y12.05002
G01 X7.86000 Y11.91502
G01 X7.86000 Y11.11502
G01 X7.84669 Y10.98004
G01 X7.64669 Y10.98004
G01 X8.49995 Y10.98004
G01 X8.49995 Y12.05002
G01 X7.00666 Y12.05002
G01 X8.44669 Y12.05002
G01 X8.46000 Y11.91502
G01 X8.46000 Y11.11502
G01 X8.44669 Y10.98004
G01 X8.24669 Y10.98004
G01 X8.26000 Y11.11502
G01 X8.26000 Y11.91502
G01 X8.24669 Y12.05002
G01 X8.04669 Y12.05002
G01 X8.06000 Y11.91502
G01 X8.06000 Y11.11502
G01 X8.04669 Y10.98002
G01 X7.59274 Y10.98002
G01 X7.23501 Y12.05002
G01 X7.23605 Y15.15674
G01 X7.05947 Y15.18986
G01 X6.85683 Y15.20251
G01 X5.53890 Y15.20251
G01 X5.13303 Y14.79665
G01 X5.05083 Y14.70272
G01 X5.01807 Y14.65029
G01 X4.98345 Y14.63980
G01 X4.94888 Y14.62131
G01 X4.91858 Y14.59644
G01 X4.89368 Y14.56612
G01 X4.87522 Y14.53155
G01 X4.86384 Y14.49403
G01 X4.85998 Y14.45502
G01 X4.85998 Y13.65502
G01 X4.86384 Y13.61600
G01 X4.87522 Y13.57849
G01 X4.89368 Y13.54389
G01 X4.91858 Y13.51359
G01 X4.94888 Y13.48872
G01 X4.98345 Y13.47023
G01 X5.02096 Y13.45885
G01 X5.05998 Y13.45502
G01 X6.85997 Y13.45502
G01 X6.89901 Y13.45885
G01 X6.93653 Y13.47023
G01 X6.97110 Y13.48872
G01 X7.00140 Y13.51359
G01 X7.02627 Y13.54389
G01 X7.04476 Y13.57849
G01 X7.05614 Y13.61600
G01 X7.06000 Y13.65502
G01 X7.06000 Y14.45502
G01 X7.05614 Y14.49403
G01 X7.04476 Y14.53155
G01 X7.02627 Y14.56612
G01 X7.00140 Y14.59644
G01 X6.97110 Y14.62131
G01 X6.93653 Y14.63980
G01 X6.89901 Y14.65118
G01 X6.85997 Y14.65502
G01 X5.05998 Y14.65502
G01 X5.01807 Y14.65029
G01 X5.05083 Y14.70272
G01 X5.13303 Y14.79665
G01 X5.19140 Y14.85501
G01 X6.85997 Y14.85501
G01 X6.93803 Y14.84732
G01 X7.01306 Y14.82456
G01 X7.08222 Y14.78760
G01 X7.14283 Y14.73784
G01 X7.19259 Y14.67724
G01 X7.22954 Y14.60808
G01 X7.25230 Y14.53304
G01 X7.26000 Y14.45502
G01 X7.26000 Y13.65502
G01 X7.25230 Y13.57699
G01 X7.23503 Y13.52004
G01 X7.00669 Y13.52004
G01 X8.49995 Y13.52004
G01 X8.49995 Y14.36860
G01 X8.06975 Y14.74671
G01 X7.86637 Y14.88651
G01 X7.66279 Y15.00104
G01 X7.46053 Y15.08953
G01 X7.23605 Y15.15674
G01 X4.84997 Y14.75872
G01 X4.85000 Y15.95003
G01 X12.44996 Y15.95003
G01 X12.44996 Y14.88001
G01 X12.45598 Y14.81547
G01 X12.46253 Y14.78247
G01 X12.47454 Y14.75105
G01 X12.51114 Y14.67508
G01 X12.54470 Y14.62586
G01 X12.65725 Y14.53609
G01 X12.68422 Y14.52309
G01 X12.73573 Y14.50907
G01 X12.68422 Y14.52309
G01 X12.65725 Y14.53609
G01 X12.54470 Y14.62586
G01 X12.52608 Y14.64922
G01 X12.50477 Y14.68829
G01 X12.47525 Y14.70272
G01 X12.44069 Y14.75575
G01 X12.36443 Y14.85822
G01 X12.24996 Y14.99301
G01 X12.24996 Y15.75001
G01 X12.30855 Y15.80861
G01 X12.24996 Y15.75001
G01 X5.05000 Y15.75001
G01 X4.99140 Y15.80861
G01 X5.05000 Y15.75001
G01 X5.05000 Y14.99647
G01 X4.98926 Y14.93571
G01 X5.24997 Y15.19644
G01 X5.25000 Y15.55001
G01 X5.19140 Y15.60861
G01 X5.25000 Y15.55001
G01 X12.04996 Y15.55003
G01 X12.10855 Y15.60861
G01 X12.04996 Y15.55003
G01 X12.04996 Y15.19644
G01 X12.24996 Y14.99301
G01 X11.87449 Y15.37500
G01 X11.84074 Y15.39492
G01 X11.82199 Y15.40061
G01 X11.82349 Y15.40658
G01 X11.82199 Y15.40061
G01 X10.33995 Y15.40254
G01 X10.12182 Y15.38946
G01 X9.90930 Y15.35001
G01 X7.29056 Y15.35001
G01 X9.90930 Y15.35001
G01 X9.67437 Y15.27919
G01 X9.45238 Y15.18227
G01 X9.39403 Y15.15001
G01 X7.80590 Y15.15001
G01 X7.75649 Y15.17780
G01 X7.96835 Y15.05862
G01 X8.12705 Y14.95001
G01 X9.07287 Y14.95001
G01 X9.23157 Y15.05862
G01 X9.39403 Y15.15001
G01 X9.22395 Y15.05387
G01 X9.01186 Y14.90846
G01 X8.83023 Y14.75001
G01 X8.36967 Y14.75001
G01 X8.59998 Y14.54851
G01 X8.83023 Y14.75001
G01 X8.59825 Y14.55004
G01 X8.18806 Y14.90846
G01 X7.96835 Y15.05862
G01 X7.74755 Y15.18227
G01 X7.53567 Y15.27495
G01 X7.30221 Y15.34818
G01 X7.07811 Y15.38946
G01 X6.85997 Y15.40254
G01 X5.47796 Y15.40061
G01 X5.47646 Y15.40655
G01 X5.47796 Y15.40061
G01 X5.45922 Y15.39492
G01 X5.42546 Y15.37500
G01 X4.98472 Y14.93086
G01 X4.89445 Y14.82880
G01 X4.84997 Y14.75872
G01 X4.84997 Y9.54133
G01 X4.89445 Y9.47126
G01 X4.98472 Y9.36920
G01 X5.24997 Y9.10362
G01 X5.25000 Y8.75005
G01 X5.19140 Y8.69145
G01 X5.25000 Y8.75005
G01 X12.04996 Y8.75005
G01 X12.10855 Y8.69145
G01 X12.04996 Y8.75005
G01 X12.04998 Y9.24502
G01 X12.10855 Y9.30359
G01 X12.04998 Y9.24502
G01 X10.33998 Y9.24502
G01 X10.22293 Y9.25655
G01 X10.11039 Y9.29069
G01 X10.00665 Y9.34614
G01 X9.91572 Y9.42076
G01 X9.84110 Y9.51167
G01 X9.78565 Y9.61540
G01 X9.75151 Y9.72795
G01 X9.73998 Y9.84502
G01 X9.73998 Y10.64502
G01 X9.75151 Y10.76206
G01 X9.75697 Y10.78002
G01 X9.55329 Y10.78002
G01 X9.53998 Y10.64502
G01 X9.53998 Y9.84502
G01 X9.55535 Y9.68893
G01 X9.60089 Y9.53887
G01 X9.67480 Y9.40057
G01 X9.77429 Y9.27933
G01 X9.89553 Y9.17984
G01 X10.03383 Y9.10590
G01 X10.18392 Y9.06039
G01 X10.33998 Y9.04502
G01 X11.84998 Y9.04502
G01 X11.90856 Y9.10359
G01 X11.84998 Y9.04502
G01 X11.84996 Y8.95005
G01 X11.90856 Y8.89145
G01 X11.84996 Y8.95005
G01 X7.29056 Y8.95005
G01 X7.07811 Y8.91060
G01 X6.85997 Y8.89752
G01 X5.49749 Y8.89752
G01 X5.49671 Y8.89369
G01 X5.49749 Y8.89752
G01 X5.45208 Y8.90844
G01 X5.42678 Y8.92683
G01 X5.42439 Y8.92333
G01 X5.42678 Y8.92683
G01 X5.05000 Y9.30359
G01 X5.42678 Y8.92683
G01 X5.46658 Y8.90242
G01 X5.49749 Y8.89752
G01 X6.85997 Y8.89752
G01 X7.07808 Y8.91098
G01 X7.30221 Y8.95188
G01 X7.52556 Y9.02086
G01 X7.74755 Y9.11779
G01 X7.80590 Y9.15005
G01 X9.62294 Y9.15005
G01 X9.86500 Y9.03554
G01 X9.62294 Y9.15005
G01 X9.50851 Y9.28944
G01 X9.41610 Y9.46234
G01 X9.35921 Y9.64992
G01 X9.33998 Y9.84502
G01 X9.33998 Y10.64502
G01 X9.35329 Y10.78002
G01 X9.15329 Y10.78002
G01 X9.13998 Y10.64502
G01 X9.13998 Y9.84502
G01 X9.16304 Y9.61091
G01 X9.23134 Y9.38579
G01 X9.25045 Y9.35005
G01 X9.36604 Y9.26686
G01 X9.25045 Y9.35005
G01 X8.12705 Y9.35005
G01 X7.96835 Y9.24144
G01 X7.80590 Y9.15005
G01 X7.97597 Y9.24619
G01 X8.18806 Y9.39160
G01 X8.36967 Y9.55005
G01 X8.97351 Y9.55005
G01 X9.04834 Y9.48324
G01 X8.97351 Y9.55005
G01 X8.96688 Y9.57189
G01 X8.93998 Y9.84502
G01 X8.93998 Y10.64502
G01 X8.95329 Y10.78002
G01 X8.75329 Y10.78002
G01 X8.73998 Y10.64502
G01 X8.73998 Y9.84502
G01 X8.74935 Y9.75005
G01 X8.80927 Y9.69071
G01 X8.74935 Y9.75005
G01 X8.59825 Y9.75002
G01 X8.36967 Y9.55005
G01 X8.62080 Y9.76978
G01 X8.68088 Y9.83125
G01 X8.68690 Y9.82731
G01 X8.68088 Y9.83125
G01 X8.69507 Y9.85914
G01 X8.70241 Y9.88964
G01 X8.69998 Y10.78002
G01 X10.19329 Y10.78002
G01 X9.96495 Y10.78002
G01 X9.94768 Y10.72304
G01 X9.93998 Y10.64502
G01 X9.93998 Y9.84502
G01 X9.94768 Y9.76699
G01 X9.97043 Y9.69193
G01 X10.00739 Y9.62279
G01 X10.05715 Y9.56216
G01 X10.11775 Y9.51243
G01 X10.18692 Y9.47547
G01 X10.26195 Y9.45269
G01 X10.33998 Y9.44502
G01 X12.14000 Y9.44502
G01 X12.21803 Y9.45269
G01 X12.24998 Y9.46239
G01 X12.32006 Y9.54441
G01 X12.24998 Y9.46239
G01 X12.24996 Y8.55005
G01 X12.30855 Y8.49145
G01 X12.24996 Y8.55005
G01 X5.05000 Y8.55005
G01 X4.99140 Y8.49145
G01 X5.05000 Y8.55005
G01 X5.05000 Y9.30359
G01 X4.98472 Y9.36920
G01 X4.89503 Y9.47169
G01 X4.84997 Y9.54133
G01 X4.85000 Y8.35002
G01 X12.44996 Y8.35002
G01 X12.44998 Y9.66402
G01 X12.22362 Y9.66402
G01 X12.17901 Y9.64885
G01 X12.14000 Y9.64502
G01 X10.33998 Y9.64502
G01 X10.30096 Y9.64885
G01 X10.26345 Y9.66023
G01 X10.22888 Y9.67872
G01 X10.19858 Y9.70359
G01 X10.17368 Y9.73389
G01 X10.15522 Y9.76849
G01 X10.14384 Y9.80600
G01 X10.13998 Y9.84502
G01 X10.13998 Y10.64502
G01 X10.14384 Y10.68403
G01 X10.15522 Y10.72155
G01 X10.17368 Y10.75612
G01 X10.19329 Y10.78002
G01 X10.22888 Y10.81131
G01 X10.26345 Y10.82980
G01 X10.30096 Y10.84118
G01 X10.33998 Y10.84502
G01 X12.14000 Y10.84502
G01 X12.17901 Y10.84118
G01 X12.22357 Y10.82604
G01 X12.37937 Y10.82602
G01 X12.43721 Y10.84725
G01 X12.50231 Y10.88220
G01 X12.43721 Y10.84725
G01 X12.37937 Y10.82602
G01 X12.47660 Y10.82604
G01 X12.49555 Y10.87227
G01 X12.51239 Y10.89698
G01 X12.58529 Y10.98479
G01 X12.63454 Y11.01837
G01 X12.72341 Y11.05987
G01 X12.77563 Y11.06732
G01 X12.83949 Y11.07029
G01 X13.86364 Y11.07029
G01 X13.96700 Y11.06107
G01 X14.01891 Y11.04692
G01 X14.07055 Y11.01713
G01 X14.13649 Y10.96455
G01 X14.15968 Y10.93760
G01 X14.13649 Y10.96455
G01 X14.04584 Y11.03397
G01 X14.01891 Y11.04692
G01 X13.96700 Y11.06107
G01 X14.12798 Y11.06104
G01 X14.13481 Y11.00646
G01 X14.15216 Y10.94956
G01 X14.22443 Y10.83003
G01 X14.26573 Y10.78639
G01 X14.30413 Y10.75083
G01 X14.39951 Y10.69455
G01 X14.51028 Y10.66224
G01 X14.57500 Y10.65926
G01 X15.82498 Y10.65926
G01 X15.88965 Y10.66224
G01 X15.98020 Y10.68713
G01 X16.02783 Y10.70867
G01 X16.10522 Y10.75888
G01 X16.17449 Y10.82889
G01 X16.24261 Y10.93399
G01 X16.26516 Y11.00646
G01 X16.27042 Y11.04603
G01 X16.42048 Y11.04603
G01 X16.35122 Y11.01964
G01 X16.29930 Y10.99038
G01 X16.24223 Y10.93338
G01 X16.22348 Y10.90498
G01 X16.24223 Y10.93338
G01 X16.27718 Y10.97029
G01 X16.32417 Y11.00694
G01 X16.42048 Y11.04603
G01 X16.51421 Y11.05505
G01 X24.20825 Y11.05528
G01 X24.31188 Y11.04601
G01 X24.36192 Y11.04601
G01 X24.40472 Y11.00679
G01 X24.38186 Y11.02350
G01 X24.36004 Y11.03328
G01 X24.31188 Y11.04601
G01 X24.36004 Y11.03328
G01 X24.38186 Y11.02350
G01 X24.47726 Y10.94374
G01 X25.96939 Y9.45147
G01 X26.02748 Y9.40003
G01 X26.05173 Y9.38436
G01 X26.12227 Y9.34929
G01 X26.15648 Y9.33813
G01 X26.21544 Y9.32503
G01 X26.26309 Y9.31980
G01 X31.40140 Y9.32129
G01 X31.50481 Y9.31207
G01 X31.55667 Y9.29793
G01 X31.58360 Y9.28497
G01 X31.67425 Y9.21555
G01 X31.70158 Y9.18914
G01 X31.74118 Y9.12676
G01 X31.70158 Y9.18914
G01 X31.60831 Y9.26813
G01 X31.55667 Y9.29793
G01 X31.50481 Y9.31207
G01 X31.71794 Y9.31205
G01 X31.73696 Y9.14151
G01 X31.81487 Y8.92505
G01 X31.83524 Y8.87712
G01 X31.93701 Y8.70235
G01 X31.95893 Y8.67471
G01 X32.06859 Y8.54888
G01 X32.09896 Y8.51947
G01 X32.22345 Y8.41929
G01 X32.29835 Y8.37029
G01 X32.39749 Y8.31698
G01 X32.56170 Y8.25180
G01 X32.78741 Y8.20438
G01 X33.01524 Y8.20418
G01 X33.05532 Y8.20809
G01 X33.23536 Y8.24464
G01 X33.29762 Y8.26506
G01 X33.42396 Y8.31698
G01 X33.52314 Y8.37029
G01 X33.59800 Y8.41929
G01 X33.69228 Y8.49315
G01 X33.75286 Y8.54888
G01 X33.86251 Y8.67471
G01 X33.91519 Y8.74174
G01 X33.98278 Y8.79272
G01 X34.03523 Y8.82114
G01 X34.17640 Y8.84934
G01 X34.20628 Y8.84850
G01 X34.17008 Y8.84855
G01 X34.20628 Y8.84850
G01 X34.23571 Y8.84324
G01 X34.31740 Y8.82224
G01 X34.36917 Y8.80082
G01 X34.44618 Y8.74192
G01 X34.49893 Y8.67471
G01 X34.60859 Y8.54888
G01 X34.66916 Y8.49313
G01 X34.76345 Y8.41932
G01 X34.89030 Y8.33298
G01 X34.99672 Y8.28558
G01 X34.99670 Y8.16082
G01 X34.95695 Y8.25805
G01 X34.94028 Y8.28289
G01 X34.89030 Y8.33298
G01 X34.94028 Y8.28289
G01 X34.96975 Y8.23100
G01 X34.99670 Y8.16082
G01 X35.00574 Y8.06732
G01 X35.00597 Y7.59252
G01 X34.99672 Y7.48894
G01 X34.99672 Y7.43882
G01 X34.96723 Y7.40936
G01 X34.97902 Y7.42861
G01 X34.99672 Y7.48894
G01 X34.97902 Y7.42861
G01 X34.95753 Y7.39605
G01 X34.91643 Y7.34738
G01 X34.59810 Y7.02717
G01 X34.51831 Y6.96044
G01 X34.48154 Y6.92364
G01 X34.44156 Y6.92442
G01 X34.46317 Y6.93034
G01 X34.51831 Y6.96044
G01 X34.46317 Y6.93034
G01 X34.44156 Y6.92442
G01 X34.36144 Y6.91713
G01 X33.59378 Y6.91391
G01 X33.53297 Y6.89966
G01 X33.47450 Y6.88051
G01 X33.41260 Y6.84624
G01 X33.36975 Y6.81622
G01 X33.30044 Y6.74617
G01 X33.22515 Y6.61939
G01 X33.20983 Y6.56857
G01 X33.20110 Y6.49593
G01 X33.19998 Y6.37878
G01 X33.17991 Y6.34965
G01 X33.15832 Y6.32702
G01 X33.16185 Y6.32239
G01 X33.15832 Y6.32702
G01 X33.11565 Y6.30807
G01 X33.11651 Y6.30403
G01 X33.11565 Y6.30807
G01 X33.09358 Y6.30403
G01 X33.13081 Y6.31211
G01 X33.15832 Y6.32702
G01 X33.17991 Y6.34965
G01 X33.19998 Y6.37878
G01 X33.19998 Y6.30403
G01 X32.73833 Y6.30530
G01 X32.72083 Y6.30906
G01 X32.68921 Y6.32552
G01 X32.68418 Y6.31866
G01 X32.68921 Y6.32552
G01 X32.67610 Y6.33771
G01 X32.64999 Y6.37700
G01 X32.67610 Y6.33771
G01 X32.68921 Y6.32552
G01 X32.72083 Y6.30906
G01 X32.74875 Y6.30403
G01 X32.64999 Y6.30403
G01 X32.64890 Y6.49593
G01 X32.64016 Y6.56857
G01 X32.62629 Y6.61470
G01 X32.66338 Y6.57347
G01 X32.69284 Y6.55224
G01 X32.79223 Y6.49605
G01 X32.85025 Y6.48218
G01 X32.96411 Y6.47472
G01 X33.02231 Y6.48734
G01 X33.12825 Y6.53001
G01 X33.17529 Y6.56672
G01 X33.22515 Y6.61939
G01 X33.17529 Y6.56672
G01 X33.12825 Y6.53001
G01 X33.02231 Y6.48734
G01 X32.96411 Y6.47472
G01 X32.82071 Y6.48698
G01 X32.76543 Y6.50931
G01 X32.66338 Y6.57347
G01 X32.62629 Y6.61470
G01 X32.54948 Y6.74617
G01 X32.47082 Y6.82422
G01 X32.37544 Y6.88051
G01 X32.26467 Y6.91282
G01 X32.19998 Y6.91581
G01 X31.39996 Y6.91581
G01 X31.33529 Y6.91282
G01 X31.22452 Y6.88051
G01 X31.16259 Y6.84624
G01 X31.11974 Y6.81622
G01 X31.05043 Y6.74617
G01 X30.99389 Y6.65074
G01 X30.97367 Y6.58607
G01 X30.96165 Y6.53121
G01 X30.95922 Y5.22504
G01 X30.96389 Y5.15293
G01 X30.99384 Y5.04947
G01 X31.00567 Y5.02763
G01 X31.05045 Y4.95392
G01 X31.11977 Y4.88386
G01 X31.16259 Y4.85387
G01 X31.22452 Y4.81958
G01 X31.37026 Y4.77655
G01 X31.43455 Y4.74089
G01 X31.48180 Y4.70451
G01 X31.56483 Y4.58689
G01 X31.58332 Y4.53022
G01 X31.59726 Y4.44709
G01 X31.59825 Y4.38745
G01 X31.59208 Y4.35821
G01 X31.56856 Y4.27721
G01 X31.54357 Y4.22306
G01 X31.44740 Y4.11592
G01 X31.39627 Y4.08529
G01 X31.32035 Y4.05407
G01 X31.39627 Y4.08529
G01 X31.44740 Y4.11592
G01 X31.52531 Y4.19936
G01 X31.54926 Y4.23327
G01 X31.68022 Y4.31165
G01 X31.75754 Y4.36969
G01 X31.79912 Y4.40614
G01 X31.79940 Y4.42689
G01 X31.79912 Y4.40614
G01 X31.81121 Y4.41673
G01 X31.73041 Y4.48539
G01 X31.58276 Y4.58630
G01 X31.55723 Y4.59954
G01 X31.48180 Y4.70451
G01 X31.43455 Y4.74089
G01 X31.37026 Y4.77655
G01 X31.65157 Y4.77591
G01 X31.69053 Y4.75488
G01 X31.84748 Y4.64769
G01 X31.93346 Y4.57546
G01 X32.24705 Y4.57693
G01 X32.30928 Y4.58513
G01 X32.40084 Y4.60685
G01 X32.52500 Y4.66210
G01 X32.60239 Y4.71564
G01 X32.63493 Y4.74198
G01 X32.69950 Y4.81041
G01 X32.74865 Y4.87807
G01 X32.79378 Y4.96065
G01 X32.80879 Y4.99971
G01 X32.83579 Y5.08986
G01 X32.84232 Y5.13123
G01 X32.84847 Y5.19603
G01 X32.80371 Y5.24647
G01 X32.84847 Y5.19603
G01 X33.00150 Y5.19603
G01 X33.03848 Y5.24122
G01 X33.00150 Y5.19603
G01 X33.01420 Y5.08986
G01 X33.05619 Y4.96065
G01 X33.12413 Y4.84300
G01 X33.21504 Y4.74198
G01 X33.32500 Y4.66210
G01 X33.44913 Y4.60685
G01 X33.54069 Y4.58513
G01 X33.65065 Y4.57508
G01 X34.47679 Y4.57637
G01 X34.51826 Y4.57861
G01 X34.61041 Y4.59598
G01 X34.65085 Y4.60685
G01 X34.73655 Y4.64259
G01 X34.79942 Y4.69080
G01 X34.90478 Y4.78737
G01 X35.02903 Y4.93289
G01 X35.11267 Y5.05920
G01 X35.16698 Y5.15943
G01 X35.21521 Y5.26448
G01 X35.30000 Y5.46921
G01 X35.30000 Y5.89229
G01 X35.28476 Y5.89859
G01 X35.30000 Y5.89229
G01 X35.71519 Y6.30751
G01 X35.57320 Y5.96468
G01 X35.47127 Y5.86275
G01 X35.45537 Y5.84205
G01 X35.45245 Y5.84396
G01 X35.45537 Y5.84205
G01 X35.30000 Y5.46921
G01 X35.45537 Y5.84205
G01 X35.47127 Y5.86275
G01 X35.57320 Y5.96468
G01 X35.80147 Y6.51571
G01 X35.85590 Y6.63367
G01 X35.97018 Y6.83682
G01 X36.21359 Y7.24393
G01 X36.30475 Y7.38935
G01 X36.30475 Y8.04055
G01 X36.28349 Y8.05122
G01 X36.30475 Y8.04055
G01 X36.47254 Y8.16247
G01 X36.52136 Y8.20199
G01 X36.62072 Y8.30743
G01 X36.62072 Y8.02546
G01 X36.50475 Y7.93865
G01 X36.48359 Y7.94924
G01 X36.50475 Y7.93865
G01 X36.50475 Y7.65066
G01 X36.42522 Y7.55546
G01 X36.30475 Y7.38935
G01 X36.42522 Y7.55546
G01 X36.47058 Y7.61170
G01 X36.62903 Y7.78945
G01 X36.62072 Y7.82861
G01 X36.62072 Y9.12737
G01 X36.62072 Y8.62843
G01 X36.58336 Y8.56811
G01 X36.55702 Y8.53557
G01 X36.38753 Y8.35061
G01 X36.15075 Y8.17857
G01 X36.10475 Y8.15569
G01 X36.08179 Y8.16775
G01 X36.10475 Y8.15569
G01 X36.10475 Y7.25079
G01 X36.09794 Y7.16202
G01 X36.08262 Y7.08510
G01 X36.05496 Y7.00055
G01 X36.01470 Y6.92112
G01 X35.97114 Y6.85592
G01 X35.91318 Y6.78833
G01 X35.10000 Y5.97512
G01 X35.08476 Y5.98147
G01 X35.10000 Y5.97512
G01 X35.10000 Y5.22501
G01 X35.08578 Y5.08986
G01 X35.05880 Y4.99971
G01 X35.03147 Y4.93647
G01 X34.93713 Y4.82151
G01 X34.83531 Y4.72146
G01 X34.68110 Y4.60319
G01 X34.53460 Y4.51752
G01 X33.65149 Y4.51457
G01 X33.51435 Y4.52110
G01 X33.30290 Y4.55465
G01 X33.17826 Y4.58816
G01 X33.03399 Y4.64086
G01 X32.96231 Y4.72539
G01 X32.92500 Y4.78348
G01 X32.92500 Y4.91287
G01 X32.92500 Y4.78348
G01 X32.88766 Y4.72539
G01 X32.81598 Y4.64091
G01 X32.71916 Y4.60363
G01 X32.88431 Y4.66888
G01 X32.91662 Y4.67716
G01 X32.91636 Y4.68841
G01 X32.91662 Y4.67716
G01 X32.94984 Y4.67436
G01 X33.03399 Y4.64086
G01 X32.94984 Y4.67436
G01 X32.91662 Y4.67716
G01 X32.88431 Y4.66888
G01 X32.67189 Y4.58823
G01 X32.49983 Y4.54462
G01 X32.38327 Y4.52610
G01 X32.25045 Y4.51551
G01 X31.99985 Y4.51473
G01 X31.84748 Y4.64769
G01 X31.69053 Y4.75488
G01 X31.65157 Y4.77591
G01 X32.23658 Y4.77665
G01 X32.33904 Y4.79705
G01 X32.42500 Y4.83530
G01 X32.50110 Y4.89059
G01 X32.55088 Y4.94424
G01 X32.57544 Y4.97807
G01 X32.61108 Y5.04198
G01 X32.63473 Y5.11122
G01 X32.64344 Y5.15214
G01 X32.64999 Y5.22501
G01 X32.64999 Y5.39603
G01 X33.19998 Y5.39603
G01 X33.19998 Y5.22501
G01 X33.20983 Y5.13146
G01 X33.23889 Y5.04198
G01 X33.27453 Y4.97807
G01 X33.29911 Y4.94424
G01 X33.34887 Y4.89059
G01 X33.42500 Y4.83530
G01 X33.51092 Y4.79705
G01 X33.58227 Y4.78077
G01 X33.65032 Y4.77502
G01 X34.49718 Y4.77749
G01 X34.58905 Y4.79705
G01 X34.67498 Y4.83530
G01 X34.75111 Y4.89059
G01 X34.81405 Y4.96052
G01 X34.85159 Y5.02334
G01 X34.86858 Y5.06154
G01 X34.89014 Y5.13146
G01 X34.89888 Y5.20411
G01 X34.90000 Y6.05798
G01 X35.77175 Y6.92976
G01 X35.81653 Y6.98279
G01 X35.83830 Y7.01538
G01 X35.87678 Y7.09552
G01 X35.89888 Y7.18162
G01 X35.90378 Y7.23118
G01 X35.90472 Y8.28558
G01 X36.05075 Y8.35178
G01 X36.23744 Y8.48607
G01 X36.26850 Y8.51403
G01 X36.40838 Y8.66940
G01 X36.43297 Y8.70324
G01 X36.54699 Y8.90293
G01 X36.61910 Y9.12129
G01 X36.62778 Y9.16219
G01 X36.65075 Y9.39102
G01 X36.65075 Y10.14100
G01 X36.62778 Y10.36983
G01 X36.62072 Y10.40466
G01 X36.62072 Y11.22459
G01 X36.52136 Y11.33005
G01 X36.30340 Y11.49246
G01 X36.25075 Y11.52665
G01 X36.19479 Y11.55517
G01 X35.94516 Y11.66269
G01 X35.88450 Y11.67895
G01 X35.64044 Y11.72868
G01 X35.55263 Y11.73330
G01 X35.34882 Y11.73330
G01 X35.20739 Y11.72586
G01 X35.00356 Y11.70445
G01 X34.85408 Y11.68070
G01 X34.65017 Y11.63737
G01 X34.48402 Y11.59271
G01 X34.32444 Y11.54085
G01 X34.28072 Y11.50656
G01 X34.32444 Y11.54085
G01 X34.28072 Y11.52665
G01 X34.28072 Y10.90354
G01 X34.28072 Y11.22457
G01 X34.33571 Y11.28563
G01 X34.38014 Y11.33005
G01 X34.42893 Y11.36958
G01 X34.59807 Y11.49246
G01 X34.65075 Y11.52665
G01 X34.70671 Y11.55517
G01 X34.89769 Y11.64019
G01 X34.95631 Y11.66269
G01 X35.01697 Y11.67895
G01 X35.26104 Y11.72868
G01 X35.34882 Y11.73330
G01 X35.55263 Y11.73330
G01 X35.69405 Y11.72586
G01 X35.89789 Y11.70445
G01 X36.04739 Y11.68070
G01 X36.25131 Y11.63737
G01 X36.41752 Y11.59269
G01 X36.57706 Y11.54082
G01 X36.62072 Y11.50656
G01 X36.57706 Y11.54082
G01 X36.62072 Y11.52665
G01 X36.62072 Y10.90359
G01 X36.58336 Y10.96391
G01 X36.55702 Y10.99645
G01 X36.38753 Y11.18141
G01 X36.15075 Y11.35345
G01 X35.88336 Y11.47250
G01 X35.59708 Y11.53336
G01 X35.30439 Y11.53336
G01 X35.01811 Y11.47250
G01 X34.75075 Y11.35345
G01 X34.54648 Y11.20775
G01 X34.48435 Y11.15182
G01 X34.34445 Y10.99645
G01 X34.31811 Y10.96391
G01 X34.28072 Y10.90354
G01 X34.28072 Y10.40455
G01 X34.35448 Y10.62909
G01 X34.46850 Y10.82881
G01 X34.49309 Y10.86262
G01 X34.64778 Y11.03280
G01 X34.85075 Y11.18024
G01 X35.06038 Y11.27478
G01 X35.10013 Y11.28769
G01 X35.30462 Y11.33117
G01 X35.34620 Y11.33554
G01 X35.57617 Y11.33445
G01 X35.82156 Y11.28228
G01 X36.05075 Y11.18024
G01 X36.23744 Y11.04595
G01 X36.26850 Y11.01799
G01 X36.40838 Y10.86262
G01 X36.43297 Y10.82881
G01 X36.54699 Y10.62909
G01 X36.62072 Y10.40466
G01 X36.54699 Y10.62909
G01 X36.43297 Y10.82881
G01 X36.40838 Y10.86262
G01 X36.26850 Y11.01799
G01 X36.23744 Y11.04595
G01 X36.05075 Y11.18024
G01 X35.84110 Y11.27478
G01 X35.80134 Y11.28769
G01 X35.57617 Y11.33445
G01 X35.32530 Y11.33445
G01 X35.07991 Y11.28228
G01 X34.85075 Y11.18024
G01 X34.64778 Y11.03280
G01 X34.47991 Y10.84636
G01 X34.35448 Y10.62909
G01 X34.27696 Y10.39051
G01 X34.25073 Y10.14100
G01 X34.25073 Y9.39102
G01 X34.27369 Y9.16219
G01 X34.28072 Y9.12747
G01 X34.28072 Y9.03499
G01 X34.32116 Y9.00189
G01 X34.28072 Y9.12747
G01 X34.35448 Y8.90293
G01 X34.44618 Y8.74192
G01 X34.39230 Y8.78490
G01 X34.34402 Y8.81335
G01 X34.23571 Y8.84324
G01 X34.19220 Y8.84891
G01 X34.18098 Y8.85825
G01 X34.17008 Y8.84855
G01 X34.03523 Y8.82114
G01 X33.98278 Y8.79272
G01 X33.91519 Y8.74174
G01 X34.00699 Y8.90293
G01 X34.03980 Y9.00034
G01 X34.08072 Y9.03527
G01 X34.08072 Y9.12737
G01 X34.03980 Y9.00034
G01 X34.08451 Y9.14151
G01 X34.10965 Y9.37011
G01 X34.11075 Y10.14100
G01 X34.08778 Y10.36983
G01 X34.08072 Y10.40466
G01 X34.08072 Y10.90359
G01 X34.04336 Y10.96391
G01 X34.01702 Y10.99645
G01 X33.87712 Y11.15182
G01 X33.81499 Y11.20775
G01 X33.61075 Y11.35345
G01 X33.34336 Y11.47250
G01 X33.05708 Y11.53336
G01 X32.76439 Y11.53336
G01 X32.47811 Y11.47250
G01 X32.21075 Y11.35345
G01 X31.97395 Y11.18141
G01 X31.77811 Y10.96391
G01 X31.65078 Y10.74776
G01 X31.61677 Y10.67136
G01 X31.54133 Y10.43209
G01 X31.53943 Y10.42005
G01 X31.56762 Y10.38147
G01 X31.53943 Y10.42005
G01 X26.55488 Y10.42005
G01 X26.54856 Y10.40481
G01 X26.55488 Y10.42005
G01 X25.02936 Y11.94552
G01 X25.51142 Y11.74628
G01 X26.63771 Y10.62005
G01 X26.63141 Y10.60481
G01 X26.63771 Y10.62005
G01 X31.38980 Y10.62005
G01 X31.41629 Y10.58289
G01 X31.38980 Y10.62005
G01 X31.44905 Y10.79180
G01 X31.47758 Y10.84776
G01 X31.58210 Y11.02881
G01 X31.61631 Y11.08146
G01 X31.65584 Y11.13028
G01 X31.84014 Y11.33005
G01 X32.05807 Y11.49246
G01 X32.11075 Y11.52665
G01 X32.16671 Y11.55517
G01 X32.35769 Y11.64019
G01 X32.41631 Y11.66269
G01 X32.47697 Y11.67895
G01 X32.68146 Y11.72243
G01 X32.72104 Y11.72868
G01 X32.80884 Y11.73330
G01 X33.01260 Y11.73330
G01 X33.10044 Y11.72868
G01 X33.34450 Y11.67895
G01 X33.40516 Y11.66269
G01 X33.46381 Y11.64019
G01 X33.65479 Y11.55517
G01 X33.71075 Y11.52665
G01 X33.76340 Y11.49246
G01 X33.98136 Y11.33005
G01 X34.08072 Y11.22459
G01 X34.08072 Y10.90359
G01 X34.08072 Y11.50656
G01 X34.03706 Y11.54082
G01 X34.08072 Y11.50656
G01 X34.08072 Y11.52665
G01 X33.87750 Y11.59269
G01 X33.71133 Y11.63734
G01 X33.50742 Y11.68070
G01 X33.35789 Y11.70445
G01 X33.15405 Y11.72586
G01 X33.01260 Y11.73330
G01 X32.80884 Y11.73330
G01 X32.66739 Y11.72586
G01 X32.46356 Y11.70445
G01 X32.31408 Y11.68070
G01 X32.11019 Y11.63737
G01 X31.94402 Y11.59271
G01 X31.78444 Y11.54085
G01 X31.70631 Y11.47867
G01 X31.64710 Y11.41946
G01 X31.50719 Y11.26412
G01 X31.45452 Y11.19901
G01 X31.40890 Y11.12881
G01 X31.30438 Y10.94776
G01 X31.26635 Y10.87313
G01 X31.24598 Y10.82005
G01 X31.26635 Y10.78832
G01 X31.24598 Y10.82005
G01 X26.72057 Y10.82005
G01 X26.71424 Y10.80481
G01 X26.72057 Y10.82005
G01 X25.99428 Y11.54628
G01 X26.47713 Y11.34628
G01 X26.80339 Y11.02005
G01 X26.79710 Y11.00481
G01 X26.80339 Y11.02005
G01 X31.11705 Y11.02005
G01 X31.13130 Y10.99457
G01 X31.11705 Y11.02005
G01 X31.13117 Y11.04776
G01 X31.23569 Y11.22881
G01 X31.29269 Y11.31659
G01 X31.31896 Y11.34903
G01 X31.54672 Y11.45200
G01 X31.78444 Y11.54085
G01 X31.54672 Y11.45200
G01 X31.34245 Y11.36104
G01 X31.10908 Y11.24174
G01 X31.01764 Y11.18896
G01 X30.98502 Y11.17707
G01 X30.98622 Y11.17194
G01 X30.98502 Y11.17707
G01 X26.90921 Y11.17555
G01 X26.90847 Y11.17179
G01 X26.90921 Y11.17555
G01 X26.87096 Y11.18317
G01 X24.99913 Y11.95720
G01 X24.82463 Y12.01032
G01 X24.74815 Y12.02556
G01 X24.63053 Y12.03940
G01 X24.54866 Y12.04252
G01 X16.41535 Y12.04166
G01 X16.37880 Y12.04951
G01 X16.37789 Y12.04699
G01 X16.37880 Y12.04951
G01 X16.30720 Y12.09259
G01 X16.19729 Y12.15182
G01 X16.14091 Y12.21964
G01 X16.10982 Y12.24760
G01 X16.05000 Y12.28972
G01 X15.95480 Y12.33046
G01 X15.82498 Y12.34054
G01 X14.57500 Y12.34054
G01 X14.50865 Y12.33775
G01 X14.43593 Y12.32799
G01 X14.34998 Y12.28972
G01 X14.27388 Y12.23442
G01 X14.21094 Y12.16452
G01 X14.17340 Y12.10171
G01 X14.14025 Y12.01380
G01 X14.13113 Y11.96904
G01 X12.33159 Y11.96904
G01 X12.32476 Y11.99155
G01 X12.30629 Y12.02612
G01 X12.28140 Y12.05644
G01 X12.28666 Y12.05004
G01 X13.99565 Y12.05004
G01 X13.99687 Y12.04486
G01 X13.99565 Y12.05004
G01 X14.03182 Y12.05682
G01 X14.04835 Y12.06508
G01 X14.14104 Y12.12045
G01 X14.20268 Y12.15182
G01 X14.22410 Y12.18078
G01 X14.27388 Y12.23442
G01 X14.34998 Y12.28972
G01 X14.41637 Y12.32048
G01 X14.45638 Y12.33224
G01 X14.11368 Y12.33104
G01 X13.96715 Y12.25007
G01 X12.28671 Y12.25004
G01 X13.96715 Y12.25007
G01 X14.11368 Y12.33104
G01 X12.33159 Y12.33104
G01 X12.32476 Y12.30849
G01 X12.30629 Y12.27389
G01 X12.28140 Y12.24359
G01 X12.25110 Y12.21872
G01 X12.21653 Y12.20023
G01 X12.17901 Y12.18885
G01 X12.14000 Y12.18502
G01 X10.33998 Y12.18502
G01 X10.30096 Y12.18885
G01 X10.26345 Y12.20023
G01 X10.22888 Y12.21872
G01 X10.19327 Y12.25004
G01 X8.75329 Y12.25004
G01 X8.73998 Y12.38502
G01 X8.73998 Y13.18502
G01 X8.75329 Y13.32004
G01 X8.95329 Y13.32004
G01 X8.93998 Y13.18502
G01 X8.93998 Y12.38502
G01 X8.95327 Y12.25002
G01 X9.15329 Y12.25004
G01 X9.13998 Y12.38502
G01 X9.13998 Y13.18502
G01 X9.15329 Y13.32004
G01 X9.35329 Y13.32004
G01 X9.33998 Y13.18502
G01 X9.33998 Y12.38502
G01 X9.35329 Y12.25004
G01 X9.15329 Y12.25004
G01 X9.55329 Y12.25004
G01 X9.53998 Y12.38502
G01 X9.53998 Y13.18502
G01 X9.55329 Y13.32002
G01 X9.75695 Y13.32002
G01 X9.75151 Y13.30206
G01 X9.73998 Y13.18502
G01 X9.73998 Y12.38502
G01 X9.75151 Y12.26795
G01 X9.75695 Y12.25004
G01 X9.55329 Y12.25004
G01 X9.96495 Y12.25004
G01 X9.94768 Y12.30699
G01 X9.93998 Y12.38502
G01 X8.73998 Y12.38502
G01 X8.69998 Y12.25002
G01 X8.95327 Y12.25002
G01 X8.69998 Y12.25002
G01 X8.69998 Y13.32004
G01 X10.19332 Y13.32004
G01 X9.96492 Y13.32002
G01 X9.94768 Y13.26304
G01 X9.93998 Y13.18502
G01 X9.93998 Y12.38502
G01 X9.94768 Y12.30699
G01 X9.96495 Y12.25004
G01 X10.19327 Y12.25004
G01 X10.17368 Y12.27389
G01 X10.15522 Y12.30849
G01 X10.14384 Y12.34600
G01 X10.13998 Y12.38502
G01 X10.13998 Y13.18502
G01 X10.14384 Y13.22403
G01 X10.15522 Y13.26155
G01 X10.17368 Y13.29612
G01 X10.19332 Y13.32004
G01 X10.22888 Y13.35131
G01 X10.26345 Y13.36980
G01 X10.30096 Y13.38118
G01 X10.33998 Y13.38502
G01 X12.14000 Y13.38502
G01 X12.17901 Y13.38118
G01 X12.21653 Y13.36980
G01 X12.25110 Y13.35131
G01 X12.28140 Y13.32644
G01 X12.30629 Y13.29612
G01 X12.32476 Y13.26155
G01 X12.33159 Y13.23904
G01 X14.09303 Y13.23904
G01 X14.01988 Y13.27602
G01 X13.94452 Y13.32004
G01 X12.28666 Y13.32004
G01 X12.28140 Y13.32644
G01 X12.28666 Y13.32004
G01 X13.94452 Y13.32004
G01 X14.01988 Y13.27602
G01 X14.09303 Y13.23904
G01 X14.44320 Y13.23907
G01 X14.48323 Y13.23485
G01 X14.41094 Y13.24704
G01 X14.32498 Y13.28529
G01 X14.24889 Y13.34059
G01 X14.18036 Y13.41908
G01 X14.11320 Y13.45293
G01 X14.02519 Y13.50521
G01 X14.00875 Y13.51336
G01 X13.97281 Y13.52004
G01 X13.97398 Y13.52515
G01 X13.97281 Y13.52004
G01 X12.28671 Y13.52004
G01 X13.97281 Y13.52004
G01 X14.00875 Y13.51336
G01 X14.11320 Y13.45293
G01 X14.18036 Y13.41908
G01 X14.24889 Y13.34059
G01 X14.32498 Y13.28529
G01 X14.39138 Y13.25454
G01 X14.44320 Y13.23907
G01 X14.54998 Y13.23203
G01 X15.85000 Y13.23203
G01 X15.95648 Y13.23902
G01 X15.98904 Y13.24704
G01 X16.07499 Y13.28529
G01 X16.15109 Y13.34059
G01 X16.21403 Y13.41052
G01 X16.26107 Y13.49197
G01 X16.29016 Y13.58146
G01 X16.29674 Y13.63350
G01 X39.57444 Y13.63350
G01 X42.22312 Y10.98484
G01 X42.09991 Y10.84636
G01 X41.98398 Y10.64776
G01 X41.96699 Y10.60956
G01 X41.90072 Y10.40458
G01 X41.90072 Y10.90356
G01 X41.94845 Y10.97666
G01 X42.00573 Y10.98263
G01 X41.94845 Y10.97666
G01 X41.35137 Y11.57374
G01 X41.64223 Y11.28609
G01 X41.78970 Y11.13049
G01 X41.85884 Y11.04951
G01 X41.88894 Y11.00831
G01 X41.89417 Y11.01108
G01 X41.88894 Y11.00831
G01 X41.90225 Y10.96137
G01 X41.90072 Y10.40458
G01 X41.89369 Y10.36983
G01 X41.87073 Y10.14100
G01 X41.87073 Y9.39102
G01 X41.89696 Y9.14151
G01 X41.97448 Y8.90293
G01 X42.09991 Y8.68566
G01 X42.26778 Y8.49925
G01 X42.45317 Y8.36318
G01 X42.48972 Y8.34212
G01 X42.48972 Y7.36143
G01 X41.55932 Y6.43103
G01 X37.99999 Y6.43103
G01 X37.99890 Y6.49593
G01 X37.98473 Y6.58881
G01 X37.96108 Y6.65805
G01 X37.91404 Y6.73956
G01 X37.85110 Y6.80944
G01 X37.79255 Y6.85335
G01 X37.75633 Y6.87423
G01 X37.68905 Y6.90299
G01 X37.61770 Y6.91927
G01 X37.54998 Y6.92501
G01 X36.74998 Y6.92501
G01 X36.68227 Y6.91927
G01 X36.59139 Y6.89549
G01 X36.50744 Y6.85335
G01 X36.44887 Y6.80944
G01 X36.39911 Y6.75579
G01 X36.37452 Y6.72196
G01 X36.33888 Y6.65805
G01 X36.30983 Y6.56857
G01 X36.30000 Y6.47502
G01 X36.30000 Y5.64210
G01 X34.71194 Y4.05407
G01 X31.32035 Y4.05407
G01 X31.21083 Y4.04480
G01 X29.24431 Y4.04721
G01 X29.18332 Y4.05410
G01 X29.13202 Y4.06812
G01 X29.08038 Y4.09791
G01 X29.01444 Y4.15049
G01 X28.97388 Y4.19423
G01 X28.95891 Y4.22016
G01 X28.92234 Y4.29616
G01 X28.90479 Y4.35308
G01 X28.90479 Y4.49697
G01 X28.92234 Y4.55392
G01 X28.95891 Y4.62994
G01 X28.99252 Y4.67922
G01 X29.01444 Y4.69956
G01 X29.08038 Y4.75214
G01 X29.11926 Y4.77574
G01 X28.27284 Y4.77617
G01 X28.33634 Y4.74089
G01 X28.38355 Y4.70451
G01 X28.46661 Y4.58691
G01 X28.48515 Y4.53019
G01 X28.49907 Y4.44698
G01 X28.50004 Y4.38742
G01 X28.45988 Y4.24919
G01 X28.42709 Y4.19936
G01 X28.34919 Y4.11595
G01 X28.29808 Y4.08529
G01 X28.22216 Y4.05407
G01 X28.29808 Y4.08529
G01 X28.34919 Y4.11595
G01 X28.42709 Y4.19936
G01 X28.45104 Y4.23327
G01 X28.58200 Y4.31165
G01 X28.65284 Y4.36283
G01 X28.65165 Y4.36573
G01 X28.65284 Y4.36283
G01 X28.66948 Y4.36939
G01 X28.69900 Y4.37310
G01 X28.70174 Y4.42052
G01 X28.69633 Y4.48000
G01 X28.67949 Y4.57508
G01 X28.71802 Y4.57508
G01 X28.67949 Y4.57508
G01 X28.60733 Y4.64058
G01 X28.67949 Y4.57508
G01 X28.71802 Y4.57508
G01 X28.78668 Y4.63883
G01 X28.71802 Y4.57508
G01 X28.70702 Y4.52682
G01 X28.70255 Y4.46718
G01 X28.70489 Y4.37320
G01 X28.69900 Y4.37310
G01 X28.73936 Y4.36438
G01 X28.90321 Y4.25745
G01 X28.95259 Y4.23327
G01 X28.97388 Y4.19423
G01 X28.99252 Y4.17083
G01 X29.10509 Y4.08107
G01 X29.16057 Y4.05930
G01 X29.24431 Y4.04721
G01 X29.18332 Y4.05410
G01 X28.86379 Y4.05407
G01 X28.80136 Y4.08524
G01 X28.69989 Y4.15011
G01 X28.54073 Y4.05407
G01 X28.86379 Y4.05407
G01 X28.22216 Y4.05407
G01 X28.14464 Y4.04617
G01 X27.39237 Y4.04480
G01 X27.28772 Y4.05410
G01 X27.23801 Y4.05407
G01 X27.20858 Y4.08346
G01 X27.23987 Y4.06682
G01 X27.26496 Y4.05930
G01 X27.34871 Y4.04721
G01 X27.28772 Y4.05410
G01 X27.23987 Y4.06682
G01 X27.21802 Y4.07658
G01 X27.12282 Y4.15618
G01 X25.65610 Y5.62290
G01 X25.58938 Y5.70273
G01 X25.55399 Y5.73809
G01 X25.55397 Y5.77972
G01 X25.56433 Y5.74574
G01 X25.58938 Y5.70273
G01 X25.56433 Y5.74574
G01 X25.55577 Y5.76816
G01 X25.54472 Y5.89214
G01 X25.54582 Y6.93695
G01 X25.54211 Y7.05498
G01 X25.53339 Y7.10819
G01 X25.50878 Y7.18028
G01 X25.49316 Y7.21276
G01 X25.45242 Y7.27477
G01 X25.43032 Y7.30083
G01 X24.01453 Y8.71462
G01 X23.95649 Y8.76603
G01 X23.92999 Y8.78302
G01 X23.86172 Y8.81677
G01 X23.76840 Y8.84106
G01 X23.71892 Y8.84626
G01 X16.52747 Y8.84477
G01 X16.42389 Y8.85404
G01 X16.27042 Y8.85401
G01 X16.26516 Y8.89358
G01 X16.24380 Y8.96074
G01 X16.34525 Y8.88109
G01 X16.37217 Y8.86813
G01 X16.42389 Y8.85404
G01 X16.37217 Y8.86813
G01 X16.34525 Y8.88109
G01 X16.25460 Y8.95051
G01 X16.24380 Y8.96074
G01 X16.17573 Y9.06978
G01 X16.09582 Y9.14921
G01 X16.00044 Y9.20550
G01 X15.88967 Y9.23780
G01 X14.51879 Y9.23890
G01 X14.45798 Y9.22467
G01 X14.39951 Y9.20552
G01 X14.33758 Y9.17121
G01 X14.29478 Y9.14123
G01 X14.22544 Y9.07113
G01 X14.20705 Y9.04263
G01 X14.16890 Y8.97575
G01 X14.14866 Y8.91106
G01 X14.13741 Y8.86468
G01 X14.13420 Y8.80004
G01 X14.13420 Y8.00001
G01 X14.13888 Y7.92793
G01 X14.16888 Y7.82432
G01 X14.22547 Y7.72889
G01 X14.26573 Y7.68640
G01 X14.30413 Y7.65084
G01 X14.39951 Y7.59453
G01 X14.51025 Y7.56224
G01 X15.82478 Y7.55930
G01 X15.88967 Y7.56224
G01 X15.94197 Y7.57537
G01 X16.00044 Y7.59455
G01 X16.06242 Y7.62889
G01 X16.10522 Y7.65889
G01 X16.17449 Y7.72889
G01 X16.24220 Y7.83336
G01 X16.29933 Y7.89039
G01 X16.35127 Y7.91965
G01 X16.42053 Y7.94601
G01 X16.32419 Y7.90697
G01 X16.29933 Y7.89039
G01 X16.24220 Y7.83336
G01 X16.26516 Y7.90646
G01 X16.27042 Y7.94601
G01 X16.42053 Y7.94601
G01 X16.52744 Y7.95528
G01 X23.35827 Y7.95528
G01 X23.46187 Y7.94604
G01 X23.48494 Y7.94078
G01 X23.53190 Y7.92351
G01 X23.55479 Y7.90677
G01 X23.53190 Y7.92351
G01 X23.51003 Y7.93329
G01 X23.46187 Y7.94604
G01 X23.51194 Y7.94604
G01 X23.62712 Y7.84390
G01 X24.54386 Y6.92727
G01 X24.61049 Y6.84754
G01 X24.62321 Y6.82724
G01 X24.64069 Y6.79219
G01 X24.64851 Y6.75399
G01 X24.64069 Y6.79219
G01 X24.61049 Y6.84754
G01 X24.64597 Y6.81203
G01 X24.65521 Y6.65790
G01 X24.65412 Y5.61317
G01 X24.65783 Y5.49524
G01 X24.66654 Y5.44193
G01 X24.69116 Y5.36982
G01 X24.70680 Y5.33736
G01 X24.74752 Y5.27535
G01 X24.76964 Y5.24924
G01 X26.73545 Y3.28557
G01 X26.79222 Y3.23490
G01 X26.81996 Y3.21706
G01 X26.88823 Y3.18333
G01 X26.94447 Y3.16654
G01 X27.03105 Y3.15382
G01 X34.83668 Y3.15420
G01 X34.97744 Y3.15994
G01 X35.08024 Y3.19098
G01 X35.13190 Y3.21894
G01 X35.20074 Y3.26974
G01 X36.60183 Y4.67292
G01 X36.68148 Y4.73952
G01 X36.73678 Y4.76974
G01 X36.75826 Y4.77561
G01 X36.73678 Y4.76974
G01 X36.68148 Y4.73952
G01 X36.71839 Y4.77640
G01 X36.75308 Y4.77502
G01 X36.87068 Y4.78427
G01 X37.58595 Y4.78508
G01 X37.61462 Y4.78724
G01 X37.72545 Y4.81958
G01 X37.82082 Y4.87584
G01 X37.89951 Y4.95392
G01 X37.94427 Y5.02755
G01 X37.98315 Y5.10639
G01 X38.04383 Y5.18346
G01 X38.09044 Y5.21780
G01 X38.16487 Y5.25745
G01 X38.18714 Y5.26687
G01 X38.23319 Y5.27413
G01 X38.18714 Y5.26687
G01 X38.16487 Y5.25745
G01 X38.06588 Y5.20233
G01 X38.02473 Y5.16161
G01 X37.98315 Y5.10639
G01 X37.99016 Y5.13146
G01 X37.99890 Y5.20411
G01 X37.99999 Y5.26908
G01 X38.20081 Y5.26908
G01 X38.30853 Y5.27830
G01 X41.77883 Y5.27634
G01 X41.92561 Y5.29011
G01 X42.00138 Y5.31460
G01 X42.04121 Y5.32996
G01 X42.10169 Y5.36479
G01 X42.16316 Y5.40634
G01 X43.46173 Y6.70037
G01 X43.55789 Y6.81805
G01 X43.61192 Y6.93227
G01 X43.64113 Y7.06430
G01 X43.64248 Y8.13847
G01 X43.65170 Y8.24228
G01 X43.65172 Y8.34212
G01 X43.68830 Y8.36318
G01 X43.73600 Y8.39785
G01 X43.67788 Y8.31947
G01 X43.66549 Y8.29325
G01 X43.65170 Y8.24228
G01 X43.65172 Y8.34212
G01 X43.68830 Y8.36318
G01 X43.73600 Y8.39785
G01 X43.88248 Y8.51944
G01 X43.91286 Y8.54888
G01 X44.02251 Y8.67471
G01 X44.07580 Y8.74240
G01 X44.14314 Y8.79315
G01 X44.19556 Y8.82152
G01 X44.33674 Y8.84972
G01 X44.39604 Y8.84362
G01 X44.50435 Y8.81375
G01 X44.55258 Y8.78530
G01 X44.60547 Y8.74314
G01 X44.51448 Y8.90293
G01 X44.44237 Y9.12129
G01 X44.43369 Y9.16219
G01 X44.41184 Y9.37011
G01 X44.41073 Y10.14100
G01 X44.43369 Y10.36983
G01 X44.44072 Y10.40453
G01 X44.44072 Y11.20166
G01 X44.62269 Y11.27511
G01 X44.82645 Y11.34131
G01 X44.92952 Y11.36902
G01 X45.13381 Y11.41243
G01 X45.22274 Y11.42657
G01 X45.42652 Y11.44799
G01 X45.50877 Y11.45230
G01 X45.71268 Y11.45230
G01 X45.79490 Y11.44799
G01 X45.99873 Y11.42657
G01 X46.08796 Y11.41240
G01 X46.29187 Y11.36904
G01 X46.39480 Y11.34138
G01 X46.50445 Y11.30575
G01 X46.62901 Y11.19157
G01 X46.78075 Y11.03117
G01 X46.78075 Y10.40460
G01 X46.78451 Y10.39051
G01 X46.78075 Y10.40460
G01 X46.78075 Y10.90354
G01 X46.74336 Y10.96391
G01 X46.71702 Y10.99645
G01 X46.54753 Y11.18141
G01 X46.34585 Y11.33064
G01 X46.27128 Y11.37344
G01 X46.08796 Y11.41240
G01 X45.99873 Y11.42657
G01 X45.79490 Y11.44799
G01 X45.71268 Y11.45230
G01 X45.50877 Y11.45230
G01 X45.42652 Y11.44799
G01 X45.22274 Y11.42657
G01 X45.13381 Y11.41243
G01 X44.95009 Y11.37339
G01 X44.87562 Y11.33064
G01 X44.67395 Y11.18141
G01 X44.50445 Y10.99645
G01 X44.47811 Y10.96391
G01 X44.44072 Y10.90351
G01 X44.44072 Y10.40453
G01 X44.51448 Y10.62909
G01 X44.62850 Y10.82881
G01 X44.65309 Y10.86262
G01 X44.80778 Y11.03280
G01 X44.99317 Y11.16884
G01 X45.02939 Y11.18974
G01 X45.22038 Y11.27478
G01 X45.26013 Y11.28769
G01 X45.48530 Y11.33445
G01 X45.73617 Y11.33445
G01 X45.98156 Y11.28228
G01 X46.21075 Y11.18024
G01 X46.41369 Y11.03280
G01 X46.58156 Y10.84636
G01 X46.70699 Y10.62909
G01 X46.78451 Y10.39051
G01 X46.81075 Y10.14100
G01 X46.80965 Y9.37011
G01 X46.78778 Y9.16219
G01 X46.77910 Y9.12129
G01 X46.70699 Y8.90293
G01 X46.61590 Y8.74296
G01 X46.68248 Y8.79315
G01 X46.73490 Y8.82152
G01 X46.84641 Y8.84606
G01 X46.90594 Y8.84888
G01 X47.04366 Y8.81375
G01 X47.09190 Y8.78533
G01 X47.14597 Y8.74223
G01 X47.19896 Y8.67471
G01 X47.30859 Y8.54886
G01 X47.33896 Y8.51947
G01 X47.46345 Y8.41929
G01 X47.53835 Y8.37029
G01 X47.63749 Y8.31698
G01 X47.80170 Y8.25180
G01 X48.00612 Y8.20809
G01 X48.06071 Y8.20303
G01 X48.27800 Y8.20499
G01 X48.47536 Y8.24464
G01 X48.53762 Y8.26506
G01 X48.66396 Y8.31698
G01 X48.76314 Y8.37029
G01 X48.83800 Y8.41929
G01 X48.93228 Y8.49315
G01 X48.99286 Y8.54888
G01 X49.12702 Y8.70669
G01 X49.23132 Y8.88787
G01 X49.29626 Y9.06663
G01 X49.31902 Y9.16310
G01 X49.33406 Y9.26414
G01 X49.34389 Y9.50351
G01 X49.35072 Y9.56407
G01 X49.36482 Y9.61581
G01 X49.39461 Y9.66745
G01 X49.44719 Y9.73338
G01 X49.49090 Y9.77392
G01 X49.52992 Y9.79521
G01 X49.55402 Y9.84448
G01 X49.60185 Y9.92061
G01 X49.69939 Y10.04878
G01 X50.75077 Y10.04751
G01 X50.87724 Y10.02124
G01 X50.93433 Y10.00361
G01 X50.98818 Y9.97768
G01 X51.03759 Y9.94400
G01 X51.10352 Y9.89142
G01 X51.14995 Y9.84748
G01 X51.10352 Y9.89142
G01 X51.03759 Y9.94400
G01 X50.98818 Y9.97768
G01 X50.93433 Y10.00361
G01 X50.87724 Y10.02124
G01 X50.75077 Y10.04751
G01 X49.69939 Y10.04878
G01 X49.97945 Y10.36369
G01 X50.17167 Y10.60265
G01 X50.38074 Y10.89038
G01 X50.61234 Y11.25002
G01 X50.70599 Y11.25004
G01 X50.88516 Y11.23996
G01 X51.06210 Y11.20991
G01 X51.14995 Y11.18939
G01 X51.14995 Y10.98068
G01 X51.01757 Y11.01492
G01 X50.86276 Y11.04123
G01 X50.70599 Y11.05004
G01 X50.48366 Y11.05004
G01 X50.35140 Y10.85002
G01 X50.70599 Y10.85004
G01 X50.84035 Y10.84248
G01 X50.97307 Y10.81995
G01 X51.05529 Y10.80117
G01 X51.14995 Y10.77196
G01 X51.14995 Y10.56323
G01 X51.01076 Y10.60618
G01 X50.92854 Y10.62495
G01 X50.81798 Y10.64375
G01 X50.70599 Y10.65004
G01 X50.20609 Y10.65002
G01 X50.04909 Y10.45005
G01 X50.70599 Y10.45005
G01 X50.79557 Y10.44499
G01 X50.96626 Y10.41121
G01 X51.08049 Y10.37595
G01 X51.14995 Y10.34250
G01 X51.14995 Y10.10877
G01 X51.08818 Y10.15088
G01 X51.00741 Y10.18980
G01 X50.92174 Y10.21621
G01 X50.77317 Y10.24626
G01 X50.70599 Y10.25005
G01 X49.87714 Y10.25002
G01 X49.70353 Y10.05421
G01 X49.60185 Y9.92061
G01 X49.55402 Y9.84448
G01 X49.52992 Y9.79521
G01 X49.62420 Y9.83747
G01 X49.72174 Y9.85005
G01 X50.70599 Y9.85005
G01 X50.75049 Y9.84502
G01 X50.83271 Y9.82625
G01 X50.88818 Y9.80448
G01 X51.00073 Y9.71472
G01 X51.03433 Y9.66546
G01 X51.07094 Y9.58947
G01 X51.08292 Y9.55805
G01 X51.08948 Y9.52508
G01 X51.09550 Y9.46051
G01 X51.09550 Y1.59400
G01 X51.09047 Y1.54950
G01 X51.07170 Y1.46728
G01 X51.04993 Y1.41181
G01 X50.98051 Y1.32116
G01 X50.93677 Y1.28059
G01 X50.83487 Y1.22906
G01 X50.80347 Y1.21709
G01 X50.70599 Y1.20452
G01 X1.59400 Y1.20452
G01 X1.54952 Y1.20953
G01 X1.43873 Y1.23708
G01 X1.38704 Y1.26693
G01 X1.29920 Y1.33985
G01 X1.26565 Y1.38908
G01 X1.21703 Y1.49647
G01 X1.20446 Y1.59400
G01 X1.14998 Y1.20711
G01 X1.19638 Y1.16320
G01 X1.21287 Y1.15001
G01 X1.14998 Y1.20711
G01 X1.20446 Y1.59400
G01 X1.20446 Y44.70601
G01 X1.20949 Y44.75054
G01 X1.23708 Y44.86130
G01 X1.26687 Y44.91294
G01 X1.33979 Y45.00078
G01 X1.38904 Y45.03438
G01 X1.49646 Y45.08297
G01 X1.59400 Y45.09554
G01 X50.70599 Y45.09554
G01 X50.75049 Y45.09051
G01 X50.83271 Y45.07174
G01 X50.88818 Y45.04998
G01 X50.97884 Y44.98056
G01 X51.01937 Y44.93684
G01 X51.07094 Y44.83496
G01 X51.08292 Y44.80355
G01 X51.09550 Y44.70601
G01 X51.09423 Y28.31714
G01 X51.06288 Y28.18425
G01 X51.03309 Y28.13261
G01 X50.98051 Y28.06667
G01 X50.93680 Y28.02613
G01 X50.83492 Y27.97457
G01 X50.80350 Y27.96258
G01 X50.70599 Y27.95001
G01 X49.71247 Y27.95001
G01 X49.66794 Y27.95504
G01 X49.58572 Y27.97381
G01 X49.52883 Y27.99654
G01 X49.62435 Y27.84473
G01 X49.68658 Y27.76670
G01 X49.78488 Y27.65728
G01 X49.89215 Y27.55001
G01 X50.70599 Y27.55001
G01 X50.77315 Y27.55380
G01 X50.91424 Y27.57823
G01 X51.00848 Y27.61420
G01 X51.08447 Y27.65080
G01 X51.14995 Y27.68859
G01 X51.14995 Y27.95837
G01 X51.09621 Y27.89817
G01 X51.04947 Y27.86088
G01 X50.99771 Y27.83099
G01 X50.92171 Y27.79438
G01 X50.85887 Y27.77041
G01 X50.79291 Y27.75727
G01 X50.70599 Y27.75001
G01 X49.70099 Y27.75067
G01 X49.62435 Y27.84473
G01 X49.52883 Y27.99654
G01 X49.43960 Y28.06500
G01 X49.39906 Y28.10871
G01 X49.34315 Y28.22364
G01 X49.35075 Y28.14102
G01 X49.35075 Y27.90541
G01 X49.45839 Y27.73233
G01 X49.55075 Y27.61862
G01 X49.55075 Y27.39101
G01 X49.52669 Y27.14130
G01 X49.50932 Y27.05949
G01 X49.44470 Y26.86068
G01 X49.41069 Y26.78428
G01 X49.28336 Y26.56812
G01 X49.08753 Y26.35060
G01 X48.85075 Y26.17859
G01 X48.62245 Y26.07455
G01 X48.54292 Y26.04869
G01 X48.33843 Y26.00523
G01 X48.25527 Y25.99650
G01 X48.00439 Y25.99868
G01 X47.75855 Y26.04869
G01 X47.67902 Y26.07455
G01 X47.48804 Y26.15956
G01 X47.41562 Y26.20137
G01 X47.21395 Y26.35060
G01 X47.04445 Y26.53559
G01 X47.01811 Y26.56812
G01 X46.98072 Y26.62850
G01 X46.98072 Y26.30747
G01 X47.08014 Y26.20198
G01 X47.12893 Y26.16246
G01 X47.29807 Y26.03957
G01 X47.35075 Y26.00536
G01 X47.40671 Y25.97686
G01 X47.65631 Y25.86932
G01 X47.71697 Y25.85306
G01 X47.98349 Y25.79977
G01 X48.04620 Y25.79650
G01 X48.31798 Y25.79977
G01 X48.58450 Y25.85306
G01 X48.64516 Y25.86932
G01 X48.70381 Y25.89182
G01 X48.95075 Y26.00536
G01 X49.17254 Y26.16246
G01 X49.22136 Y26.20198
G01 X49.40564 Y26.40175
G01 X49.44516 Y26.45055
G01 X49.47937 Y26.50323
G01 X49.58389 Y26.68428
G01 X49.61242 Y26.74023
G01 X49.63492 Y26.79886
G01 X49.71577 Y27.05834
G01 X49.74744 Y27.32829
G01 X49.75075 Y27.40858
G01 X49.63807 Y27.52146
G01 X49.55075 Y27.61862
G01 X49.64175 Y27.51760
G01 X49.83807 Y27.32126
G01 X49.93675 Y27.21618
G01 X49.92451 Y27.09947
G01 X49.91140 Y27.01676
G01 X49.88973 Y26.93589
G01 X49.82512 Y26.73706
G01 X49.79512 Y26.65888
G01 X49.75710 Y26.58428
G01 X49.65257 Y26.40323
G01 X49.60696 Y26.33300
G01 X49.55428 Y26.26792
G01 X49.41437 Y26.11257
G01 X49.35517 Y26.05334
G01 X49.29009 Y26.00066
G01 X49.12098 Y25.87778
G01 X49.05075 Y25.83216
G01 X48.97612 Y25.79416
G01 X48.78514 Y25.70912
G01 X48.70696 Y25.67912
G01 X48.62608 Y25.65743
G01 X48.42159 Y25.61397
G01 X48.33889 Y25.60087
G01 X48.25527 Y25.59650
G01 X48.04620 Y25.59650
G01 X47.96258 Y25.60087
G01 X47.87988 Y25.61397
G01 X47.67539 Y25.65743
G01 X47.59451 Y25.67912
G01 X47.51633 Y25.70912
G01 X47.32535 Y25.79416
G01 X47.25075 Y25.83216
G01 X47.18052 Y25.87778
G01 X46.98072 Y26.02548
G01 X46.98072 Y25.77572
G01 X47.06294 Y25.71598
G01 X47.15072 Y25.65896
G01 X47.24399 Y25.61143
G01 X47.43498 Y25.52642
G01 X47.53272 Y25.48890
G01 X47.63381 Y25.46180
G01 X47.83830 Y25.41834
G01 X47.94168 Y25.40196
G01 X48.04620 Y25.39650
G01 X48.25527 Y25.39650
G01 X48.35979 Y25.40196
G01 X48.46317 Y25.41834
G01 X48.66766 Y25.46180
G01 X48.76878 Y25.48890
G01 X48.86649 Y25.52642
G01 X49.05748 Y25.61143
G01 X49.15075 Y25.65896
G01 X49.23853 Y25.71598
G01 X49.40764 Y25.83884
G01 X49.48900 Y25.90473
G01 X49.56301 Y25.97874
G01 X49.70289 Y26.13409
G01 X49.76878 Y26.21544
G01 X49.82578 Y26.30323
G01 X49.93030 Y26.48428
G01 X49.97782 Y26.57755
G01 X50.01534 Y26.67526
G01 X50.07993 Y26.87409
G01 X50.10703 Y26.97518
G01 X50.11402 Y27.01930
G01 X49.93675 Y27.21618
G01 X50.12664 Y27.00531
G01 X50.27307 Y26.82319
G01 X50.20556 Y26.61346
G01 X50.16055 Y26.49619
G01 X50.10353 Y26.38428
G01 X49.99898 Y26.20323
G01 X49.93058 Y26.09789
G01 X49.85153 Y26.00028
G01 X49.71163 Y25.84491
G01 X49.62283 Y25.75609
G01 X49.52522 Y25.67704
G01 X49.35608 Y25.55416
G01 X49.25075 Y25.48575
G01 X49.13883 Y25.42873
G01 X48.94783 Y25.34369
G01 X48.83058 Y25.29868
G01 X48.70924 Y25.26617
G01 X48.50475 Y25.22271
G01 X48.38069 Y25.20308
G01 X48.25527 Y25.19650
G01 X48.04620 Y25.19650
G01 X47.92078 Y25.20308
G01 X47.79672 Y25.22271
G01 X47.59223 Y25.26617
G01 X47.47089 Y25.29868
G01 X47.35365 Y25.34369
G01 X47.16266 Y25.42873
G01 X47.05072 Y25.48575
G01 X46.98072 Y25.53122
G01 X46.98072 Y25.29728
G01 X47.08131 Y25.24603
G01 X47.27229 Y25.16099
G01 X47.40909 Y25.10849
G01 X47.55065 Y25.07054
G01 X47.75514 Y25.02708
G01 X47.89987 Y25.00417
G01 X48.04620 Y24.99650
G01 X48.25527 Y24.99650
G01 X48.40160 Y25.00417
G01 X48.54635 Y25.02708
G01 X48.75082 Y25.07054
G01 X48.89238 Y25.10849
G01 X49.02918 Y25.16099
G01 X49.22016 Y25.24603
G01 X49.35075 Y25.31255
G01 X49.47363 Y25.39236
G01 X49.64277 Y25.51524
G01 X49.75666 Y25.60747
G01 X49.86027 Y25.71108
G01 X50.00015 Y25.86645
G01 X50.09237 Y25.98032
G01 X50.17218 Y26.10323
G01 X50.27673 Y26.28428
G01 X50.34325 Y26.41483
G01 X50.39575 Y26.55166
G01 X50.42199 Y26.63241
G01 X50.27307 Y26.82319
G01 X50.38013 Y26.69007
G01 X50.58778 Y26.40429
G01 X51.14995 Y25.61009
G01 X51.14998 Y23.15002
G01 X46.98072 Y23.15002
G01 X46.98072 Y27.12746
G01 X46.98072 Y23.15002
G01 X50.78800 Y23.15005
G01 X51.00187 Y23.28891
G01 X51.14995 Y23.39650
G01 X51.14995 Y23.65177
G01 X51.05346 Y23.57362
G01 X50.88432 Y23.45073
G01 X50.55074 Y23.23409
G01 X50.38577 Y23.15005
G01 X49.92098 Y23.15002
G01 X50.11498 Y23.23623
G01 X50.45074 Y23.40730
G01 X50.76677 Y23.61253
G01 X50.93588 Y23.73541
G01 X51.14995 Y23.90877
G01 X51.14995 Y24.17621
G01 X51.09491 Y24.12116
G01 X50.81833 Y23.89721
G01 X50.64922 Y23.77433
G01 X50.35074 Y23.58050
G01 X50.03365 Y23.41893
G01 X49.84267 Y23.33389
G01 X49.51041 Y23.20636
G01 X49.30017 Y23.15005
G01 X47.00130 Y23.15005
G01 X46.98072 Y23.15556
G01 X46.98072 Y23.36231
G01 X47.17640 Y23.30989
G01 X47.38090 Y23.26643
G01 X47.71171 Y23.21403
G01 X48.04620 Y23.19650
G01 X48.25527 Y23.19650
G01 X48.58976 Y23.21403
G01 X48.92057 Y23.26643
G01 X49.12507 Y23.30989
G01 X49.44861 Y23.39658
G01 X49.76131 Y23.51662
G01 X49.95229 Y23.60163
G01 X50.25074 Y23.75370
G01 X50.53164 Y23.93612
G01 X50.70078 Y24.05901
G01 X50.96108 Y24.26980
G01 X51.14995 Y24.45865
G01 X51.14995 Y24.75228
G01 X51.04929 Y24.64047
G01 X50.82725 Y24.41844
G01 X50.58323 Y24.22081
G01 X50.41409 Y24.09795
G01 X50.15074 Y23.92690
G01 X49.87094 Y23.78436
G01 X49.67996 Y23.69932
G01 X49.38681 Y23.58680
G01 X49.08349 Y23.50552
G01 X48.87899 Y23.46206
G01 X48.56886 Y23.41294
G01 X48.25527 Y23.39650
G01 X48.04620 Y23.39650
G01 X47.73261 Y23.41294
G01 X47.42248 Y23.46206
G01 X47.21798 Y23.50552
G01 X46.98072 Y23.56909
G01 X46.98072 Y23.77585
G01 X47.25956 Y23.70115
G01 X47.46406 Y23.65769
G01 X47.75352 Y23.61182
G01 X48.04620 Y23.59650
G01 X48.25527 Y23.59650
G01 X48.54795 Y23.61182
G01 X48.83741 Y23.65769
G01 X49.04191 Y23.70115
G01 X49.32499 Y23.77699
G01 X49.59862 Y23.88202
G01 X49.78961 Y23.96706
G01 X50.05074 Y24.10011
G01 X50.29654 Y24.25975
G01 X50.46568 Y24.38263
G01 X50.69344 Y24.56706
G01 X50.90068 Y24.77430
G01 X51.04056 Y24.92967
G01 X51.14995 Y25.06477
G01 X51.14995 Y25.40856
G01 X51.06319 Y25.27498
G01 X50.89194 Y25.06348
G01 X50.75204 Y24.90813
G01 X50.55961 Y24.71570
G01 X50.34810 Y24.54443
G01 X50.17899 Y24.42154
G01 X49.95074 Y24.27331
G01 X49.70825 Y24.14976
G01 X49.51727 Y24.06475
G01 X49.26319 Y23.96721
G01 X49.00033 Y23.89678
G01 X48.79583 Y23.85329
G01 X48.52705 Y23.81072
G01 X48.25527 Y23.79650
G01 X48.04620 Y23.79650
G01 X47.77445 Y23.81072
G01 X47.50564 Y23.85329
G01 X47.30114 Y23.89678
G01 X47.03828 Y23.96721
G01 X46.98072 Y23.98931
G01 X46.98072 Y24.20323
G01 X47.10008 Y24.15741
G01 X47.34272 Y24.09241
G01 X47.54722 Y24.04893
G01 X47.79535 Y24.00963
G01 X48.04620 Y23.99650
G01 X48.25527 Y23.99650
G01 X48.50615 Y24.00963
G01 X48.75425 Y24.04893
G01 X48.95875 Y24.09241
G01 X49.20139 Y24.15741
G01 X49.43591 Y24.24745
G01 X49.62689 Y24.33247
G01 X49.85074 Y24.44654
G01 X50.06141 Y24.58334
G01 X50.23055 Y24.70623
G01 X50.42578 Y24.86432
G01 X50.60342 Y25.04196
G01 X50.74330 Y25.19731
G01 X50.90139 Y25.39253
G01 X51.03822 Y25.60323
G01 X51.08988 Y25.69274
G01 X50.96332 Y25.87351
G01 X50.86502 Y25.70323
G01 X50.73959 Y25.51011
G01 X50.59469 Y25.33114
G01 X50.45478 Y25.17577
G01 X50.29194 Y25.01296
G01 X50.11300 Y24.86802
G01 X49.94386 Y24.74514
G01 X49.75075 Y24.61974
G01 X49.54556 Y24.51519
G01 X49.35458 Y24.43015
G01 X49.13960 Y24.34763
G01 X48.91717 Y24.28804
G01 X48.71267 Y24.24456
G01 X48.48524 Y24.20854
G01 X48.25527 Y24.19650
G01 X48.04620 Y24.19650
G01 X47.81626 Y24.20854
G01 X47.58880 Y24.24456
G01 X47.38430 Y24.28804
G01 X47.16188 Y24.34763
G01 X46.98072 Y24.41717
G01 X46.98072 Y24.63401
G01 X47.22370 Y24.53785
G01 X47.42591 Y24.48367
G01 X47.63038 Y24.44019
G01 X47.83716 Y24.40745
G01 X48.04620 Y24.39650
G01 X48.25527 Y24.39650
G01 X48.46431 Y24.40745
G01 X48.67109 Y24.44019
G01 X48.87559 Y24.48367
G01 X49.07780 Y24.53785
G01 X49.27323 Y24.61286
G01 X49.46421 Y24.69790
G01 X49.65075 Y24.79294
G01 X49.82631 Y24.90696
G01 X49.99545 Y25.02982
G01 X50.15814 Y25.16157
G01 X50.30617 Y25.30960
G01 X50.44604 Y25.46498
G01 X50.57779 Y25.62766
G01 X50.69181 Y25.80323
G01 X50.79634 Y25.98428
G01 X50.83395 Y26.05814
G01 X50.70345 Y26.24194
G01 X50.62313 Y26.08428
G01 X50.51861 Y25.90323
G01 X50.41600 Y25.74521
G01 X50.29740 Y25.59878
G01 X50.15753 Y25.44344
G01 X50.02430 Y25.31021
G01 X49.87787 Y25.19165
G01 X49.70876 Y25.06876
G01 X49.55075 Y24.96615
G01 X49.38285 Y24.88060
G01 X49.19187 Y24.79558
G01 X49.01597 Y24.72805
G01 X48.83398 Y24.67930
G01 X48.62951 Y24.63582
G01 X48.44341 Y24.60635
G01 X48.25527 Y24.59650
G01 X48.04620 Y24.59650
G01 X47.85806 Y24.60635
G01 X47.67196 Y24.63582
G01 X47.46749 Y24.67930
G01 X47.28550 Y24.72805
G01 X47.10960 Y24.79558
G01 X46.98072 Y24.85296
G01 X46.98072 Y25.07310
G01 X47.19093 Y24.97829
G01 X47.34730 Y24.91827
G01 X47.50907 Y24.87491
G01 X47.71354 Y24.83145
G01 X47.87897 Y24.80526
G01 X48.04620 Y24.79650
G01 X48.25527 Y24.79650
G01 X48.42250 Y24.80526
G01 X48.58793 Y24.83145
G01 X48.79240 Y24.87491
G01 X48.95418 Y24.91827
G01 X49.11054 Y24.97829
G01 X49.30152 Y25.06333
G01 X49.45075 Y25.13935
G01 X49.59118 Y25.23056
G01 X49.76032 Y25.35344
G01 X49.89047 Y25.45883
G01 X50.00891 Y25.57727
G01 X50.14879 Y25.73262
G01 X50.25417 Y25.86277
G01 X50.34538 Y26.00323
G01 X50.44993 Y26.18428
G01 X50.52595 Y26.33350
G01 X50.56509 Y26.43548
G01 X50.38013 Y26.69007
G01 X50.12664 Y27.00531
G01 X49.92034 Y27.23444
G01 X49.63807 Y27.52146
G01 X49.53581 Y27.63525
G01 X49.45870 Y27.73254
G01 X49.35075 Y27.90541
G01 X49.35075 Y28.14102
G01 X49.34315 Y28.22364
G01 X49.31905 Y28.36893
G01 X49.29629 Y28.46538
G01 X49.23132 Y28.64419
G01 X49.12446 Y28.82971
G01 X48.99286 Y28.98318
G01 X48.91869 Y29.05956
G01 X48.89713 Y29.08821
G01 X48.86934 Y29.13893
G01 X48.85875 Y29.17833
G01 X48.86934 Y29.13893
G01 X48.88138 Y29.11257
G01 X48.91869 Y29.05956
G01 X48.85875 Y29.10312
G01 X48.85875 Y29.17833
G01 X48.84948 Y29.28615
G01 X48.85108 Y35.85670
G01 X48.84191 Y36.01644
G01 X48.82060 Y36.10107
G01 X48.79261 Y36.17951
G01 X48.72230 Y36.30516
G01 X48.61580 Y36.42464
G01 X44.42533 Y40.61511
G01 X44.28606 Y40.73525
G01 X44.18042 Y40.79243
G01 X44.04077 Y40.83683
G01 X43.85734 Y40.85037
G01 X26.23532 Y40.84877
G01 X26.13174 Y40.85804
G01 X25.99181 Y40.85801
G01 X25.96232 Y40.95476
G01 X26.05310 Y40.88509
G01 X26.08003 Y40.87213
G01 X26.13174 Y40.85804
G01 X26.08003 Y40.87213
G01 X26.05310 Y40.88509
G01 X25.96268 Y40.95433
G01 X25.90136 Y41.04409
G01 X25.83017 Y41.11623
G01 X25.78737 Y41.14620
G01 X25.72544 Y41.18051
G01 X25.70520 Y41.18791
G01 X25.61467 Y41.21282
G01 X25.57612 Y41.21508
G01 X24.68529 Y41.21282
G01 X24.57452 Y41.18051
G01 X24.47912 Y41.12420
G01 X24.40043 Y41.04615
G01 X24.34389 Y40.95075
G01 X24.31389 Y40.84714
G01 X24.30924 Y40.77500
G01 X24.30924 Y39.52502
G01 X24.31242 Y39.46045
G01 X24.34391 Y39.34928
G01 X24.40043 Y39.25390
G01 X24.44074 Y39.21138
G01 X24.47912 Y39.17584
G01 X24.57452 Y39.11953
G01 X24.63296 Y39.10038
G01 X24.69380 Y39.08613
G01 X25.54965 Y39.08428
G01 X25.61470 Y39.08725
G01 X25.72544 Y39.11953
G01 X25.82085 Y39.17584
G01 X25.89948 Y39.25387
G01 X25.95798 Y39.33774
G01 X26.00718 Y39.38639
G01 X26.05912 Y39.41565
G01 X26.12839 Y39.44201
G01 X26.03205 Y39.40297
G01 X26.00718 Y39.38639
G01 X25.95798 Y39.33774
G01 X25.98473 Y39.41123
G01 X25.99184 Y39.44201
G01 X26.12839 Y39.44201
G01 X26.23532 Y39.45128
G01 X43.45302 Y39.45128
G01 X43.55652 Y39.44204
G01 X43.60671 Y39.44201
G01 X43.64951 Y39.40279
G01 X43.62670 Y39.41948
G01 X43.60481 Y39.42929
G01 X43.55652 Y39.44204
G01 X43.60481 Y39.42929
G01 X43.62670 Y39.41948
G01 X43.72193 Y39.33990
G01 X47.34062 Y35.72122
G01 X47.40721 Y35.64154
G01 X47.44272 Y35.60603
G01 X47.44272 Y35.56424
G01 X47.43744 Y35.58627
G01 X47.40721 Y35.64154
G01 X47.43744 Y35.58627
G01 X47.44181 Y35.57021
G01 X47.45197 Y35.45233
G01 X47.45197 Y29.28615
G01 X47.44270 Y29.18247
G01 X47.43744 Y29.15943
G01 X47.41656 Y29.10551
G01 X47.38461 Y29.06090
G01 X47.41656 Y29.10551
G01 X47.42896 Y29.13172
G01 X47.44270 Y29.18247
G01 X47.44272 Y29.10312
G01 X47.38461 Y29.06090
G01 X47.30859 Y28.98318
G01 X47.19896 Y28.85735
G01 X47.14620 Y28.79022
G01 X47.07864 Y28.73929
G01 X47.02621 Y28.71092
G01 X46.89134 Y28.68349
G01 X46.88047 Y28.67381
G01 X46.86924 Y28.68313
G01 X46.89134 Y28.68349
G01 X46.85520 Y28.68354
G01 X46.82581 Y28.68879
G01 X46.74412 Y28.70977
G01 X46.69231 Y28.73121
G01 X46.61529 Y28.79009
G01 X46.56249 Y28.85737
G01 X46.45286 Y28.98318
G01 X46.37869 Y29.05956
G01 X46.35713 Y29.08821
G01 X46.34138 Y29.11257
G01 X46.32124 Y29.16680
G01 X46.31159 Y29.24582
G01 X46.31872 Y29.17833
G01 X46.32934 Y29.13893
G01 X46.34138 Y29.11257
G01 X46.37869 Y29.05956
G01 X46.31875 Y29.10312
G01 X46.31872 Y29.17833
G01 X46.30948 Y29.28615
G01 X46.31105 Y34.39671
G01 X46.30191 Y34.55645
G01 X46.28060 Y34.64106
G01 X46.25261 Y34.71954
G01 X46.18230 Y34.84517
G01 X46.07582 Y34.96463
G01 X43.42531 Y37.61514
G01 X43.28606 Y37.73526
G01 X43.15586 Y37.80259
G01 X43.01799 Y37.84077
G01 X42.85734 Y37.85037
G01 X26.23532 Y37.84880
G01 X26.13156 Y37.85807
G01 X25.99181 Y37.85804
G01 X25.96232 Y37.95479
G01 X26.05308 Y37.88509
G01 X26.08005 Y37.87209
G01 X26.13156 Y37.85807
G01 X26.08005 Y37.87209
G01 X26.05308 Y37.88509
G01 X25.96265 Y37.95436
G01 X25.90139 Y38.04407
G01 X25.82082 Y38.12421
G01 X25.72544 Y38.18052
G01 X25.61470 Y38.21280
G01 X24.72385 Y38.21509
G01 X24.68526 Y38.21280
G01 X24.57452 Y38.18052
G01 X24.47912 Y38.12421
G01 X24.44069 Y38.08862
G01 X24.40043 Y38.04613
G01 X24.34389 Y37.95075
G01 X24.31389 Y37.84715
G01 X24.30975 Y37.79500
G01 X24.30924 Y36.52502
G01 X24.31389 Y36.45291
G01 X24.34389 Y36.34928
G01 X24.40045 Y36.25388
G01 X24.44071 Y36.21139
G01 X24.47912 Y36.17585
G01 X24.57452 Y36.11954
G01 X24.63296 Y36.10039
G01 X24.69380 Y36.08614
G01 X25.54965 Y36.08428
G01 X25.61467 Y36.08723
G01 X25.72544 Y36.11954
G01 X25.82082 Y36.17585
G01 X25.89948 Y36.25391
G01 X25.95796 Y36.33770
G01 X26.00716 Y36.38637
G01 X26.05907 Y36.41563
G01 X26.12847 Y36.44202
G01 X26.03202 Y36.40293
G01 X26.00716 Y36.38637
G01 X25.95796 Y36.33770
G01 X25.98473 Y36.41123
G01 X25.99184 Y36.44202
G01 X26.12847 Y36.44202
G01 X26.22206 Y36.45103
G01 X42.45305 Y36.45129
G01 X42.55642 Y36.44207
G01 X42.61693 Y36.42431
G01 X42.63610 Y36.41260
G01 X42.61693 Y36.42431
G01 X42.55642 Y36.44207
G01 X42.60672 Y36.44204
G01 X42.72193 Y36.33991
G01 X44.80062 Y34.26122
G01 X44.86729 Y34.18144
G01 X44.90275 Y34.14601
G01 X44.90526 Y34.08802
G01 X44.89744 Y34.12627
G01 X44.86729 Y34.18144
G01 X44.89744 Y34.12627
G01 X44.90181 Y34.11022
G01 X44.91197 Y33.99234
G01 X44.91197 Y29.28615
G01 X44.90270 Y29.18249
G01 X44.90272 Y29.10312
G01 X44.84461 Y29.06090
G01 X44.87656 Y29.10551
G01 X44.88896 Y29.13172
G01 X44.90270 Y29.18249
G01 X44.88896 Y29.13172
G01 X44.86051 Y29.08138
G01 X44.76859 Y28.98318
G01 X44.65896 Y28.85735
G01 X44.60620 Y28.79022
G01 X44.53864 Y28.73929
G01 X44.48621 Y28.71092
G01 X44.35134 Y28.68349
G01 X44.34047 Y28.67381
G01 X44.32922 Y28.68313
G01 X44.35134 Y28.68349
G01 X44.31520 Y28.68354
G01 X44.28581 Y28.68879
G01 X44.20412 Y28.70977
G01 X44.15231 Y28.73121
G01 X44.07527 Y28.79012
G01 X44.02249 Y28.85737
G01 X43.91286 Y28.98318
G01 X43.83869 Y29.05956
G01 X43.80138 Y29.11257
G01 X43.78934 Y29.13893
G01 X43.77872 Y29.17856
G01 X43.78934 Y29.13893
G01 X43.80138 Y29.11257
G01 X43.83869 Y29.05956
G01 X43.77875 Y29.10314
G01 X43.77872 Y29.17856
G01 X43.76948 Y29.28618
G01 X43.77031 Y31.92925
G01 X43.76427 Y32.02389
G01 X43.75698 Y32.06994
G01 X43.72274 Y32.18503
G01 X43.68710 Y32.26024
G01 X43.64230 Y32.33517
G01 X43.53585 Y32.45460
G01 X41.34439 Y34.64448
G01 X41.23606 Y34.73524
G01 X41.13044 Y34.79241
G01 X41.00504 Y34.83288
G01 X40.96712 Y34.84090
G01 X40.80740 Y34.85038
G01 X26.23532 Y34.84878
G01 X26.13162 Y34.85805
G01 X25.99181 Y34.85802
G01 X25.96232 Y34.95477
G01 X26.05310 Y34.88507
G01 X26.08003 Y34.87212
G01 X26.13162 Y34.85805
G01 X26.08003 Y34.87212
G01 X26.05310 Y34.88507
G01 X25.96268 Y34.95431
G01 X25.90136 Y35.04408
G01 X25.82082 Y35.12421
G01 X25.72544 Y35.18053
G01 X25.61470 Y35.21281
G01 X25.54965 Y35.21576
G01 X24.69380 Y35.21390
G01 X24.63307 Y35.19970
G01 X24.57452 Y35.18053
G01 X24.47912 Y35.12421
G01 X24.44071 Y35.08865
G01 X24.40043 Y35.04614
G01 X24.34389 Y34.95073
G01 X24.31389 Y34.84713
G01 X24.30924 Y34.77502
G01 X24.31165 Y33.46887
G01 X24.33904 Y33.36402
G01 X24.35565 Y33.32760
G01 X24.40045 Y33.25389
G01 X24.46974 Y33.18383
G01 X24.51259 Y33.15386
G01 X24.57452 Y33.11955
G01 X24.68529 Y33.08724
G01 X24.72352 Y33.08498
G01 X25.54965 Y33.08429
G01 X25.61467 Y33.08724
G01 X25.72544 Y33.11955
G01 X25.82082 Y33.17583
G01 X25.89948 Y33.25391
G01 X25.95796 Y33.33768
G01 X26.00716 Y33.38637
G01 X26.05907 Y33.41563
G01 X26.12841 Y33.44202
G01 X26.03202 Y33.40293
G01 X26.00716 Y33.38637
G01 X25.95796 Y33.33768
G01 X25.98473 Y33.41124
G01 X25.99184 Y33.44202
G01 X26.12841 Y33.44202
G01 X26.22206 Y33.45104
G01 X40.40304 Y33.45129
G01 X40.50659 Y33.44202
G01 X40.55671 Y33.44202
G01 X40.59953 Y33.40278
G01 X40.56697 Y33.42432
G01 X40.50659 Y33.44202
G01 X40.56697 Y33.42432
G01 X40.58129 Y33.41614
G01 X40.67190 Y33.33989
G01 X42.26062 Y31.75122
G01 X42.32726 Y31.67147
G01 X42.36272 Y31.63601
G01 X42.36524 Y31.57804
G01 X42.35744 Y31.61627
G01 X42.32726 Y31.67147
G01 X42.35744 Y31.61627
G01 X42.36178 Y31.60029
G01 X42.37197 Y31.48234
G01 X42.37197 Y29.28615
G01 X42.36270 Y29.18249
G01 X42.36272 Y29.10312
G01 X42.30458 Y29.06088
G01 X42.33656 Y29.10551
G01 X42.34896 Y29.13172
G01 X42.36270 Y29.18249
G01 X42.34896 Y29.13172
G01 X42.32051 Y29.08138
G01 X42.22859 Y28.98318
G01 X42.11896 Y28.85735
G01 X42.06597 Y28.79004
G01 X41.97349 Y28.72314
G01 X41.91741 Y28.70289
G01 X41.81134 Y28.68349
G01 X41.80047 Y28.67381
G01 X41.78922 Y28.68313
G01 X41.81134 Y28.68349
G01 X41.77520 Y28.68354
G01 X41.74581 Y28.68879
G01 X41.66412 Y28.70977
G01 X41.61231 Y28.73121
G01 X41.53529 Y28.79009
G01 X41.48249 Y28.85737
G01 X41.37286 Y28.98318
G01 X41.29869 Y29.05956
G01 X41.26138 Y29.11257
G01 X41.24934 Y29.13893
G01 X41.23872 Y29.17856
G01 X41.24934 Y29.13893
G01 X41.26138 Y29.11257
G01 X41.29869 Y29.05956
G01 X41.23875 Y29.10314
G01 X41.23872 Y29.17856
G01 X41.22948 Y29.28615
G01 X41.23105 Y30.12671
G01 X41.22404 Y30.26382
G01 X41.21698 Y30.30992
G01 X41.18277 Y30.42501
G01 X41.14710 Y30.50025
G01 X41.10230 Y30.57518
G01 X40.99580 Y30.69463
G01 X40.03044 Y31.65704
G01 X39.93606 Y31.73522
G01 X39.83044 Y31.79242
G01 X39.70504 Y31.83286
G01 X39.66710 Y31.84088
G01 X39.50738 Y31.85036
G01 X26.23532 Y31.84878
G01 X26.13172 Y31.85803
G01 X25.99181 Y31.85800
G01 X25.96232 Y31.95475
G01 X26.05310 Y31.88508
G01 X26.08003 Y31.87213
G01 X26.13172 Y31.85803
G01 X26.08003 Y31.87213
G01 X26.05310 Y31.88508
G01 X25.96268 Y31.95432
G01 X25.90136 Y32.04408
G01 X25.82082 Y32.12422
G01 X25.72544 Y32.18051
G01 X25.61467 Y32.21282
G01 X25.54965 Y32.21576
G01 X24.69380 Y32.21391
G01 X24.63296 Y32.19966
G01 X24.57452 Y32.18051
G01 X24.47912 Y32.12422
G01 X24.44071 Y32.08866
G01 X24.40043 Y32.04614
G01 X24.34389 Y31.95074
G01 X24.31389 Y31.84713
G01 X24.30924 Y31.77502
G01 X24.30975 Y30.50502
G01 X24.31389 Y30.45293
G01 X24.34389 Y30.34929
G01 X24.40045 Y30.25389
G01 X24.44071 Y30.21140
G01 X24.47912 Y30.17584
G01 X24.57452 Y30.11953
G01 X24.68526 Y30.08724
G01 X24.72352 Y30.08496
G01 X25.54965 Y30.08430
G01 X25.61470 Y30.08724
G01 X25.72544 Y30.11953
G01 X25.82082 Y30.17584
G01 X25.89948 Y30.25392
G01 X25.95796 Y30.33771
G01 X26.00716 Y30.38638
G01 X26.05907 Y30.41564
G01 X26.12834 Y30.44203
G01 X26.03202 Y30.40294
G01 X26.00716 Y30.38638
G01 X25.95796 Y30.33771
G01 X25.98473 Y30.41122
G01 X25.99184 Y30.44203
G01 X26.12834 Y30.44203
G01 X26.22206 Y30.45105
G01 X39.10301 Y30.45128
G01 X39.20662 Y30.44203
G01 X39.22976 Y30.43675
G01 X39.26692 Y30.42433
G01 X39.29948 Y30.40284
G01 X39.26692 Y30.42433
G01 X39.20662 Y30.44203
G01 X39.25671 Y30.44200
G01 X39.37190 Y30.33990
G01 X39.72062 Y29.99123
G01 X39.78729 Y29.91142
G01 X39.82272 Y29.87599
G01 X39.82526 Y29.81803
G01 X39.81744 Y29.85623
G01 X39.78729 Y29.91142
G01 X39.81744 Y29.85623
G01 X39.82526 Y29.81803
G01 X39.83062 Y29.75453
G01 X39.82956 Y29.24317
G01 X39.82270 Y29.18247
G01 X39.80896 Y29.13172
G01 X39.79656 Y29.10551
G01 X39.76461 Y29.06090
G01 X39.79656 Y29.10551
G01 X39.80896 Y29.13172
G01 X39.82270 Y29.18247
G01 X39.82272 Y29.10312
G01 X39.76461 Y29.06090
G01 X39.68859 Y28.98318
G01 X39.57896 Y28.85735
G01 X39.52620 Y28.79022
G01 X39.45864 Y28.73929
G01 X39.40621 Y28.71092
G01 X39.27134 Y28.68349
G01 X39.26047 Y28.67381
G01 X39.24922 Y28.68313
G01 X39.27134 Y28.68349
G01 X39.23520 Y28.68354
G01 X39.20581 Y28.68879
G01 X39.09745 Y28.71866
G01 X39.04914 Y28.74714
G01 X38.99529 Y28.79009
G01 X38.94249 Y28.85737
G01 X38.83286 Y28.98316
G01 X38.80246 Y29.01259
G01 X38.67800 Y29.11275
G01 X38.60314 Y29.16174
G01 X38.50396 Y29.21508
G01 X38.33974 Y29.28028
G01 X38.13530 Y29.32397
G01 X38.08074 Y29.32900
G01 X37.88620 Y29.32786
G01 X37.84615 Y29.32397
G01 X37.64173 Y29.28028
G01 X37.47752 Y29.21506
G01 X37.37833 Y29.16174
G01 X37.30345 Y29.11275
G01 X37.20916 Y29.03891
G01 X37.14859 Y28.98316
G01 X37.03896 Y28.85735
G01 X36.98620 Y28.79022
G01 X36.91864 Y28.73929
G01 X36.86621 Y28.71092
G01 X36.73134 Y28.68349
G01 X36.72047 Y28.67381
G01 X36.70924 Y28.68313
G01 X36.73134 Y28.68349
G01 X36.69520 Y28.68354
G01 X36.58412 Y28.70977
G01 X36.55745 Y28.71866
G01 X36.50914 Y28.74714
G01 X36.45529 Y28.79009
G01 X36.40249 Y28.85737
G01 X36.29286 Y28.98316
G01 X36.26246 Y29.01259
G01 X36.13800 Y29.11275
G01 X36.02857 Y29.18186
G01 X35.96396 Y29.21508
G01 X35.79974 Y29.28028
G01 X35.59530 Y29.32397
G01 X35.55527 Y29.32862
G01 X35.34620 Y29.32786
G01 X35.30615 Y29.32397
G01 X35.10173 Y29.28028
G01 X34.93752 Y29.21506
G01 X34.83833 Y29.16174
G01 X34.76345 Y29.11275
G01 X34.66916 Y29.03891
G01 X34.60859 Y28.98316
G01 X34.49896 Y28.85735
G01 X34.44620 Y28.79022
G01 X34.37864 Y28.73929
G01 X34.32621 Y28.71092
G01 X34.19134 Y28.68349
G01 X34.18047 Y28.67381
G01 X34.16924 Y28.68313
G01 X34.19134 Y28.68349
G01 X34.15520 Y28.68354
G01 X34.12581 Y28.68879
G01 X34.01745 Y28.71866
G01 X33.96914 Y28.74714
G01 X33.91529 Y28.79009
G01 X33.96914 Y28.74714
G01 X34.01745 Y28.71866
G01 X34.12581 Y28.68879
G01 X34.18507 Y28.68272
G01 X34.32621 Y28.71092
G01 X34.37864 Y28.73929
G01 X34.44636 Y28.79042
G01 X34.35448 Y28.62910
G01 X34.32169 Y28.53175
G01 X34.28072 Y28.49680
G01 X34.28072 Y28.40454
G01 X34.32169 Y28.53175
G01 X34.27696 Y28.39050
G01 X34.25073 Y28.14102
G01 X34.25073 Y27.39101
G01 X34.27369 Y27.16220
G01 X34.28072 Y27.12748
G01 X34.28072 Y26.30747
G01 X34.38014 Y26.20198
G01 X34.42893 Y26.16246
G01 X34.65075 Y26.00536
G01 X34.89769 Y25.89182
G01 X34.95631 Y25.86932
G01 X35.01697 Y25.85306
G01 X35.28349 Y25.79977
G01 X35.55527 Y25.79650
G01 X35.61798 Y25.79977
G01 X35.68001 Y25.80960
G01 X35.94516 Y25.86932
G01 X36.19479 Y25.97686
G01 X36.25075 Y26.00536
G01 X36.30340 Y26.03957
G01 X36.47254 Y26.16246
G01 X36.52136 Y26.20198
G01 X36.62072 Y26.30744
G01 X36.62072 Y26.02545
G01 X36.42098 Y25.87778
G01 X36.35075 Y25.83216
G01 X36.27612 Y25.79416
G01 X36.08514 Y25.70912
G01 X36.00696 Y25.67912
G01 X35.92608 Y25.65743
G01 X35.72159 Y25.61397
G01 X35.63889 Y25.60087
G01 X35.55527 Y25.59650
G01 X35.34620 Y25.59650
G01 X35.26258 Y25.60087
G01 X35.17988 Y25.61397
G01 X34.97539 Y25.65743
G01 X34.89451 Y25.67912
G01 X34.81633 Y25.70912
G01 X34.62535 Y25.79416
G01 X34.55075 Y25.83216
G01 X34.48052 Y25.87778
G01 X34.28072 Y26.02548
G01 X34.28072 Y26.30747
G01 X34.28072 Y25.77569
G01 X34.36294 Y25.71598
G01 X34.45072 Y25.65896
G01 X34.54399 Y25.61143
G01 X34.73498 Y25.52642
G01 X34.83272 Y25.48890
G01 X34.93381 Y25.46180
G01 X35.13830 Y25.41834
G01 X35.24168 Y25.40196
G01 X35.34620 Y25.39650
G01 X35.55527 Y25.39650
G01 X35.65979 Y25.40196
G01 X35.76317 Y25.41834
G01 X35.96766 Y25.46180
G01 X36.06878 Y25.48890
G01 X36.16649 Y25.52642
G01 X36.35748 Y25.61143
G01 X36.45075 Y25.65896
G01 X36.53853 Y25.71598
G01 X36.62072 Y25.77569
G01 X36.62072 Y25.53122
G01 X36.55075 Y25.48575
G01 X36.43883 Y25.42873
G01 X36.24783 Y25.34369
G01 X36.13058 Y25.29868
G01 X36.00924 Y25.26617
G01 X35.80475 Y25.22271
G01 X35.68069 Y25.20308
G01 X35.55527 Y25.19650
G01 X35.34620 Y25.19650
G01 X35.25794 Y25.20112
G01 X35.06764 Y25.24778
G01 X34.70719 Y25.32312
G01 X34.65365 Y25.34369
G01 X34.46266 Y25.42873
G01 X34.35072 Y25.48575
G01 X34.28072 Y25.53122
G01 X34.28072 Y25.77569
G01 X34.28072 Y25.42002
G01 X34.42207 Y25.38403
G01 X35.07097 Y25.24699
G01 X35.46947 Y25.14936
G01 X35.87897 Y25.03401
G01 X36.05082 Y25.07054
G01 X36.19238 Y25.10849
G01 X36.32918 Y25.16099
G01 X36.52016 Y25.24603
G01 X36.62072 Y25.29726
G01 X36.62072 Y25.07310
G01 X36.41054 Y24.97829
G01 X36.27701 Y24.92703
G01 X36.11966 Y24.96452
G01 X35.87897 Y25.03401
G01 X36.11966 Y24.96452
G01 X36.52390 Y24.86820
G01 X36.61646 Y24.85103
G01 X36.62072 Y24.85294
G01 X36.61646 Y24.85103
G01 X36.62072 Y24.85024
G01 X36.62072 Y27.12738
G01 X36.62072 Y26.62845
G01 X36.58336 Y26.56812
G01 X36.55702 Y26.53559
G01 X36.38753 Y26.35060
G01 X36.15075 Y26.17859
G01 X35.88336 Y26.05954
G01 X35.59708 Y25.99868
G01 X35.34620 Y25.99650
G01 X35.26304 Y26.00523
G01 X35.01811 Y26.05954
G01 X34.78804 Y26.15956
G01 X34.71562 Y26.20137
G01 X34.54648 Y26.32426
G01 X34.48435 Y26.38021
G01 X34.34445 Y26.53559
G01 X34.31811 Y26.56812
G01 X34.28072 Y26.62847
G01 X34.28072 Y27.12748
G01 X34.35448 Y26.90292
G01 X34.46850 Y26.70323
G01 X34.49309 Y26.66939
G01 X34.63297 Y26.51405
G01 X34.66406 Y26.48606
G01 X34.85075 Y26.35179
G01 X35.06038 Y26.25725
G01 X35.10013 Y26.24432
G01 X35.32530 Y26.19759
G01 X35.57617 Y26.19759
G01 X35.82156 Y26.24973
G01 X36.05075 Y26.35179
G01 X36.25369 Y26.49924
G01 X36.42156 Y26.68567
G01 X36.54699 Y26.90292
G01 X36.62451 Y27.14153
G01 X36.65075 Y27.39101
G01 X36.65075 Y28.14102
G01 X36.62451 Y28.39050
G01 X36.58031 Y28.53012
G01 X36.62451 Y28.39050
G01 X36.62072 Y28.40464
G01 X36.62072 Y28.49708
G01 X36.58031 Y28.53012
G01 X36.54699 Y28.62910
G01 X36.45529 Y28.79009
G01 X36.50914 Y28.74714
G01 X36.55745 Y28.71866
G01 X36.66581 Y28.68879
G01 X36.72507 Y28.68272
G01 X36.86621 Y28.71092
G01 X36.91864 Y28.73929
G01 X36.98636 Y28.79042
G01 X36.89448 Y28.62910
G01 X36.86169 Y28.53175
G01 X36.82072 Y28.49680
G01 X36.82072 Y28.40454
G01 X36.86169 Y28.53175
G01 X36.81696 Y28.39050
G01 X36.79073 Y28.14102
G01 X36.79073 Y27.39101
G01 X36.81369 Y27.16220
G01 X36.82072 Y27.12748
G01 X36.82072 Y26.62850
G01 X36.85811 Y26.56812
G01 X36.88445 Y26.53559
G01 X37.05395 Y26.35060
G01 X37.29075 Y26.17859
G01 X37.55811 Y26.05954
G01 X37.84439 Y25.99868
G01 X38.09527 Y25.99650
G01 X38.17843 Y26.00523
G01 X38.42336 Y26.05954
G01 X38.65343 Y26.15956
G01 X38.72585 Y26.20137
G01 X38.92753 Y26.35060
G01 X39.09702 Y26.53559
G01 X39.12336 Y26.56812
G01 X39.16072 Y26.62845
G01 X39.16072 Y26.30744
G01 X39.06136 Y26.20198
G01 X39.01254 Y26.16246
G01 X38.79075 Y26.00536
G01 X38.54381 Y25.89182
G01 X38.48516 Y25.86932
G01 X38.42450 Y25.85306
G01 X38.15798 Y25.79977
G01 X38.09527 Y25.79650
G01 X37.82349 Y25.79977
G01 X37.55697 Y25.85306
G01 X37.49631 Y25.86932
G01 X37.43769 Y25.89182
G01 X37.19075 Y26.00536
G01 X36.96893 Y26.16246
G01 X36.92014 Y26.20198
G01 X36.82072 Y26.30747
G01 X36.82072 Y26.62850
G01 X36.82072 Y26.02548
G01 X37.02052 Y25.87778
G01 X37.09075 Y25.83216
G01 X37.16535 Y25.79416
G01 X37.35633 Y25.70912
G01 X37.43451 Y25.67912
G01 X37.51539 Y25.65743
G01 X37.71988 Y25.61397
G01 X37.80259 Y25.60087
G01 X37.88620 Y25.59650
G01 X38.09527 Y25.59650
G01 X38.17889 Y25.60087
G01 X38.26159 Y25.61397
G01 X38.46608 Y25.65743
G01 X38.54696 Y25.67912
G01 X38.62514 Y25.70912
G01 X38.81612 Y25.79416
G01 X38.89075 Y25.83216
G01 X38.96098 Y25.87778
G01 X39.16072 Y26.02545
G01 X39.16072 Y25.77569
G01 X39.07853 Y25.71598
G01 X38.99075 Y25.65896
G01 X38.89748 Y25.61143
G01 X38.70649 Y25.52642
G01 X38.60878 Y25.48890
G01 X38.50766 Y25.46180
G01 X38.30317 Y25.41834
G01 X38.19979 Y25.40196
G01 X38.09527 Y25.39650
G01 X37.88620 Y25.39650
G01 X37.78168 Y25.40196
G01 X37.67830 Y25.41834
G01 X37.47381 Y25.46180
G01 X37.37272 Y25.48890
G01 X37.27498 Y25.52642
G01 X37.08399 Y25.61143
G01 X36.99072 Y25.65896
G01 X36.90294 Y25.71598
G01 X36.82072 Y25.77572
G01 X36.82072 Y26.02548
G01 X36.82072 Y25.53122
G01 X36.89073 Y25.48575
G01 X37.00266 Y25.42873
G01 X37.19365 Y25.34369
G01 X37.31089 Y25.29868
G01 X37.43223 Y25.26617
G01 X37.63672 Y25.22271
G01 X37.76078 Y25.20308
G01 X37.88620 Y25.19650
G01 X38.09527 Y25.19650
G01 X38.22069 Y25.20308
G01 X38.34475 Y25.22271
G01 X38.54924 Y25.26617
G01 X38.67058 Y25.29868
G01 X38.78783 Y25.34369
G01 X38.97883 Y25.42873
G01 X39.09075 Y25.48575
G01 X39.16072 Y25.53122
G01 X39.16072 Y25.29726
G01 X39.06016 Y25.24603
G01 X38.86918 Y25.16099
G01 X38.73238 Y25.10849
G01 X38.59082 Y25.07054
G01 X38.38635 Y25.02708
G01 X38.24160 Y25.00417
G01 X38.09527 Y24.99650
G01 X37.88620 Y24.99650
G01 X37.73987 Y25.00417
G01 X37.59514 Y25.02708
G01 X37.39065 Y25.07054
G01 X37.24909 Y25.10849
G01 X37.11229 Y25.16099
G01 X36.92131 Y25.24603
G01 X36.82072 Y25.29726
G01 X36.82072 Y25.53122
G01 X36.82072 Y25.07310
G01 X37.03093 Y24.97829
G01 X37.18730 Y24.91827
G01 X37.34907 Y24.87491
G01 X37.55354 Y24.83145
G01 X37.71897 Y24.80526
G01 X37.88620 Y24.79650
G01 X38.09527 Y24.79650
G01 X38.26250 Y24.80526
G01 X38.42793 Y24.83145
G01 X38.63240 Y24.87491
G01 X38.79418 Y24.91827
G01 X38.95054 Y24.97829
G01 X39.16072 Y25.07310
G01 X39.16072 Y24.85294
G01 X39.03187 Y24.79558
G01 X38.85597 Y24.72805
G01 X38.67398 Y24.67930
G01 X38.46951 Y24.63582
G01 X38.28341 Y24.60635
G01 X38.09527 Y24.59650
G01 X37.88620 Y24.59650
G01 X37.69806 Y24.60635
G01 X37.51196 Y24.63582
G01 X37.30749 Y24.67930
G01 X37.12550 Y24.72805
G01 X36.94960 Y24.79558
G01 X36.82072 Y24.85294
G01 X36.82072 Y25.07310
G01 X36.82072 Y24.78263
G01 X36.92801 Y24.70889
G01 X37.31529 Y24.47313
G01 X37.47038 Y24.44019
G01 X37.67716 Y24.40745
G01 X37.88620 Y24.39650
G01 X38.09527 Y24.39650
G01 X38.30431 Y24.40745
G01 X38.51109 Y24.44019
G01 X38.71559 Y24.48367
G01 X38.91780 Y24.53785
G01 X39.16072 Y24.63401
G01 X39.16072 Y24.41717
G01 X38.97960 Y24.34763
G01 X38.75717 Y24.28804
G01 X38.55267 Y24.24456
G01 X38.32524 Y24.20854
G01 X38.09527 Y24.19650
G01 X37.87129 Y24.19726
G01 X37.48430 Y24.38139
G01 X37.31529 Y24.47313
G01 X37.48430 Y24.38139
G01 X37.92684 Y24.17085
G01 X38.30721 Y24.00760
G01 X38.34614 Y24.00963
G01 X38.59425 Y24.04893
G01 X38.79875 Y24.09241
G01 X39.04139 Y24.15741
G01 X39.16072 Y24.20323
G01 X39.16072 Y23.98929
G01 X39.10319 Y23.96721
G01 X38.84033 Y23.89678
G01 X38.65933 Y23.85830
G01 X38.30721 Y24.00760
G01 X38.69819 Y23.84184
G01 X38.96385 Y23.72309
G01 X39.16072 Y23.77585
G01 X38.96385 Y23.72309
G01 X39.16072 Y23.63371
G01 X39.16072 Y27.12738
G01 X39.08699 Y26.90292
G01 X38.97297 Y26.70323
G01 X38.94838 Y26.66939
G01 X38.80850 Y26.51405
G01 X38.77744 Y26.48606
G01 X38.59075 Y26.35179
G01 X38.36156 Y26.24973
G01 X38.11617 Y26.19759
G01 X37.88620 Y26.19650
G01 X37.84462 Y26.20086
G01 X37.64013 Y26.24432
G01 X37.60038 Y26.25725
G01 X37.39075 Y26.35179
G01 X37.18778 Y26.49924
G01 X37.03309 Y26.66939
G01 X37.00850 Y26.70323
G01 X36.89448 Y26.90292
G01 X36.82072 Y27.12748
G01 X36.89448 Y26.90292
G01 X37.00850 Y26.70323
G01 X37.03309 Y26.66939
G01 X37.17297 Y26.51405
G01 X37.20406 Y26.48606
G01 X37.39075 Y26.35179
G01 X37.60038 Y26.25725
G01 X37.64013 Y26.24432
G01 X37.86530 Y26.19759
G01 X38.11617 Y26.19759
G01 X38.36156 Y26.24973
G01 X38.59075 Y26.35179
G01 X38.79369 Y26.49924
G01 X38.96156 Y26.68567
G01 X39.08699 Y26.90292
G01 X39.16451 Y27.14153
G01 X39.19075 Y27.39101
G01 X39.19075 Y28.14102
G01 X39.16778 Y28.36982
G01 X39.16072 Y28.40464
G01 X39.16072 Y28.49708
G01 X39.12031 Y28.53012
G01 X39.16072 Y28.40464
G01 X39.08699 Y28.62910
G01 X38.99529 Y28.79009
G01 X39.04914 Y28.74714
G01 X39.09745 Y28.71866
G01 X39.20581 Y28.68879
G01 X39.26507 Y28.68272
G01 X39.40621 Y28.71092
G01 X39.45864 Y28.73929
G01 X39.52636 Y28.79042
G01 X39.43448 Y28.62910
G01 X39.40172 Y28.53177
G01 X39.36072 Y28.49680
G01 X39.36072 Y28.40454
G01 X39.40172 Y28.53177
G01 X39.35696 Y28.39050
G01 X39.33184 Y28.16192
G01 X39.33073 Y27.39101
G01 X39.35369 Y27.16220
G01 X39.36072 Y27.12746
G01 X39.36072 Y26.30744
G01 X39.46014 Y26.20198
G01 X39.50893 Y26.16246
G01 X39.67807 Y26.03957
G01 X39.73075 Y26.00536
G01 X39.78671 Y25.97686
G01 X40.03631 Y25.86932
G01 X40.09697 Y25.85306
G01 X40.36349 Y25.79977
G01 X40.42620 Y25.79650
G01 X40.69798 Y25.79977
G01 X40.96450 Y25.85306
G01 X41.02516 Y25.86932
G01 X41.08381 Y25.89182
G01 X41.33075 Y26.00536
G01 X41.55254 Y26.16246
G01 X41.60136 Y26.20198
G01 X41.70072 Y26.30744
G01 X41.70072 Y26.02545
G01 X41.50098 Y25.87778
G01 X41.43075 Y25.83216
G01 X41.35612 Y25.79416
G01 X41.16514 Y25.70912
G01 X41.08696 Y25.67912
G01 X41.00608 Y25.65743
G01 X40.80159 Y25.61397
G01 X40.71889 Y25.60087
G01 X40.63527 Y25.59650
G01 X40.42620 Y25.59650
G01 X40.34258 Y25.60087
G01 X40.25988 Y25.61397
G01 X40.05539 Y25.65743
G01 X39.97451 Y25.67912
G01 X39.89633 Y25.70912
G01 X39.70535 Y25.79416
G01 X39.63075 Y25.83216
G01 X39.56052 Y25.87778
G01 X39.36072 Y26.02545
G01 X39.36072 Y26.30744
G01 X39.36072 Y25.77569
G01 X39.44294 Y25.71598
G01 X39.53072 Y25.65896
G01 X39.62399 Y25.61143
G01 X39.81498 Y25.52642
G01 X39.91272 Y25.48890
G01 X40.01381 Y25.46180
G01 X40.21830 Y25.41834
G01 X40.32168 Y25.40196
G01 X40.42620 Y25.39650
G01 X40.63527 Y25.39650
G01 X40.73979 Y25.40196
G01 X40.84317 Y25.41834
G01 X41.04766 Y25.46180
G01 X41.14878 Y25.48890
G01 X41.24649 Y25.52642
G01 X41.43748 Y25.61143
G01 X41.53075 Y25.65896
G01 X41.61853 Y25.71598
G01 X41.70072 Y25.77569
G01 X41.70072 Y25.53122
G01 X41.63075 Y25.48575
G01 X41.51883 Y25.42873
G01 X41.32783 Y25.34369
G01 X41.21058 Y25.29868
G01 X41.08924 Y25.26617
G01 X40.88475 Y25.22271
G01 X40.76069 Y25.20308
G01 X40.63527 Y25.19650
G01 X40.42620 Y25.19650
G01 X40.30078 Y25.20308
G01 X40.17672 Y25.22271
G01 X39.97223 Y25.26617
G01 X39.85089 Y25.29868
G01 X39.73365 Y25.34369
G01 X39.54266 Y25.42873
G01 X39.43073 Y25.48575
G01 X39.36072 Y25.53119
G01 X39.36072 Y25.77569
G01 X39.36072 Y25.29723
G01 X39.46131 Y25.24603
G01 X39.65229 Y25.16099
G01 X39.78909 Y25.10849
G01 X39.93065 Y25.07054
G01 X40.13514 Y25.02708
G01 X40.27987 Y25.00417
G01 X40.42620 Y24.99650
G01 X40.63527 Y24.99650
G01 X40.78160 Y25.00417
G01 X40.92635 Y25.02708
G01 X41.13082 Y25.07054
G01 X41.27238 Y25.10849
G01 X41.40918 Y25.16099
G01 X41.60016 Y25.24603
G01 X41.70072 Y25.29726
G01 X41.70072 Y25.07310
G01 X41.49054 Y24.97829
G01 X41.33418 Y24.91827
G01 X41.17240 Y24.87491
G01 X40.96793 Y24.83145
G01 X40.80250 Y24.80526
G01 X40.63527 Y24.79650
G01 X40.42620 Y24.79650
G01 X40.25897 Y24.80526
G01 X40.09354 Y24.83145
G01 X39.88907 Y24.87491
G01 X39.72730 Y24.91827
G01 X39.57093 Y24.97829
G01 X39.36072 Y25.07308
G01 X39.36072 Y25.29723
G01 X39.36072 Y24.85291
G01 X39.48960 Y24.79558
G01 X39.66550 Y24.72805
G01 X39.84749 Y24.67930
G01 X40.05196 Y24.63582
G01 X40.23806 Y24.60635
G01 X40.42620 Y24.59650
G01 X40.63527 Y24.59650
G01 X40.82341 Y24.60635
G01 X41.00951 Y24.63582
G01 X41.21398 Y24.67930
G01 X41.39597 Y24.72805
G01 X41.57187 Y24.79558
G01 X41.70072 Y24.85294
G01 X41.70072 Y24.63401
G01 X41.45780 Y24.53785
G01 X41.25559 Y24.48367
G01 X41.05109 Y24.44019
G01 X40.84431 Y24.40745
G01 X40.63527 Y24.39650
G01 X40.42620 Y24.39650
G01 X40.21716 Y24.40745
G01 X40.01038 Y24.44019
G01 X39.80591 Y24.48367
G01 X39.60370 Y24.53785
G01 X39.36072 Y24.63399
G01 X39.36072 Y24.85291
G01 X39.36072 Y24.41715
G01 X39.54188 Y24.34763
G01 X39.76430 Y24.28804
G01 X39.96880 Y24.24456
G01 X40.19626 Y24.20854
G01 X40.42620 Y24.19650
G01 X40.63527 Y24.19650
G01 X40.86524 Y24.20854
G01 X41.09267 Y24.24456
G01 X41.29717 Y24.28804
G01 X41.51960 Y24.34763
G01 X41.70072 Y24.41717
G01 X41.70072 Y24.20323
G01 X41.58139 Y24.15741
G01 X41.33875 Y24.09241
G01 X41.13425 Y24.04893
G01 X40.88614 Y24.00963
G01 X40.63527 Y23.99650
G01 X40.42620 Y23.99650
G01 X40.17535 Y24.00963
G01 X39.92722 Y24.04893
G01 X39.72272 Y24.09241
G01 X39.48008 Y24.15741
G01 X39.36072 Y24.20321
G01 X39.36072 Y24.41715
G01 X39.36072 Y23.98926
G01 X39.41828 Y23.96721
G01 X39.68114 Y23.89678
G01 X39.88564 Y23.85329
G01 X40.15445 Y23.81072
G01 X40.42620 Y23.79650
G01 X40.63527 Y23.79650
G01 X40.90705 Y23.81072
G01 X41.17583 Y23.85329
G01 X41.38033 Y23.89678
G01 X41.64319 Y23.96721
G01 X41.70072 Y23.98929
G01 X41.70072 Y23.77585
G01 X41.42191 Y23.70115
G01 X41.21741 Y23.65769
G01 X40.92795 Y23.61182
G01 X40.63527 Y23.59650
G01 X40.42620 Y23.59650
G01 X40.13352 Y23.61182
G01 X39.84406 Y23.65769
G01 X39.63956 Y23.70115
G01 X39.36072 Y23.77582
G01 X39.36075 Y23.56909
G01 X39.59798 Y23.50552
G01 X39.80248 Y23.46206
G01 X40.11261 Y23.41294
G01 X40.42620 Y23.39650
G01 X40.63527 Y23.39650
G01 X40.94886 Y23.41294
G01 X41.25899 Y23.46206
G01 X41.46349 Y23.50552
G01 X41.70072 Y23.56907
G01 X41.70072 Y23.36231
G01 X41.50507 Y23.30989
G01 X41.30057 Y23.26643
G01 X40.96976 Y23.21403
G01 X40.63527 Y23.19650
G01 X40.42620 Y23.19650
G01 X40.09171 Y23.21403
G01 X39.76090 Y23.26643
G01 X39.60614 Y23.29932
G01 X39.36075 Y23.52289
G01 X39.36072 Y23.98926
G01 X39.36075 Y23.52289
G01 X39.69453 Y23.21829
G01 X40.12420 Y22.81233
G01 X40.42620 Y22.79650
G01 X40.63527 Y22.79650
G01 X41.01157 Y22.81621
G01 X41.38376 Y22.87517
G01 X41.58823 Y22.91863
G01 X41.70072 Y22.94878
G01 X41.70072 Y23.15553
G01 X41.70072 Y22.74199
G01 X41.62981 Y22.72299
G01 X41.42534 Y22.67954
G01 X41.03247 Y22.61731
G01 X40.63527 Y22.59650
G01 X40.42620 Y22.59650
G01 X40.34779 Y22.60059
G01 X40.32173 Y22.62505
G01 X40.56501 Y22.39650
G01 X40.63527 Y22.39650
G01 X41.05338 Y22.41840
G01 X41.46692 Y22.48390
G01 X41.70072 Y22.53521
G01 X41.70072 Y22.74199
G01 X41.70072 Y22.32914
G01 X41.50850 Y22.28827
G01 X41.07428 Y22.21949
G01 X40.76588 Y22.20334
G01 X39.78592 Y23.13300
G01 X39.87807 Y23.04565
G01 X40.07081 Y23.01512
G01 X40.42620 Y22.99650
G01 X40.63527 Y22.99650
G01 X40.99067 Y23.01512
G01 X41.34218 Y23.07080
G01 X41.54665 Y23.11426
G01 X41.70072 Y23.15553
G01 X41.70072 Y27.12738
G01 X41.70072 Y26.62845
G01 X41.66336 Y26.56812
G01 X41.63702 Y26.53559
G01 X41.46753 Y26.35060
G01 X41.23075 Y26.17859
G01 X40.96336 Y26.05954
G01 X40.67708 Y25.99868
G01 X40.42620 Y25.99650
G01 X40.34304 Y26.00523
G01 X40.09811 Y26.05954
G01 X39.86804 Y26.15956
G01 X39.79562 Y26.20137
G01 X39.62648 Y26.32426
G01 X39.56435 Y26.38021
G01 X39.42445 Y26.53559
G01 X39.39811 Y26.56812
G01 X39.36072 Y26.62845
G01 X39.36072 Y27.12746
G01 X39.43448 Y26.90292
G01 X39.54850 Y26.70323
G01 X39.57309 Y26.66939
G01 X39.71297 Y26.51405
G01 X39.74406 Y26.48606
G01 X39.93075 Y26.35179
G01 X40.14038 Y26.25725
G01 X40.18013 Y26.24432
G01 X40.40530 Y26.19759
G01 X40.65617 Y26.19759
G01 X40.90156 Y26.24973
G01 X41.13075 Y26.35179
G01 X41.33369 Y26.49924
G01 X41.50156 Y26.68567
G01 X41.62699 Y26.90292
G01 X41.70451 Y27.14153
G01 X41.73075 Y27.39101
G01 X41.73075 Y28.14102
G01 X41.70778 Y28.36982
G01 X41.70072 Y28.40464
G01 X41.70072 Y28.49708
G01 X41.66029 Y28.53012
G01 X41.70072 Y28.40464
G01 X41.62699 Y28.62910
G01 X41.53529 Y28.79009
G01 X41.58914 Y28.74714
G01 X41.63745 Y28.71866
G01 X41.74581 Y28.68879
G01 X41.80507 Y28.68272
G01 X41.91741 Y28.70289
G01 X41.97349 Y28.72314
G01 X42.06597 Y28.79004
G01 X42.09364 Y28.82494
G01 X42.06625 Y28.79029
G01 X41.98398 Y28.64775
G01 X41.96699 Y28.60955
G01 X41.94169 Y28.53175
G01 X41.90072 Y28.49680
G01 X41.90072 Y28.40454
G01 X41.94169 Y28.53175
G01 X41.89696 Y28.39050
G01 X41.87184 Y28.16192
G01 X41.87073 Y27.39101
G01 X41.89369 Y27.16220
G01 X41.90072 Y27.12746
G01 X41.90072 Y26.30747
G01 X42.00014 Y26.20198
G01 X42.04893 Y26.16246
G01 X42.21807 Y26.03957
G01 X42.27075 Y26.00536
G01 X42.32671 Y25.97686
G01 X42.57631 Y25.86932
G01 X42.84146 Y25.80960
G01 X42.90349 Y25.79977
G01 X42.96620 Y25.79650
G01 X43.23798 Y25.79977
G01 X43.50450 Y25.85306
G01 X43.56516 Y25.86932
G01 X43.62381 Y25.89182
G01 X43.81479 Y25.97686
G01 X43.87075 Y26.00536
G01 X43.92340 Y26.03957
G01 X44.14136 Y26.20198
G01 X44.24072 Y26.30744
G01 X44.24072 Y26.02545
G01 X44.04098 Y25.87778
G01 X43.97075 Y25.83216
G01 X43.89612 Y25.79416
G01 X43.70514 Y25.70912
G01 X43.62696 Y25.67912
G01 X43.54608 Y25.65743
G01 X43.34159 Y25.61397
G01 X43.25889 Y25.60087
G01 X43.17527 Y25.59650
G01 X42.96620 Y25.59650
G01 X42.88259 Y25.60087
G01 X42.79988 Y25.61397
G01 X42.59539 Y25.65743
G01 X42.51451 Y25.67912
G01 X42.43633 Y25.70912
G01 X42.24535 Y25.79416
G01 X42.17075 Y25.83216
G01 X42.10052 Y25.87778
G01 X41.90072 Y26.02548
G01 X41.90072 Y25.77572
G01 X41.98294 Y25.71598
G01 X42.07072 Y25.65896
G01 X42.16399 Y25.61143
G01 X42.35498 Y25.52642
G01 X42.45272 Y25.48890
G01 X42.55381 Y25.46180
G01 X42.75830 Y25.41834
G01 X42.86168 Y25.40196
G01 X42.96620 Y25.39650
G01 X43.17527 Y25.39650
G01 X43.27979 Y25.40196
G01 X43.38317 Y25.41834
G01 X43.58766 Y25.46180
G01 X43.68878 Y25.48890
G01 X43.78649 Y25.52642
G01 X43.97748 Y25.61143
G01 X44.07075 Y25.65896
G01 X44.15853 Y25.71598
G01 X44.24072 Y25.77569
G01 X44.24072 Y25.53122
G01 X44.17075 Y25.48575
G01 X44.05883 Y25.42873
G01 X43.86783 Y25.34369
G01 X43.75058 Y25.29868
G01 X43.62924 Y25.26617
G01 X43.42475 Y25.22271
G01 X43.30069 Y25.20308
G01 X43.17527 Y25.19650
G01 X42.96620 Y25.19650
G01 X42.84078 Y25.20308
G01 X42.71672 Y25.22271
G01 X42.51223 Y25.26617
G01 X42.39089 Y25.29868
G01 X42.27365 Y25.34369
G01 X42.08266 Y25.42873
G01 X41.97072 Y25.48575
G01 X41.90072 Y25.53122
G01 X41.90072 Y25.29726
G01 X42.00131 Y25.24603
G01 X42.19229 Y25.16099
G01 X42.32909 Y25.10849
G01 X42.47065 Y25.07054
G01 X42.67514 Y25.02708
G01 X42.81987 Y25.00417
G01 X42.96620 Y24.99650
G01 X43.17527 Y24.99650
G01 X43.32160 Y25.00417
G01 X43.46635 Y25.02708
G01 X43.67082 Y25.07054
G01 X43.81238 Y25.10849
G01 X43.94918 Y25.16099
G01 X44.14016 Y25.24603
G01 X44.24072 Y25.29726
G01 X44.24072 Y25.07310
G01 X44.03054 Y24.97829
G01 X43.87418 Y24.91827
G01 X43.71240 Y24.87491
G01 X43.50793 Y24.83145
G01 X43.34250 Y24.80526
G01 X43.17527 Y24.79650
G01 X42.96620 Y24.79650
G01 X42.79897 Y24.80526
G01 X42.63354 Y24.83145
G01 X42.42907 Y24.87491
G01 X42.26730 Y24.91827
G01 X42.11093 Y24.97829
G01 X41.90072 Y25.07310
G01 X41.90072 Y24.85294
G01 X42.02960 Y24.79558
G01 X42.20550 Y24.72805
G01 X42.38749 Y24.67930
G01 X42.59196 Y24.63582
G01 X42.77806 Y24.60635
G01 X42.96620 Y24.59650
G01 X43.17527 Y24.59650
G01 X43.36341 Y24.60635
G01 X43.54951 Y24.63582
G01 X43.75398 Y24.67930
G01 X43.93597 Y24.72805
G01 X44.11187 Y24.79558
G01 X44.24072 Y24.85294
G01 X44.24072 Y24.63401
G01 X43.99780 Y24.53785
G01 X43.79559 Y24.48367
G01 X43.59109 Y24.44019
G01 X43.38431 Y24.40745
G01 X43.17527 Y24.39650
G01 X42.96620 Y24.39650
G01 X42.75716 Y24.40745
G01 X42.55038 Y24.44019
G01 X42.34591 Y24.48367
G01 X42.14370 Y24.53785
G01 X41.90072 Y24.63401
G01 X41.90072 Y24.41717
G01 X42.08188 Y24.34763
G01 X42.30430 Y24.28804
G01 X42.50880 Y24.24456
G01 X42.73626 Y24.20854
G01 X42.96620 Y24.19650
G01 X43.17527 Y24.19650
G01 X43.40524 Y24.20854
G01 X43.63267 Y24.24456
G01 X43.83717 Y24.28804
G01 X44.05960 Y24.34763
G01 X44.24072 Y24.41715
G01 X44.24072 Y24.20323
G01 X44.12139 Y24.15741
G01 X43.87875 Y24.09241
G01 X43.67425 Y24.04893
G01 X43.42615 Y24.00963
G01 X43.17527 Y23.99650
G01 X42.96620 Y23.99650
G01 X42.71535 Y24.00963
G01 X42.46722 Y24.04893
G01 X42.26272 Y24.09241
G01 X42.02008 Y24.15741
G01 X41.90072 Y24.20323
G01 X41.90072 Y23.98931
G01 X41.95828 Y23.96721
G01 X42.22114 Y23.89678
G01 X42.42564 Y23.85329
G01 X42.69445 Y23.81072
G01 X42.96620 Y23.79650
G01 X43.17527 Y23.79650
G01 X43.44705 Y23.81072
G01 X43.71583 Y23.85329
G01 X43.92033 Y23.89678
G01 X44.18319 Y23.96721
G01 X44.24072 Y23.98929
G01 X44.24072 Y23.77585
G01 X43.96191 Y23.70115
G01 X43.75741 Y23.65769
G01 X43.46795 Y23.61182
G01 X43.17527 Y23.59650
G01 X42.96620 Y23.59650
G01 X42.67352 Y23.61182
G01 X42.38406 Y23.65769
G01 X42.17956 Y23.70115
G01 X41.90072 Y23.77585
G01 X41.90072 Y23.56909
G01 X42.13798 Y23.50552
G01 X42.34248 Y23.46206
G01 X42.65261 Y23.41294
G01 X42.96620 Y23.39650
G01 X43.17527 Y23.39650
G01 X43.48886 Y23.41294
G01 X43.79899 Y23.46206
G01 X44.00349 Y23.50552
G01 X44.24072 Y23.56907
G01 X44.24072 Y23.36231
G01 X44.04507 Y23.30989
G01 X43.84057 Y23.26643
G01 X43.50976 Y23.21403
G01 X43.17527 Y23.19650
G01 X42.96620 Y23.19650
G01 X42.63171 Y23.21403
G01 X42.30090 Y23.26643
G01 X42.09640 Y23.30989
G01 X41.90072 Y23.36231
G01 X41.90072 Y26.62850
G01 X41.90072 Y23.15553
G01 X42.05482 Y23.11426
G01 X42.25932 Y23.07080
G01 X42.61081 Y23.01512
G01 X42.96620 Y22.99650
G01 X43.17527 Y22.99650
G01 X43.53067 Y23.01512
G01 X43.88218 Y23.07080
G01 X44.08665 Y23.11426
G01 X44.24072 Y23.15553
G01 X44.24072 Y22.94878
G01 X44.12823 Y22.91863
G01 X43.92376 Y22.87517
G01 X43.55157 Y22.81621
G01 X43.17527 Y22.79650
G01 X42.96620 Y22.79650
G01 X42.58990 Y22.81621
G01 X42.21771 Y22.87517
G01 X42.01324 Y22.91863
G01 X41.90072 Y22.94878
G01 X41.90072 Y23.15553
G01 X41.90072 Y22.74199
G01 X41.97166 Y22.72299
G01 X42.17613 Y22.67954
G01 X42.56900 Y22.61731
G01 X42.96620 Y22.59650
G01 X43.17527 Y22.59650
G01 X43.57247 Y22.61731
G01 X43.96534 Y22.67954
G01 X44.16981 Y22.72299
G01 X44.24072 Y22.74199
G01 X44.24072 Y22.53521
G01 X44.00692 Y22.48390
G01 X43.59338 Y22.41840
G01 X43.17527 Y22.39650
G01 X42.96620 Y22.39650
G01 X42.54809 Y22.41840
G01 X42.13455 Y22.48390
G01 X41.90072 Y22.53524
G01 X41.90072 Y22.74199
G01 X41.90072 Y22.32914
G01 X42.09298 Y22.28827
G01 X42.52719 Y22.21949
G01 X42.96620 Y22.19648
G01 X43.17527 Y22.19648
G01 X43.61428 Y22.21949
G01 X44.04850 Y22.28827
G01 X44.24072 Y22.32914
G01 X44.24072 Y27.12738
G01 X44.24072 Y26.62845
G01 X44.20336 Y26.56812
G01 X44.17702 Y26.53559
G01 X44.00753 Y26.35060
G01 X43.77075 Y26.17859
G01 X43.50336 Y26.05954
G01 X43.21708 Y25.99868
G01 X42.96620 Y25.99650
G01 X42.88304 Y26.00523
G01 X42.63811 Y26.05954
G01 X42.40804 Y26.15956
G01 X42.33562 Y26.20137
G01 X42.16648 Y26.32426
G01 X42.10435 Y26.38021
G01 X41.96445 Y26.53559
G01 X41.93811 Y26.56812
G01 X41.90072 Y26.62850
G01 X41.90072 Y27.12746
G01 X41.96699 Y26.92248
G01 X41.98398 Y26.88428
G01 X42.09991 Y26.68567
G01 X42.25297 Y26.51405
G01 X42.28406 Y26.48606
G01 X42.47075 Y26.35179
G01 X42.69991 Y26.24973
G01 X42.94530 Y26.19759
G01 X43.17527 Y26.19650
G01 X43.21685 Y26.20086
G01 X43.44156 Y26.24973
G01 X43.65208 Y26.34227
G01 X43.68830 Y26.36320
G01 X43.85744 Y26.48606
G01 X43.88850 Y26.51405
G01 X44.04156 Y26.68567
G01 X44.16699 Y26.90292
G01 X44.24451 Y27.14153
G01 X44.26965 Y27.37010
G01 X44.26965 Y28.16192
G01 X44.24451 Y28.39050
G01 X44.20031 Y28.53012
G01 X44.24451 Y28.39050
G01 X44.24072 Y28.40464
G01 X44.24072 Y28.49708
G01 X44.20031 Y28.53012
G01 X44.16699 Y28.62910
G01 X44.07527 Y28.79012
G01 X44.12914 Y28.74714
G01 X44.17745 Y28.71866
G01 X44.28581 Y28.68879
G01 X44.34507 Y28.68272
G01 X44.48621 Y28.71092
G01 X44.53864 Y28.73929
G01 X44.60636 Y28.79042
G01 X44.51448 Y28.62910
G01 X44.48169 Y28.53175
G01 X44.44072 Y28.49680
G01 X44.44072 Y28.40454
G01 X44.48169 Y28.53175
G01 X44.43696 Y28.39050
G01 X44.41073 Y28.14102
G01 X44.41073 Y27.39101
G01 X44.43369 Y27.16220
G01 X44.44072 Y27.12746
G01 X44.44072 Y26.30747
G01 X44.54014 Y26.20198
G01 X44.58893 Y26.16246
G01 X44.81075 Y26.00536
G01 X45.05769 Y25.89182
G01 X45.11631 Y25.86932
G01 X45.17697 Y25.85306
G01 X45.44349 Y25.79977
G01 X45.71527 Y25.79650
G01 X45.77798 Y25.79977
G01 X45.84001 Y25.80960
G01 X46.10516 Y25.86932
G01 X46.35479 Y25.97686
G01 X46.41075 Y26.00536
G01 X46.46340 Y26.03957
G01 X46.63254 Y26.16246
G01 X46.68136 Y26.20198
G01 X46.78072 Y26.30744
G01 X46.78072 Y26.02545
G01 X46.58098 Y25.87778
G01 X46.51075 Y25.83216
G01 X46.43612 Y25.79416
G01 X46.24514 Y25.70912
G01 X46.16696 Y25.67912
G01 X46.08608 Y25.65743
G01 X45.88159 Y25.61397
G01 X45.79889 Y25.60087
G01 X45.71527 Y25.59650
G01 X45.50620 Y25.59650
G01 X45.42259 Y25.60087
G01 X45.33988 Y25.61397
G01 X45.13539 Y25.65743
G01 X45.05451 Y25.67912
G01 X44.97633 Y25.70912
G01 X44.78535 Y25.79416
G01 X44.71075 Y25.83216
G01 X44.64052 Y25.87778
G01 X44.44072 Y26.02548
G01 X44.44072 Y25.77572
G01 X44.52294 Y25.71598
G01 X44.61072 Y25.65896
G01 X44.70399 Y25.61143
G01 X44.89498 Y25.52642
G01 X44.99272 Y25.48890
G01 X45.09381 Y25.46180
G01 X45.29830 Y25.41834
G01 X45.40168 Y25.40196
G01 X45.50620 Y25.39650
G01 X45.71527 Y25.39650
G01 X45.81979 Y25.40196
G01 X45.92317 Y25.41834
G01 X46.12766 Y25.46180
G01 X46.22878 Y25.48890
G01 X46.32649 Y25.52642
G01 X46.51748 Y25.61143
G01 X46.61075 Y25.65896
G01 X46.69853 Y25.71598
G01 X46.78072 Y25.77569
G01 X46.78072 Y25.53122
G01 X46.71075 Y25.48575
G01 X46.59883 Y25.42873
G01 X46.40783 Y25.34369
G01 X46.29058 Y25.29868
G01 X46.16924 Y25.26617
G01 X45.96475 Y25.22271
G01 X45.84069 Y25.20308
G01 X45.71527 Y25.19650
G01 X45.50620 Y25.19650
G01 X45.38078 Y25.20308
G01 X45.25672 Y25.22271
G01 X45.05223 Y25.26617
G01 X44.93089 Y25.29868
G01 X44.81365 Y25.34369
G01 X44.62266 Y25.42873
G01 X44.51073 Y25.48575
G01 X44.44072 Y25.53122
G01 X44.44072 Y25.29728
G01 X44.54131 Y25.24603
G01 X44.73229 Y25.16099
G01 X44.86909 Y25.10849
G01 X45.01065 Y25.07054
G01 X45.21514 Y25.02708
G01 X45.35987 Y25.00417
G01 X45.50620 Y24.99650
G01 X45.71527 Y24.99650
G01 X45.86160 Y25.00417
G01 X46.00635 Y25.02708
G01 X46.21082 Y25.07054
G01 X46.35238 Y25.10849
G01 X46.48918 Y25.16099
G01 X46.68016 Y25.24603
G01 X46.78072 Y25.29726
G01 X46.78072 Y25.07310
G01 X46.57054 Y24.97829
G01 X46.41418 Y24.91827
G01 X46.25240 Y24.87491
G01 X46.04793 Y24.83145
G01 X45.88250 Y24.80526
G01 X45.71527 Y24.79650
G01 X45.50620 Y24.79650
G01 X45.33897 Y24.80526
G01 X45.17354 Y24.83145
G01 X44.96907 Y24.87491
G01 X44.80730 Y24.91827
G01 X44.65093 Y24.97829
G01 X44.44072 Y25.07310
G01 X44.44072 Y24.85296
G01 X44.56960 Y24.79558
G01 X44.74550 Y24.72805
G01 X44.92749 Y24.67930
G01 X45.13196 Y24.63582
G01 X45.31806 Y24.60635
G01 X45.50620 Y24.59650
G01 X45.71527 Y24.59650
G01 X45.90341 Y24.60635
G01 X46.08951 Y24.63582
G01 X46.29398 Y24.67930
G01 X46.47597 Y24.72805
G01 X46.65187 Y24.79558
G01 X46.78072 Y24.85294
G01 X46.78072 Y24.63401
G01 X46.53780 Y24.53785
G01 X46.33559 Y24.48367
G01 X46.13109 Y24.44019
G01 X45.92431 Y24.40745
G01 X45.71527 Y24.39650
G01 X45.50620 Y24.39650
G01 X45.29716 Y24.40745
G01 X45.09038 Y24.44019
G01 X44.88591 Y24.48367
G01 X44.68370 Y24.53785
G01 X44.44072 Y24.63401
G01 X44.44072 Y24.41717
G01 X44.62188 Y24.34763
G01 X44.84430 Y24.28804
G01 X45.04880 Y24.24456
G01 X45.27626 Y24.20854
G01 X45.50620 Y24.19650
G01 X45.71527 Y24.19650
G01 X45.94524 Y24.20854
G01 X46.17267 Y24.24456
G01 X46.37717 Y24.28804
