( pcb2gcode 2.5.0 )
( Software-independent Gcode )

G94 ( Millimeters per minute feed rate. )
G21 ( Units == Millimeters. )

G90 ( Absolute coordinates. )
G00 S10000 ( RPM spindle speed. )
G64 P0.01016 ( set maximum deviation from commanded toolpath )
G01 F150.00000 ( Feedrate. )


G00 Z10.00000 (Retract to tool change height)
T0
M5      (Spindle stop.)
G04 P1.00000 (Wait for spindle to stop)
(MSG, Change tool bit to mill diameter 0.36000mm)
M6      (Tool change.)
M0      (Temporary machine stop.)
M3 ( Spindle on clockwise. )
G04 P1.00000 (Wait for spindle to get up to speed)
G04 P0 ( dwell for no time -- G64 should not smooth over this point )
G00 Z2.00000 ( retract )

G00 X8.80451 Y7.37495 ( rapid move to begin. )
G01 F75.00000
( Mill infeed pass 1/1 )
G01 Z-0.15000
G04 P0 ( dwell for no time -- G64 should not smooth over this point )
G01 F150.00000
G01 X8.80451 Y7.37495
G01 X8.84012 Y7.34101
G01 X8.88587 Y7.28821
G01 X8.92120 Y7.23982
G01 X8.94800 Y7.18625
G01 X8.97675 Y7.07746
G01 X8.98498 Y7.00099
G01 X8.98498 Y1.49899
G01 X8.98130 Y1.44773
G01 X8.97037 Y1.39754
G01 X8.95069 Y1.33049
G01 X8.92526 Y1.26699
G01 X8.88828 Y1.20943
G01 X8.84109 Y1.15990
G01 X8.80078 Y1.12500
G01 X9.44546 Y1.12500
G01 X9.40990 Y1.15886
G01 X9.36412 Y1.21166
G01 X9.32879 Y1.26008
G01 X9.30197 Y1.31367
G01 X9.27319 Y1.42248
G01 X9.26496 Y1.49899
G01 X9.21498 Y1.39025
G01 X9.26496 Y1.49899
G01 X9.44497 Y1.49899
G01 X9.44909 Y1.46074
G01 X9.46908 Y1.38057
G01 X9.50014 Y1.32957
G01 X9.54591 Y1.27677
G01 X9.57068 Y1.25317
G01 X9.59946 Y1.23468
G01 X9.69826 Y1.20227
G01 X9.74899 Y1.19498
G01 X13.00100 Y1.19498
G01 X13.09074 Y1.21029
G01 X13.14621 Y1.23249
G01 X13.22320 Y1.29597
G01 X13.24679 Y1.32071
G01 X13.26529 Y1.34949
G01 X13.27799 Y1.38124
G01 X13.29767 Y1.44827
G01 X13.30496 Y1.49899
G01 X13.30496 Y7.00099
G01 X13.28964 Y7.09072
G01 X13.26747 Y7.14615
G01 X13.20407 Y7.22316
G01 X13.17931 Y7.24678
G01 X13.15050 Y7.26527
G01 X13.05170 Y7.29768
G01 X13.00100 Y7.30497
G01 X9.74899 Y7.30497
G01 X9.65922 Y7.28966
G01 X9.60377 Y7.26746
G01 X9.52676 Y7.20403
G01 X9.50316 Y7.17927
G01 X9.48467 Y7.15049
G01 X9.47195 Y7.11871
G01 X9.45226 Y7.05168
G01 X9.44497 Y7.00099
G01 X9.44497 Y1.49899
G01 X9.26496 Y1.49899
G01 X9.26496 Y7.00099
G01 X9.26865 Y7.05222
G01 X9.27957 Y7.10241
G01 X9.29925 Y7.16944
G01 X9.32468 Y7.23296
G01 X9.36166 Y7.29052
G01 X9.40885 Y7.34005
G01 X9.44911 Y7.37495
G01 X13.53447 Y7.37497
G01 X13.53547 Y1.12500
G01 X13.94545 Y1.12500
G01 X13.90984 Y1.15893
G01 X13.86407 Y1.21174
G01 X13.82876 Y1.26013
G01 X13.80196 Y1.31370
G01 X13.77321 Y1.42248
G01 X13.76498 Y1.49899
G01 X13.71497 Y1.39025
G01 X13.76498 Y1.49899
G01 X13.94496 Y1.49899
G01 X13.94908 Y1.46074
G01 X13.96907 Y1.38057
G01 X14.00013 Y1.32960
G01 X14.04588 Y1.27679
G01 X14.07064 Y1.25317
G01 X14.09942 Y1.23468
G01 X14.19825 Y1.20227
G01 X14.24898 Y1.19498
G01 X17.50099 Y1.19498
G01 X17.59073 Y1.21029
G01 X17.64618 Y1.23249
G01 X17.72319 Y1.29592
G01 X17.74679 Y1.32068
G01 X17.76528 Y1.34946
G01 X17.77800 Y1.38124
G01 X17.79769 Y1.44827
G01 X17.80498 Y1.49899
G01 X17.80498 Y7.00099
G01 X17.78966 Y7.09072
G01 X17.76746 Y7.14617
G01 X17.70404 Y7.22318
G01 X17.67927 Y7.24678
G01 X17.65049 Y7.26527
G01 X17.55169 Y7.29768
G01 X17.50099 Y7.30497
G01 X14.24898 Y7.30497
G01 X14.15921 Y7.28966
G01 X14.10374 Y7.26746
G01 X14.02675 Y7.20398
G01 X14.00313 Y7.17924
G01 X13.98466 Y7.15046
G01 X13.97194 Y7.11871
G01 X13.95228 Y7.05168
G01 X13.94496 Y7.00099
G01 X13.94496 Y1.49899
G01 X13.76498 Y1.49899
G01 X13.76498 Y7.00099
G01 X13.76866 Y7.05222
G01 X13.77958 Y7.10241
G01 X13.79927 Y7.16944
G01 X13.82467 Y7.23294
G01 X13.86163 Y7.29047
G01 X13.90879 Y7.33997
G01 X13.94908 Y7.37495
G01 X17.80449 Y7.37497
G01 X18.03447 Y7.37495
G01 X18.03546 Y1.12500
G01 X18.21549 Y1.12500
G01 X17.80079 Y1.12500
G01 X17.84110 Y1.15990
G01 X17.88829 Y1.20943
G01 X17.92527 Y1.26699
G01 X17.95070 Y1.33049
G01 X17.97038 Y1.39754
G01 X17.98130 Y1.44773
G01 X17.98499 Y1.49899
G01 X17.98499 Y7.00099
G01 X17.97676 Y7.07746
G01 X17.94798 Y7.18628
G01 X17.92116 Y7.23987
G01 X17.88583 Y7.28828
G01 X17.84005 Y7.34109
G01 X17.80449 Y7.37497
G01 X13.71448 Y7.37495
G01 X13.71548 Y1.12500
G01 X13.30079 Y1.12500
G01 X13.34113 Y1.15998
G01 X13.38832 Y1.20948
G01 X13.42528 Y1.26701
G01 X13.45068 Y1.33049
G01 X13.47037 Y1.39754
G01 X13.48129 Y1.44773
G01 X13.48497 Y1.49899
G01 X13.48497 Y7.00099
G01 X13.47674 Y7.07746
G01 X13.44799 Y7.18625
G01 X13.42119 Y7.23982
G01 X13.38586 Y7.28821
G01 X13.34011 Y7.34101
G01 X13.30450 Y7.37495
G01 X9.21449 Y7.37495
G01 X9.21548 Y1.12500
G01 X9.03545 Y1.12500
G01 X9.03446 Y7.37495
G01 X1.19914 Y7.37495
G01 X1.12500 Y7.30449
G01 X1.19914 Y7.37495
G01 X1.12500 Y7.37497
G01 X1.12500 Y1.19917
G01 X1.19546 Y1.12500
G01 X1.12500 Y1.19917
G01 X1.19498 Y1.49899
G01 X1.19498 Y7.00099
G01 X1.20227 Y7.05168
G01 X1.23468 Y7.15049
G01 X1.25317 Y7.17927
G01 X1.27677 Y7.20403
G01 X1.32957 Y7.24980
G01 X1.38057 Y7.28087
G01 X1.46074 Y7.30086
G01 X1.49899 Y7.30497
G01 X8.50098 Y7.30497
G01 X8.55168 Y7.29768
G01 X8.65051 Y7.26527
G01 X8.67932 Y7.24678
G01 X8.70408 Y7.22316
G01 X8.74983 Y7.17035
G01 X8.78089 Y7.11937
G01 X8.80085 Y7.03921
G01 X8.80497 Y7.00099
G01 X8.80497 Y1.49899
G01 X8.79768 Y1.44827
G01 X8.76527 Y1.34946
G01 X8.74678 Y1.32068
G01 X8.72318 Y1.29592
G01 X8.67037 Y1.25015
G01 X8.61937 Y1.21908
G01 X8.53921 Y1.19909
G01 X8.50098 Y1.19498
G01 X1.49899 Y1.19498
G01 X1.44827 Y1.20227
G01 X1.34946 Y1.23468
G01 X1.32068 Y1.25317
G01 X1.29592 Y1.27677
G01 X1.25015 Y1.32957
G01 X1.21908 Y1.38057
G01 X1.19909 Y1.46074
G01 X1.19498 Y1.49899
G01 X1.12500 Y1.19917
G01 X1.12500 Y1.12500
G01 X26.12498 Y1.12500
G01 X26.12498 Y7.37497
G01 X18.21450 Y7.37495
G01 X18.21498 Y1.39025
G01 X18.26497 Y1.49899
G01 X18.44498 Y1.49899
G01 X18.44910 Y1.46074
G01 X18.46906 Y1.38057
G01 X18.50012 Y1.32960
G01 X18.54587 Y1.27679
G01 X18.57063 Y1.25317
G01 X18.59944 Y1.23468
G01 X18.69827 Y1.20227
G01 X18.74899 Y1.19498
G01 X25.75099 Y1.19498
G01 X25.78921 Y1.19909
G01 X25.86938 Y1.21908
G01 X25.92038 Y1.25015
G01 X25.97318 Y1.29592
G01 X25.99678 Y1.32068
G01 X26.01527 Y1.34946
G01 X26.04768 Y1.44827
G01 X26.05497 Y1.49899
G01 X26.05497 Y7.00099
G01 X26.05086 Y7.03921
G01 X26.03087 Y7.11937
G01 X25.99980 Y7.17038
G01 X25.95403 Y7.22318
G01 X25.92927 Y7.24678
G01 X25.90049 Y7.26527
G01 X25.80168 Y7.29768
G01 X25.75099 Y7.30497
G01 X18.74899 Y7.30497
G01 X18.71074 Y7.30086
G01 X18.63058 Y7.28087
G01 X18.57958 Y7.24980
G01 X18.52677 Y7.20403
G01 X18.50317 Y7.17927
G01 X18.48468 Y7.15049
G01 X18.45227 Y7.05168
G01 X18.44498 Y7.00099
G01 X18.44498 Y1.49899
G01 X18.26497 Y1.49899
G01 X18.21498 Y1.39025
G01 X18.21549 Y1.12500
G01 X18.44544 Y1.12500
G01 X18.40983 Y1.15893
G01 X18.36408 Y1.21174
G01 X18.32875 Y1.26013
G01 X18.30195 Y1.31370
G01 X18.27320 Y1.42248
G01 X18.26497 Y1.49899
G01 X18.26497 Y7.00099
G01 X18.26865 Y7.05222
G01 X18.27958 Y7.10241
G01 X18.29926 Y7.16944
G01 X18.32469 Y7.23296
G01 X18.36167 Y7.29052
G01 X18.40886 Y7.34005
G01 X18.44912 Y7.37495
G04 P0 ( dwell for no time -- G64 should not smooth over this point )
G00 Z2.00000 ( retract )

G00 X26.05078 Y1.12500 ( rapid move to begin. )
G01 F75.00000
( Mill infeed pass 1/1 )
G01 Z-0.15000
G04 P0 ( dwell for no time -- G64 should not smooth over this point )
G01 F150.00000
G01 X26.05078 Y1.12500
G01 X26.12495 Y1.19546
G01 X26.12495 Y7.30078
G01 X26.05449 Y7.37495

G04 P0 ( dwell for no time -- G64 should not smooth over this point )
G00 Z10.000000 ( retract )

M5 ( Spindle off. )
G04 P1.000000
M9 ( Coolant off. )
M2 ( Program end. )

