( pcb2gcode 2.5.0 )
( Software-independent Gcode )

G94 ( Millimeters per minute feed rate. )
G21 ( Units == Millimeters. )

G90 ( Absolute coordinates. )
G00 S10000 ( RPM spindle speed. )
G64 P0.01016 ( set maximum deviation from commanded toolpath )
G01 F150.00000 ( Feedrate. )


G00 Z10.00000 (Retract to tool change height)
T0
M5      (Spindle stop.)
G04 P1.00000 (Wait for spindle to stop)
(MSG, Change tool bit to mill diameter 0.36000mm)
M6      (Tool change.)
M0      (Temporary machine stop.)
M3 ( Spindle on clockwise. )
G04 P1.00000 (Wait for spindle to get up to speed)
G04 P0 ( dwell for no time -- G64 should not smooth over this point )
G00 Z2.00000 ( retract )

G00 X8.21584 Y23.82495 ( rapid move to begin. )
G01 F75.00000
( Mill infeed pass 1/1 )
G01 Z-0.15000
G04 P0 ( dwell for no time -- G64 should not smooth over this point )
G01 F150.00000
G01 X8.21584 Y23.82495
G01 X8.23537 Y23.82495
G01 X8.23497 Y0.92350
G01 X8.21353 Y0.82500
G01 X8.23497 Y0.92350
G01 X8.23456 Y0.82500
G01 X0.82500 Y0.82500
G01 X0.82500 Y0.89917
G01 X0.89546 Y0.82500
G01 X0.82500 Y0.89917
G01 X0.89498 Y1.19899
G01 X0.89498 Y23.45099
G01 X0.90227 Y23.50169
G01 X0.92195 Y23.56872
G01 X0.93468 Y23.60049
G01 X0.95317 Y23.62927
G01 X1.02957 Y23.69981
G01 X1.08057 Y23.73087
G01 X1.16074 Y23.75086
G01 X1.19899 Y23.75498
G01 X6.70099 Y23.75498
G01 X6.75168 Y23.74769
G01 X6.85049 Y23.71528
G01 X6.87927 Y23.69679
G01 X6.90403 Y23.67319
G01 X6.94980 Y23.62038
G01 X6.98087 Y23.56938
G01 X7.00086 Y23.48922
G01 X7.00497 Y23.45099
G01 X7.00497 Y1.19899
G01 X6.99768 Y1.14827
G01 X6.97800 Y1.08124
G01 X6.96527 Y1.04946
G01 X6.94678 Y1.02068
G01 X6.87038 Y0.95015
G01 X6.81937 Y0.91908
G01 X6.73921 Y0.89909
G01 X6.70099 Y0.89498
G01 X1.19899 Y0.89498
G01 X1.14827 Y0.90227
G01 X1.04946 Y0.93468
G01 X1.02068 Y0.95317
G01 X0.99592 Y0.97676
G01 X0.95015 Y1.02957
G01 X0.91908 Y1.08057
G01 X0.89909 Y1.16074
G01 X0.89498 Y1.19899
G01 X0.82500 Y0.89917
G01 X0.82500 Y23.75449
G01 X0.89914 Y23.82495
G01 X0.82500 Y23.75449
G01 X0.82500 Y23.82498
G01 X7.00449 Y23.82495
G01 X7.04005 Y23.79110
G01 X7.08582 Y23.73829
G01 X7.12115 Y23.68988
G01 X7.14797 Y23.63628
G01 X7.16555 Y23.57898
G01 X7.18290 Y23.48945
G01 X7.18496 Y23.45099
G01 X7.18496 Y1.19899
G01 X7.18130 Y1.14773
G01 X7.17038 Y1.09754
G01 X7.15069 Y1.03049
G01 X7.12527 Y0.96699
G01 X7.08828 Y0.90943
G01 X7.04109 Y0.85990
G01 X7.00078 Y0.82500
G01 X7.24698 Y0.82500
G01 X7.28524 Y0.88451
G01 X7.32341 Y0.97979
G01 X7.34310 Y1.04682
G01 X7.35948 Y1.12210
G01 X7.36497 Y1.19899
G01 X7.36497 Y23.45099
G01 X7.36187 Y23.50867
G01 X7.35265 Y23.56572
G01 X7.34142 Y23.61723
G01 X7.31508 Y23.70319
G01 X7.27485 Y23.78358
G01 X7.24462 Y23.82495
G01 X7.00449 Y23.82495
G01 X7.45473 Y23.82495
G01 X7.48219 Y23.77009
G01 X7.51734 Y23.65549
G01 X7.54086 Y23.52793
G01 X7.54498 Y23.45099
G01 X7.54498 Y1.19899
G01 X7.53764 Y1.09650
G01 X7.51579 Y0.99609
G01 X7.49611 Y0.92906
G01 X7.45445 Y0.82500
G01 X7.64747 Y0.82500
G01 X7.66883 Y0.87834
G01 X7.68851 Y0.94537
G01 X7.71582 Y1.07087
G01 X7.72499 Y1.19899
G01 X7.72499 Y23.45099
G01 X7.71983 Y23.54715
G01 X7.70441 Y23.64223
G01 X7.69321 Y23.69374
G01 X7.65298 Y23.82495
G01 X7.45473 Y23.82495
G01 X7.84061 Y23.82495
G01 X7.86911 Y23.73196
G01 X7.88031 Y23.68045
G01 X7.89880 Y23.56638
G01 X7.90497 Y23.45099
G01 X7.90497 Y1.19899
G01 X7.89397 Y1.04524
G01 X7.86121 Y0.89467
G01 X7.84048 Y0.82500
G01 X8.02836 Y0.82500
G01 X8.07215 Y1.01964
G01 X8.08498 Y1.19899
G01 X8.08498 Y23.45099
G01 X8.07777 Y23.58561
G01 X8.05620 Y23.71871
G01 X8.02821 Y23.82495
G01 X7.84061 Y23.82495
G01 X8.21584 Y23.82495
G01 X8.23497 Y23.73918
G01 X8.42018 Y23.75041
G01 X8.41498 Y23.72645
G01 X8.43641 Y23.82495
G01 X8.42018 Y23.75041
G01 X8.60637 Y23.76168
G01 X8.57779 Y23.63031
G01 X8.56496 Y23.45099
G01 X8.56496 Y1.19899
G01 X8.41498 Y0.91080
G01 X8.43410 Y0.82500
G01 X8.41498 Y0.91080
G01 X8.56496 Y1.19899
G01 X8.92496 Y1.19899
G01 X8.92496 Y23.45099
G01 X8.93413 Y23.57908
G01 X8.96143 Y23.70458
G01 X8.98112 Y23.77161
G01 X9.00245 Y23.82495
G01 X9.19549 Y23.82495
G01 X9.15384 Y23.72089
G01 X9.13415 Y23.65386
G01 X9.11231 Y23.55345
G01 X9.10497 Y23.45099
G01 X9.10497 Y1.19899
G01 X9.10908 Y1.12203
G01 X9.13260 Y0.99447
G01 X9.16776 Y0.87986
G01 X9.19521 Y0.82500
G01 X8.99697 Y0.82500
G01 X8.95673 Y0.95622
G01 X8.94553 Y1.00773
G01 X8.93011 Y1.10280
G01 X8.92496 Y1.19899
G01 X9.64497 Y1.19899
G01 X9.64909 Y1.16074
G01 X9.66908 Y1.08057
G01 X9.70014 Y1.02957
G01 X9.74591 Y0.97676
G01 X9.77068 Y0.95317
G01 X9.79946 Y0.93468
G01 X9.89826 Y0.90227
G01 X9.94898 Y0.89498
G01 X15.45098 Y0.89498
G01 X15.48921 Y0.89909
G01 X15.56937 Y0.91908
G01 X15.62037 Y0.95015
G01 X15.69678 Y1.02068
G01 X15.71527 Y1.04946
G01 X15.72799 Y1.08124
G01 X15.74768 Y1.14827
G01 X15.75497 Y1.19899
G01 X15.75497 Y23.45099
G01 X15.75085 Y23.48922
G01 X15.73089 Y23.56938
G01 X15.69982 Y23.62036
G01 X15.65408 Y23.67316
G01 X15.62931 Y23.69679
G01 X15.60051 Y23.71528
G01 X15.50168 Y23.74769
G01 X15.45098 Y23.75498
G01 X9.94898 Y23.75498
G01 X9.85922 Y23.73966
G01 X9.80377 Y23.71746
G01 X9.72676 Y23.65404
G01 X9.70316 Y23.62927
G01 X9.68467 Y23.60049
G01 X9.67195 Y23.56872
G01 X9.65226 Y23.50169
G01 X9.64497 Y23.45099
G01 X9.64497 Y1.19899
G01 X8.56496 Y1.19899
G01 X8.57218 Y1.06434
G01 X8.59374 Y0.93125
G01 X8.62173 Y0.82500
G01 X8.80934 Y0.82500
G01 X8.78084 Y0.91799
G01 X8.76964 Y0.96950
G01 X8.75115 Y1.08357
G01 X8.74497 Y1.19899
G01 X8.74497 Y23.45099
G01 X8.75597 Y23.60471
G01 X8.78874 Y23.75528
G01 X8.80944 Y23.82495
G01 X8.62156 Y23.82495
G01 X8.61602 Y23.80601
G01 X8.60637 Y23.76168
G01 X9.64916 Y23.82495
G01 X15.75451 Y23.82495
G01 X15.82500 Y23.75076
G01 X15.75451 Y23.82495
G01 X15.82500 Y23.82498
G01 X15.82500 Y0.89548
G01 X15.75078 Y0.82500
G01 X15.82500 Y0.89548
G01 X15.82500 Y0.82500
G01 X8.41457 Y0.82500
G01 X8.41538 Y23.82495
G01 X9.64916 Y23.82495
G01 X9.60885 Y23.79005
G01 X9.56166 Y23.74052
G01 X9.52468 Y23.68297
G01 X9.49925 Y23.61944
G01 X9.47957 Y23.55241
G01 X9.46865 Y23.50222
G01 X9.46496 Y23.45099
G01 X9.46496 Y1.19899
G01 X9.47319 Y1.12248
G01 X9.50197 Y1.01367
G01 X9.52879 Y0.96008
G01 X9.56412 Y0.91166
G01 X9.60989 Y0.85886
G01 X9.64545 Y0.82500
G01 X9.40532 Y0.82500
G01 X9.37510 Y0.86638
G01 X9.33486 Y0.94677
G01 X9.30850 Y1.03270
G01 X9.29730 Y1.08423
G01 X9.28805 Y1.14128
G01 X9.28498 Y1.19899
G01 X9.28498 Y23.45099
G01 X9.29046 Y23.52785
G01 X9.30685 Y23.60314
G01 X9.32653 Y23.67017
G01 X9.36468 Y23.76544
G01 X9.40291 Y23.82495

G04 P0 ( dwell for no time -- G64 should not smooth over this point )
G00 Z10.000000 ( retract )

M5 ( Spindle off. )
G04 P1.000000
M9 ( Coolant off. )
M2 ( Program end. )

