( pcb2gcode 2.5.0 )
( Software-independent Gcode )

G94 ( Millimeters per minute feed rate. )
G21 ( Units == Millimeters. )

G90 ( Absolute coordinates. )
G00 S10000 ( RPM spindle speed. )
G64 P0.01016 ( set maximum deviation from commanded toolpath )
G01 F100.00000 ( Feedrate. )


G00 Z10.00000 (Retract to tool change height)
T0
M5      (Spindle stop.)
G04 P1.00000 (Wait for spindle to stop)
(MSG, Change tool bit to cutter diameter 1.10000mm)
M6      (Tool change.)
M0      (Temporary machine stop.)
M3 ( Spindle on clockwise. )
G04 P1.00000 (Wait for spindle to get up to speed)
G04 P0 ( dwell for no time -- G64 should not smooth over this point )
G00 Z2.00000 ( retract )

G00 X0.57501 Y1.12500 ( rapid move to begin. )
G01 Z-0.50000 F50.00000 ( plunge. )
G04 P0 ( dwell for no time -- G64 should not smooth over this point )
G01 F100.00000
G01 X0.57501 Y3.19999
G01 X0.57501 Y5.29999
G01 X0.57501 Y7.37497
G01 X0.58558 Y7.48226
G01 X0.61687 Y7.58544
G01 X0.66770 Y7.68054
G01 X0.73610 Y7.76387
G01 X0.81944 Y7.83228
G01 X0.91454 Y7.88310
G01 X1.01771 Y7.91439
G01 X1.12500 Y7.92496
G01 X26.12498 Y7.92496
G01 X26.23226 Y7.91439
G01 X26.33544 Y7.88310
G01 X26.43054 Y7.83228
G01 X26.51387 Y7.76387
G01 X26.58225 Y7.68054
G01 X26.63310 Y7.58544
G01 X26.66437 Y7.48226
G01 X26.67494 Y7.37497
G01 X26.67494 Y5.29999
G01 X26.67494 Y3.19999
G01 X26.67494 Y1.12500
G01 X26.66437 Y1.01771
G01 X26.63310 Y0.91454
G01 X26.58225 Y0.81944
G01 X26.51387 Y0.73610
G01 X26.43054 Y0.66770
G01 X26.33544 Y0.61687
G01 X26.23226 Y0.58558
G01 X26.12498 Y0.57501
G01 X1.12500 Y0.57501
G01 X1.01771 Y0.58558
G01 X0.91454 Y0.61687
G01 X0.81944 Y0.66770
G01 X0.73610 Y0.73610
G01 X0.66770 Y0.81944
G01 X0.61687 Y0.91454
G01 X0.58558 Y1.01771
G01 X0.57501 Y1.12500
G01 Z-1.00000 F50.00000 ( plunge. )
G04 P0 ( dwell for no time -- G64 should not smooth over this point )
G01 F100.00000
G01 X0.57501 Y3.19999
G01 X0.57501 Y5.29999
G01 X0.57501 Y7.37497
G01 X0.58558 Y7.48226
G01 X0.61687 Y7.58544
G01 X0.66770 Y7.68054
G01 X0.73610 Y7.76387
G01 X0.81944 Y7.83228
G01 X0.91454 Y7.88310
G01 X1.01771 Y7.91439
G01 X1.12500 Y7.92496
G01 X26.12498 Y7.92496
G01 X26.23226 Y7.91439
G01 X26.33544 Y7.88310
G01 X26.43054 Y7.83228
G01 X26.51387 Y7.76387
G01 X26.58225 Y7.68054
G01 X26.63310 Y7.58544
G01 X26.66437 Y7.48226
G01 X26.67494 Y7.37497
G01 X26.67494 Y5.29999
G01 X26.67494 Y3.19999
G01 X26.67494 Y1.12500
G01 X26.66437 Y1.01771
G01 X26.63310 Y0.91454
G01 X26.58225 Y0.81944
G01 X26.51387 Y0.73610
G01 X26.43054 Y0.66770
G01 X26.33544 Y0.61687
G01 X26.23226 Y0.58558
G01 X26.12498 Y0.57501
G01 X1.12500 Y0.57501
G01 X1.01771 Y0.58558
G01 X0.91454 Y0.61687
G01 X0.81944 Y0.66770
G01 X0.73610 Y0.73610
G01 X0.66770 Y0.81944
G01 X0.61687 Y0.91454
G01 X0.58558 Y1.01771
G01 X0.57501 Y1.12500
G01 Z-1.50000 F50.00000 ( plunge. )
G04 P0 ( dwell for no time -- G64 should not smooth over this point )
G01 F100.00000
G01 X0.57501 Y3.19999
G00 Z-1.20000
G01 X0.57501 Y5.29999
G01 Z-1.50000 F50.00000
G01 F100.00000
G01 X0.57501 Y7.37497
G01 X0.58558 Y7.48226
G01 X0.61687 Y7.58544
G01 X0.66770 Y7.68054
G01 X0.73610 Y7.76387
G01 X0.81944 Y7.83228
G01 X0.91454 Y7.88310
G01 X1.01771 Y7.91439
G01 X1.12500 Y7.92496
G01 X26.12498 Y7.92496
G01 X26.23226 Y7.91439
G01 X26.33544 Y7.88310
G01 X26.43054 Y7.83228
G01 X26.51387 Y7.76387
G01 X26.58225 Y7.68054
G01 X26.63310 Y7.58544
G01 X26.66437 Y7.48226
G01 X26.67494 Y7.37497
G01 X26.67494 Y5.29999
G00 Z-1.20000
G01 X26.67494 Y3.19999
G01 Z-1.50000 F50.00000
G01 F100.00000
G01 X26.67494 Y1.12500
G01 X26.66437 Y1.01771
G01 X26.63310 Y0.91454
G01 X26.58225 Y0.81944
G01 X26.51387 Y0.73610
G01 X26.43054 Y0.66770
G01 X26.33544 Y0.61687
G01 X26.23226 Y0.58558
G01 X26.12498 Y0.57501
G01 X1.12500 Y0.57501
G01 X1.01771 Y0.58558
G01 X0.91454 Y0.61687
G01 X0.81944 Y0.66770
G01 X0.73610 Y0.73610
G01 X0.66770 Y0.81944
G01 X0.61687 Y0.91454
G01 X0.58558 Y1.01771
G01 X0.57501 Y1.12500
G01 Z-2.00000 F50.00000 ( plunge. )
G04 P0 ( dwell for no time -- G64 should not smooth over this point )
G01 F100.00000
G01 X0.57501 Y3.19999
G00 Z-1.20000
G01 X0.57501 Y5.29999
G01 Z-2.00000 F50.00000
G01 F100.00000
G01 X0.57501 Y7.37497
G01 X0.58558 Y7.48226
G01 X0.61687 Y7.58544
G01 X0.66770 Y7.68054
G01 X0.73610 Y7.76387
G01 X0.81944 Y7.83228
G01 X0.91454 Y7.88310
G01 X1.01771 Y7.91439
G01 X1.12500 Y7.92496
G01 X26.12498 Y7.92496
G01 X26.23226 Y7.91439
G01 X26.33544 Y7.88310
G01 X26.43054 Y7.83228
G01 X26.51387 Y7.76387
G01 X26.58225 Y7.68054
G01 X26.63310 Y7.58544
G01 X26.66437 Y7.48226
G01 X26.67494 Y7.37497
G01 X26.67494 Y5.29999
G00 Z-1.20000
G01 X26.67494 Y3.19999
G01 Z-2.00000 F50.00000
G01 F100.00000
G01 X26.67494 Y1.12500
G01 X26.66437 Y1.01771
G01 X26.63310 Y0.91454
G01 X26.58225 Y0.81944
G01 X26.51387 Y0.73610
G01 X26.43054 Y0.66770
G01 X26.33544 Y0.61687
G01 X26.23226 Y0.58558
G01 X26.12498 Y0.57501
G01 X1.12500 Y0.57501
G01 X1.01771 Y0.58558
G01 X0.91454 Y0.61687
G01 X0.81944 Y0.66770
G01 X0.73610 Y0.73610
G01 X0.66770 Y0.81944
G01 X0.61687 Y0.91454
G01 X0.58558 Y1.01771
G01 X0.57501 Y1.12500

G04 P0 ( dwell for no time -- G64 should not smooth over this point )
G00 Z10.000000 ( retract )

M5 ( Spindle off. )
G04 P1.000000
M9 ( Coolant off. )
M2 ( Program end. )

