( pcb2gcode 2.5.0 )
( Software-independent Gcode )

G94 ( Millimeters per minute feed rate. )
G21 ( Units == Millimeters. )

G90 ( Absolute coordinates. )
G00 S10000 ( RPM spindle speed. )
G64 P0.01016 ( set maximum deviation from commanded toolpath )
G01 F100.00000 ( Feedrate. )


G00 Z10.00000 (Retract to tool change height)
T0
M5      (Spindle stop.)
G04 P1.00000 (Wait for spindle to stop)
(MSG, Change tool bit to cutter diameter 0.80000mm)
M6      (Tool change.)
M0      (Temporary machine stop.)
M3 ( Spindle on clockwise. )
G04 P1.00000 (Wait for spindle to get up to speed)
G04 P0 ( dwell for no time -- G64 should not smooth over this point )
G00 Z2.00000 ( retract )

G00 X0.42500 Y0.82500 ( rapid move to begin. )
G01 Z-0.50000 F50.00000 ( plunge. )
G04 P0 ( dwell for no time -- G64 should not smooth over this point )
G01 F100.00000
G01 X0.42500 Y23.82498
G01 X0.43270 Y23.90301
G01 X0.45546 Y23.97804
G01 X0.49241 Y24.04720
G01 X0.54217 Y24.10781
G01 X0.60278 Y24.15757
G01 X0.67194 Y24.19452
G01 X0.74697 Y24.21728
G01 X0.82500 Y24.22498
G01 X7.42500 Y24.22498
G01 X9.22500 Y24.22498
G01 X15.82500 Y24.22498
G01 X15.90302 Y24.21728
G01 X15.97806 Y24.19452
G01 X16.04722 Y24.15757
G01 X16.10782 Y24.10781
G01 X16.15758 Y24.04720
G01 X16.19454 Y23.97804
G01 X16.21730 Y23.90301
G01 X16.22499 Y23.82498
G01 X16.22499 Y0.82500
G01 X16.21730 Y0.74697
G01 X16.19454 Y0.67194
G01 X16.15758 Y0.60278
G01 X16.10782 Y0.54217
G01 X16.04722 Y0.49241
G01 X15.97806 Y0.45546
G01 X15.90302 Y0.43270
G01 X15.82500 Y0.42500
G01 X9.22500 Y0.42500
G01 X7.42500 Y0.42500
G01 X0.82500 Y0.42500
G01 X0.74697 Y0.43270
G01 X0.67194 Y0.45546
G01 X0.60278 Y0.49241
G01 X0.54217 Y0.54217
G01 X0.49241 Y0.60278
G01 X0.45546 Y0.67194
G01 X0.43270 Y0.74697
G01 X0.42500 Y0.82500
G01 Z-1.00000 F50.00000 ( plunge. )
G04 P0 ( dwell for no time -- G64 should not smooth over this point )
G01 F100.00000
G01 X0.42500 Y23.82498
G01 X0.43270 Y23.90301
G01 X0.45546 Y23.97804
G01 X0.49241 Y24.04720
G01 X0.54217 Y24.10781
G01 X0.60278 Y24.15757
G01 X0.67194 Y24.19452
G01 X0.74697 Y24.21728
G01 X0.82500 Y24.22498
G01 X7.42500 Y24.22498
G01 X9.22500 Y24.22498
G01 X15.82500 Y24.22498
G01 X15.90302 Y24.21728
G01 X15.97806 Y24.19452
G01 X16.04722 Y24.15757
G01 X16.10782 Y24.10781
G01 X16.15758 Y24.04720
G01 X16.19454 Y23.97804
G01 X16.21730 Y23.90301
G01 X16.22499 Y23.82498
G01 X16.22499 Y0.82500
G01 X16.21730 Y0.74697
G01 X16.19454 Y0.67194
G01 X16.15758 Y0.60278
G01 X16.10782 Y0.54217
G01 X16.04722 Y0.49241
G01 X15.97806 Y0.45546
G01 X15.90302 Y0.43270
G01 X15.82500 Y0.42500
G01 X9.22500 Y0.42500
G01 X7.42500 Y0.42500
G01 X0.82500 Y0.42500
G01 X0.74697 Y0.43270
G01 X0.67194 Y0.45546
G01 X0.60278 Y0.49241
G01 X0.54217 Y0.54217
G01 X0.49241 Y0.60278
G01 X0.45546 Y0.67194
G01 X0.43270 Y0.74697
G01 X0.42500 Y0.82500
G01 Z-1.50000 F50.00000 ( plunge. )
G04 P0 ( dwell for no time -- G64 should not smooth over this point )
G01 F100.00000
G01 X0.42500 Y23.82498
G01 X0.43270 Y23.90301
G01 X0.45546 Y23.97804
G01 X0.49241 Y24.04720
G01 X0.54217 Y24.10781
G01 X0.60278 Y24.15757
G01 X0.67194 Y24.19452
G01 X0.74697 Y24.21728
G01 X0.82500 Y24.22498
G01 X7.42500 Y24.22498
G00 Z-1.20000
G01 X9.22500 Y24.22498
G01 Z-1.50000 F50.00000
G01 F100.00000
G01 X15.82500 Y24.22498
G01 X15.90302 Y24.21728
G01 X15.97806 Y24.19452
G01 X16.04722 Y24.15757
G01 X16.10782 Y24.10781
G01 X16.15758 Y24.04720
G01 X16.19454 Y23.97804
G01 X16.21730 Y23.90301
G01 X16.22499 Y23.82498
G01 X16.22499 Y0.82500
G01 X16.21730 Y0.74697
G01 X16.19454 Y0.67194
G01 X16.15758 Y0.60278
G01 X16.10782 Y0.54217
G01 X16.04722 Y0.49241
G01 X15.97806 Y0.45546
G01 X15.90302 Y0.43270
G01 X15.82500 Y0.42500
G01 X9.22500 Y0.42500
G00 Z-1.20000
G01 X7.42500 Y0.42500
G01 Z-1.50000 F50.00000
G01 F100.00000
G01 X0.82500 Y0.42500
G01 X0.74697 Y0.43270
G01 X0.67194 Y0.45546
G01 X0.60278 Y0.49241
G01 X0.54217 Y0.54217
G01 X0.49241 Y0.60278
G01 X0.45546 Y0.67194
G01 X0.43270 Y0.74697
G01 X0.42500 Y0.82500
G01 Z-2.00000 F50.00000 ( plunge. )
G04 P0 ( dwell for no time -- G64 should not smooth over this point )
G01 F100.00000
G01 X0.42500 Y23.82498
G01 X0.43270 Y23.90301
G01 X0.45546 Y23.97804
G01 X0.49241 Y24.04720
G01 X0.54217 Y24.10781
G01 X0.60278 Y24.15757
G01 X0.67194 Y24.19452
G01 X0.74697 Y24.21728
G01 X0.82500 Y24.22498
G01 X7.42500 Y24.22498
G00 Z-1.20000
G01 X9.22500 Y24.22498
G01 Z-2.00000 F50.00000
G01 F100.00000
G01 X15.82500 Y24.22498
G01 X15.90302 Y24.21728
G01 X15.97806 Y24.19452
G01 X16.04722 Y24.15757
G01 X16.10782 Y24.10781
G01 X16.15758 Y24.04720
G01 X16.19454 Y23.97804
G01 X16.21730 Y23.90301
G01 X16.22499 Y23.82498
G01 X16.22499 Y0.82500
G01 X16.21730 Y0.74697
G01 X16.19454 Y0.67194
G01 X16.15758 Y0.60278
G01 X16.10782 Y0.54217
G01 X16.04722 Y0.49241
G01 X15.97806 Y0.45546
G01 X15.90302 Y0.43270
G01 X15.82500 Y0.42500
G01 X9.22500 Y0.42500
G00 Z-1.20000
G01 X7.42500 Y0.42500
G01 Z-2.00000 F50.00000
G01 F100.00000
G01 X0.82500 Y0.42500
G01 X0.74697 Y0.43270
G01 X0.67194 Y0.45546
G01 X0.60278 Y0.49241
G01 X0.54217 Y0.54217
G01 X0.49241 Y0.60278
G01 X0.45546 Y0.67194
G01 X0.43270 Y0.74697
G01 X0.42500 Y0.82500

G04 P0 ( dwell for no time -- G64 should not smooth over this point )
G00 Z10.000000 ( retract )

M5 ( Spindle off. )
G04 P1.000000
M9 ( Coolant off. )
M2 ( Program end. )

