( pcb2gcode 2.5.0 )
( Software-independent Gcode )

G94 ( Millimeters per minute feed rate. )
G21 ( Units == Millimeters. )

G90 ( Absolute coordinates. )
G00 S10000 ( RPM spindle speed. )
G64 P0.01016 ( set maximum deviation from commanded toolpath )
G01 F150.00000 ( Feedrate. )


G00 Z10.00000 (Retract to tool change height)
T0
M5      (Spindle stop.)
G04 P1.00000 (Wait for spindle to stop)
(MSG, Change tool bit to mill diameter 0.40000mm)
M6      (Tool change.)
M0      (Temporary machine stop.)
M3 ( Spindle on clockwise. )
G04 P1.00000 (Wait for spindle to get up to speed)
G04 P0 ( dwell for no time -- G64 should not smooth over this point )
G00 Z2.00000 ( retract )

G00 X18.01605 Y0.82500 ( rapid move to begin. )
G01 F75.00000
( Mill infeed pass 1/1 )
G01 Z-0.10000
G04 P0 ( dwell for no time -- G64 should not smooth over this point )
G01 F150.00000
G01 X18.01605 Y0.82500
G01 X18.02497 Y0.94949
G01 X18.02497 Y21.70098
G01 X17.98946 Y22.36349
G01 X17.88339 Y23.01840
G01 X17.87218 Y23.06991
G01 X17.56987 Y24.05625
G01 X17.10818 Y24.97880
G01 X16.49992 Y25.81202
G01 X16.45418 Y25.86483
G01 X15.60092 Y26.67857
G01 X14.60905 Y27.31606
G01 X13.51441 Y27.75426
G01 X13.44735 Y27.77394
G01 X12.58312 Y27.96190
G01 X11.70098 Y28.02497
G01 X7.47952 Y28.02497
G01 X8.02496 Y29.02497
G01 X7.80680 Y28.62497
G01 X11.70098 Y28.62497
G01 X12.66849 Y28.55578
G01 X13.61634 Y28.34963
G01 X13.68339 Y28.32995
G01 X14.88398 Y27.84936
G01 X15.97186 Y27.15017
G01 X16.90767 Y26.25769
G01 X16.95342 Y26.20488
G01 X17.62055 Y25.29102
G01 X18.12690 Y24.27918
G01 X18.45847 Y23.19740
G01 X18.46967 Y23.14588
G01 X18.58603 Y22.42760
G01 X18.62496 Y21.70098
G01 X18.62496 Y0.94949
G01 X18.61605 Y0.82500
G01 X18.81605 Y0.82500
G01 X18.82496 Y0.94949
G01 X18.82496 Y21.70098
G01 X18.78488 Y22.44896
G01 X18.66510 Y23.18840
G01 X18.65390 Y23.23992
G01 X18.31260 Y24.35350
G01 X17.79134 Y25.39508
G01 X17.10460 Y26.33579
G01 X17.05885 Y26.38863
G01 X16.09548 Y27.30737
G01 X14.97562 Y28.02713
G01 X13.73971 Y28.52185
G01 X13.67268 Y28.54153
G01 X12.69696 Y28.75375
G01 X11.70098 Y28.82497
G01 X7.91589 Y28.82497
G01 X8.02496 Y29.02497
G01 X7.37043 Y27.82497
G01 X8.02496 Y29.02497
G01 X11.70098 Y29.02497
G01 X12.72541 Y28.95172
G01 X13.72901 Y28.73345
G01 X13.79607 Y28.71377
G01 X15.06726 Y28.20490
G01 X16.21913 Y27.46457
G01 X17.21001 Y26.51959
G01 X17.25575 Y26.46678
G01 X17.96213 Y25.49917
G01 X18.49827 Y24.42782
G01 X18.84935 Y23.28241
G01 X18.86055 Y23.23090
G01 X18.98374 Y22.47035
G01 X19.02496 Y21.70098
G01 X19.02496 Y0.94949
G01 X19.01605 Y0.82500
G01 X19.21607 Y0.82500
G01 X19.22496 Y0.94949
G01 X19.22496 Y21.70098
G01 X19.18260 Y22.49171
G01 X19.05598 Y23.27339
G01 X19.04478 Y23.32490
G01 X18.68394 Y24.50214
G01 X18.13292 Y25.60323
G01 X17.40693 Y26.59774
G01 X17.36119 Y26.65053
G01 X16.34277 Y27.62177
G01 X15.15891 Y28.38265
G01 X13.85238 Y28.90567
G01 X13.78535 Y28.92535
G01 X12.75388 Y29.14968
G01 X11.70098 Y29.22497
G01 X8.13405 Y29.22497
G01 X8.24315 Y29.42497
G01 X11.70098 Y29.42497
G01 X12.78233 Y29.34765
G01 X13.84169 Y29.11725
G01 X13.90874 Y29.09756
G01 X15.25055 Y28.56043
G01 X16.46642 Y27.77900
G01 X17.51234 Y26.78149
G01 X17.55809 Y26.72868
G01 X18.30371 Y25.70732
G01 X18.86962 Y24.57644
G01 X19.24020 Y23.36740
G01 X19.25140 Y23.31589
G01 X19.38145 Y22.51307
G01 X19.42496 Y21.70098
G01 X19.42496 Y0.94949
G01 X19.41607 Y0.82500
G01 X19.61607 Y0.82500
G01 X19.62496 Y0.94949
G01 X19.62496 Y21.70098
G01 X19.58031 Y22.53446
G01 X19.44683 Y23.35838
G01 X19.43563 Y23.40989
G01 X19.05532 Y24.65076
G01 X18.47449 Y25.81139
G01 X17.70927 Y26.85964
G01 X17.66352 Y26.91243
G01 X16.59004 Y27.93620
G01 X15.34219 Y28.73820
G01 X13.96505 Y29.28946
G01 X13.89802 Y29.30914
G01 X12.81078 Y29.54562
G01 X11.70098 Y29.62497
G01 X8.35224 Y29.62497
G01 X8.67952 Y30.22497
G01 X11.70098 Y30.22497
G01 X12.89615 Y30.13950
G01 X14.06704 Y29.88486
G01 X14.13409 Y29.86518
G01 X15.61715 Y29.27150
G01 X16.96098 Y28.40780
G01 X18.11702 Y27.30531
G01 X18.16276 Y27.25251
G01 X18.98684 Y26.12360
G01 X19.61234 Y24.87372
G01 X20.02194 Y23.53740
G01 X20.03314 Y23.48589
G01 X20.17688 Y22.59857
G01 X20.22496 Y21.70098
G01 X20.22496 Y0.94949
G01 X20.21607 Y0.82500
G01 X20.82499 Y0.82500
G01 X20.82496 Y25.56805
G01 X20.18237 Y26.85213
G01 X19.22092 Y28.16917
G01 X19.17518 Y28.22197
G01 X17.82646 Y29.50820
G01 X16.25865 Y30.51587
G01 X14.52843 Y31.20848
G01 X14.46137 Y31.22816
G01 X13.09536 Y31.52527
G01 X11.70098 Y31.62496
G01 X9.44314 Y31.62496
G01 X7.15224 Y27.42495
G01 X11.70098 Y27.42495
G01 X12.49775 Y27.36797
G01 X13.27834 Y27.19823
G01 X13.34540 Y27.17854
G01 X14.33409 Y26.78276
G01 X15.23000 Y26.20697
G01 X16.00069 Y25.47197
G01 X16.04643 Y25.41916
G01 X16.59581 Y24.66656
G01 X17.01283 Y23.83331
G01 X17.28588 Y22.94243
G01 X17.29708 Y22.89092
G01 X17.39291 Y22.29935
G01 X17.42497 Y21.70098
G01 X17.42497 Y0.94949
G01 X17.41605 Y0.82500
G01 X17.21605 Y0.82500
G01 X17.22497 Y0.94949
G01 X17.22497 Y21.70098
G01 X17.19406 Y22.27799
G01 X17.10165 Y22.84840
G01 X17.09045 Y22.89991
G01 X16.82713 Y23.75899
G01 X16.42505 Y24.56249
G01 X15.89525 Y25.28820
G01 X15.84951 Y25.34100
G01 X15.10635 Y26.04977
G01 X14.24245 Y26.60498
G01 X13.28906 Y26.98664
G01 X13.22200 Y27.00633
G01 X12.46930 Y27.17003
G01 X11.70098 Y27.22497
G01 X7.04315 Y27.22497
G01 X7.37040 Y27.82497
G01 X11.70098 Y27.82497
G01 X12.55467 Y27.76394
G01 X13.39101 Y27.58202
G01 X13.45807 Y27.56234
G01 X14.51738 Y27.13828
G01 X15.47727 Y26.52137
G01 X16.30302 Y25.73387
G01 X16.34877 Y25.68106
G01 X16.93739 Y24.87471
G01 X17.38417 Y23.98193
G01 X17.67673 Y23.02742
G01 X17.68793 Y22.97591
G01 X17.79060 Y22.34210
G01 X17.82497 Y21.70098
G01 X17.82497 Y0.94949
G01 X17.81605 Y0.82500
G01 X17.61605 Y0.82500
G01 X17.62497 Y0.94949
G01 X17.62497 Y21.70098
G01 X17.59177 Y22.32074
G01 X17.49251 Y22.93341
G01 X17.48130 Y22.98493
G01 X17.19850 Y23.90761
G01 X16.76660 Y24.77065
G01 X16.19759 Y25.55012
G01 X16.15184 Y25.60293
G01 X15.35365 Y26.36417
G01 X14.42573 Y26.96053
G01 X13.40173 Y27.37044
G01 X13.33468 Y27.39012
G01 X12.52622 Y27.56597
G01 X11.70098 Y27.62497
G01 X7.26131 Y27.62497
G01 X5.73406 Y24.82498
G01 X11.70098 Y24.82498
G01 X12.12782 Y24.79445
G01 X12.54598 Y24.70349
G01 X12.61304 Y24.68380
G01 X13.14270 Y24.47179
G01 X13.62261 Y24.16333
G01 X14.03551 Y23.76958
G01 X14.08126 Y23.71678
G01 X14.37557 Y23.31360
G01 X14.59896 Y22.86720
G01 X14.74524 Y22.38996
G01 X14.75644 Y22.33844
G01 X14.80778 Y22.02153
G01 X14.82497 Y21.70098
G01 X14.82497 Y0.94949
G01 X14.81606 Y0.82500
G01 X15.01606 Y0.82500
G01 X15.02497 Y0.94949
G01 X15.02497 Y21.70098
G01 X15.00663 Y22.04292
G01 X14.95190 Y22.38094
G01 X14.94069 Y22.43245
G01 X14.78466 Y22.94152
G01 X14.54636 Y23.41766
G01 X14.23244 Y23.84774
G01 X14.18670 Y23.90054
G01 X13.74628 Y24.32053
G01 X13.23435 Y24.64956
G01 X12.66938 Y24.87573
G01 X12.60232 Y24.89541
G01 X12.15627 Y24.99241
G01 X11.70098 Y25.02498
G01 X5.84315 Y25.02498
G01 X4.75225 Y23.02498
G01 X11.70098 Y23.02498
G01 X11.87171 Y23.01276
G01 X12.03897 Y22.97639
G01 X12.10603 Y22.95671
G01 X12.31789 Y22.87190
G01 X12.50986 Y22.74850
G01 X12.67501 Y22.59100
G01 X12.72076 Y22.53819
G01 X12.83849 Y22.37693
G01 X12.92785 Y22.19836
G01 X12.98637 Y22.00746
G01 X12.99757 Y21.95595
G01 X13.01809 Y21.82920
G01 X13.02498 Y21.70098
G01 X13.02498 Y0.94949
G01 X13.01606 Y0.82500
G01 X12.81606 Y0.82500
G01 X12.82498 Y0.94949
G01 X12.82498 Y21.70098
G01 X12.81924 Y21.80781
G01 X12.80212 Y21.91345
G01 X12.79091 Y21.96496
G01 X12.74217 Y22.12404
G01 X12.66770 Y22.27286
G01 X12.56960 Y22.40725
G01 X12.52386 Y22.46006
G01 X12.38622 Y22.59130
G01 X12.22625 Y22.69412
G01 X12.04969 Y22.76478
G01 X11.98264 Y22.78447
G01 X11.84324 Y22.81480
G01 X11.70098 Y22.82498
G01 X4.64315 Y22.82498
G01 X12.82498 Y37.82498
G01 X20.82499 Y37.82498
G01 X20.82499 Y37.75690
G01 X20.70644 Y37.82498
G01 X20.82499 Y37.75690
G01 X20.82496 Y31.32560
G01 X20.82496 Y36.83727
G01 X19.30678 Y37.70898
G01 X19.00241 Y37.82495
G01 X20.30604 Y37.82495
G01 X20.82499 Y37.52701
G01 X20.30604 Y37.82495
G01 X19.50520 Y37.82495
G01 X19.90561 Y37.82495
G01 X20.82496 Y37.29709
G01 X20.82496 Y36.83727
G01 X20.82496 Y37.06717
G01 X19.50518 Y37.82498
G01 X17.88260 Y37.82495
G01 X18.44249 Y37.82495
G01 X19.22110 Y37.52825
G01 X20.82499 Y36.60735
G01 X20.82496 Y36.37746
G01 X19.13543 Y37.34753
G01 X17.88260 Y37.82495
G01 X16.76279 Y37.82495
G01 X18.96411 Y36.98609
G01 X20.82499 Y35.91761
G01 X20.82499 Y35.68772
G01 X18.87843 Y36.80534
G01 X16.44382 Y37.73316
G01 X16.37676 Y37.75284
G01 X16.04440 Y37.82495
G01 X17.32268 Y37.82498
G01 X19.04975 Y37.16681
G01 X20.82499 Y36.14754
G01 X20.82499 Y35.22788
G01 X20.82499 Y35.45780
G01 X18.79276 Y36.62462
G01 X16.38748 Y37.54126
G01 X16.32042 Y37.56094
G01 X15.10351 Y37.82495
G01 X14.16274 Y37.82495
G01 X16.26409 Y37.36902
G01 X16.33114 Y37.34934
G01 X18.70708 Y36.44390
G01 X20.82499 Y35.22788
G01 X20.82499 Y34.99201
G01 X20.79920 Y35.01276
G01 X18.62143 Y36.26318
G01 X16.27480 Y37.15744
G01 X16.20775 Y37.17712
G01 X13.96168 Y37.66445
G01 X12.78243 Y37.74700
G01 X12.57230 Y37.36173
G01 X12.67738 Y37.55437
G01 X13.93338 Y37.46646
G01 X16.15141 Y36.98523
G01 X16.21847 Y36.96554
G01 X18.53576 Y36.08246
G01 X20.68633 Y34.84766
G01 X20.82496 Y34.73593
G01 X20.82496 Y34.47987
G01 X20.57342 Y34.68256
G01 X18.45009 Y35.90174
G01 X16.16213 Y36.77365
G01 X16.09507 Y36.79333
G01 X13.90514 Y37.26846
G01 X12.57230 Y37.36173
G01 X12.25779 Y36.78515
G01 X12.36219 Y36.97652
G01 X13.84862 Y36.87248
G01 X15.98242 Y36.40951
G01 X16.04948 Y36.38983
G01 X18.27876 Y35.54030
G01 X20.34764 Y34.35239
G01 X20.82499 Y33.96773
G01 X20.82499 Y34.22379
G01 X20.46055 Y34.51749
G01 X18.36441 Y35.72102
G01 X16.10579 Y36.58175
G01 X16.03874 Y36.60143
G01 X13.87689 Y37.07047
G01 X12.46724 Y37.16912
G01 X11.94281 Y36.20766
G01 X12.25779 Y36.78513
G01 X13.83521 Y36.67235
G01 X15.92609 Y36.21761
G01 X15.99314 Y36.19793
G01 X18.19309 Y35.35958
G01 X20.23477 Y34.18729
G01 X20.82496 Y33.71165
G01 X20.82499 Y33.49776
G01 X18.54981 Y34.96003
G01 X15.93681 Y36.00603
G01 X15.86975 Y36.02572
G01 X13.80679 Y36.47438
G01 X12.15282 Y36.59264
G01 X11.94281 Y36.20768
G01 X12.04781 Y36.40016
G01 X13.77831 Y36.27642
G01 X15.81341 Y35.83382
G01 X15.88047 Y35.81414
G01 X18.45816 Y34.78226
G01 X20.79387 Y33.28107
G01 X20.82496 Y33.25143
G01 X20.82499 Y32.97632
G01 X20.67025 Y33.12387
G01 X18.36649 Y34.60451
G01 X15.82413 Y35.62224
G01 X15.75708 Y35.64192
G01 X13.74987 Y36.07847
G01 X11.94281 Y36.20766
G01 X11.51589 Y35.42498
G01 X11.83780 Y36.01518
G01 X11.62498 Y35.62498
G01 X11.73283 Y35.82267
G01 X13.69292 Y35.68254
G01 X15.64440 Y35.25810
G01 X15.71146 Y35.23842
G01 X18.18321 Y34.24896
G01 X20.42295 Y32.80947
G01 X20.82499 Y32.42608
G01 X20.82496 Y32.70119
G01 X20.54660 Y32.96667
G01 X18.27485 Y34.42674
G01 X15.76779 Y35.43034
G01 X15.70074 Y35.45003
G01 X13.72142 Y35.88051
G01 X11.83780 Y36.01518
G01 X11.62498 Y35.62498
G01 X11.70098 Y35.62498
G01 X13.66450 Y35.48457
G01 X15.58806 Y35.06621
G01 X15.65512 Y35.04652
G01 X18.09156 Y34.07121
G01 X20.29931 Y32.65227
G01 X20.82496 Y32.15095
G01 X20.82496 Y31.87584
G01 X20.17569 Y32.49507
G01 X17.99992 Y33.89344
G01 X15.59878 Y34.85462
G01 X15.53173 Y34.87431
G01 X13.63602 Y35.28660
G01 X11.70098 Y35.42498
G01 X11.51589 Y35.42498
G01 X11.40679 Y35.22498
G01 X11.70098 Y35.22498
G01 X13.60758 Y35.08863
G01 X15.47539 Y34.68241
G01 X15.54245 Y34.66273
G01 X17.90828 Y33.71566
G01 X20.05204 Y32.33787
G01 X20.82499 Y31.60073
G01 X20.82496 Y29.67490
G01 X19.18653 Y31.23744
G01 X17.26675 Y32.47129
G01 X15.14811 Y33.31940
G01 X15.08105 Y33.33908
G01 X13.40839 Y33.70289
G01 X11.70098 Y33.82496
G01 X10.64314 Y33.82496
G01 X11.07951 Y34.62498
G01 X11.70098 Y34.62498
G01 X13.52221 Y34.49473
G01 X15.30640 Y34.10670
G01 X15.37346 Y34.08701
G01 X17.63335 Y33.18236
G01 X19.68110 Y31.86626
G01 X20.82499 Y30.77536
G01 X20.82499 Y31.05049
G01 X19.80474 Y32.02346
G01 X17.72499 Y33.36014
G01 X15.42980 Y34.27891
G01 X15.36274 Y34.29859
G01 X13.55063 Y34.69270
G01 X11.70098 Y34.82498
G01 X11.18861 Y34.82498
G01 X10.86133 Y34.22496
G01 X10.97042 Y34.42496
G01 X11.70098 Y34.42496
G01 X13.49376 Y34.29676
G01 X15.25007 Y33.91480
G01 X15.31712 Y33.89511
G01 X17.54171 Y33.00459
G01 X19.55747 Y31.70906
G01 X20.82496 Y30.50025
G01 X20.82496 Y30.22514
G01 X19.43383 Y31.55184
G01 X17.45006 Y32.82684
G01 X15.26079 Y33.70322
G01 X15.19373 Y33.72290
G01 X13.46528 Y34.09882
G01 X11.70098 Y34.22496
G01 X10.86133 Y34.22496
G01 X10.75223 Y34.02496
G01 X11.70098 Y34.02496
G01 X13.43684 Y33.90085
G01 X15.13739 Y33.53101
G01 X15.20445 Y33.51132
G01 X17.35839 Y32.64907
G01 X19.31018 Y31.39464
G01 X20.82499 Y29.95001
G01 X20.82499 Y26.90409
G01 X20.82496 Y27.32398
G01 X19.82560 Y28.69299
G01 X19.77985 Y28.74580
G01 X18.32105 Y30.13703
G01 X16.62525 Y31.22692
G01 X14.75378 Y31.97609
G01 X14.68672 Y31.99578
G01 X13.20918 Y32.31711
G01 X11.70098 Y32.42496
G01 X9.87952 Y32.42496
G01 X10.53405 Y33.62496
G01 X9.98861 Y32.62496
G01 X11.70098 Y32.62496
G01 X13.23765 Y32.51508
G01 X14.74306 Y32.18768
G01 X14.81011 Y32.16799
G01 X16.71689 Y31.40469
G01 X18.44468 Y30.29423
G01 X19.93101 Y28.87673
G01 X19.97675 Y28.82393
G01 X20.82499 Y27.66200
G01 X20.82496 Y28.00003
G01 X20.12793 Y28.95489
G01 X20.08219 Y29.00770
G01 X18.56832 Y30.45143
G01 X16.80853 Y31.58247
G01 X14.86642 Y32.35989
G01 X14.79937 Y32.37957
G01 X13.26610 Y32.71305
G01 X11.70098 Y32.82496
G01 X10.09770 Y32.82496
G01 X10.53405 Y33.62496
G01 X9.77042 Y32.22496
G01 X11.70098 Y32.22496
G01 X13.18073 Y32.11915
G01 X14.63038 Y31.80388
G01 X14.69744 Y31.78420
G01 X16.53360 Y31.04917
G01 X18.19741 Y29.97983
G01 X19.62867 Y28.61484
G01 X19.67442 Y28.56203
G01 X20.69473 Y27.16437
G01 X20.82499 Y26.90409
G01 X20.82499 Y0.82500
G01 X20.81607 Y0.82500
G01 X20.82496 Y0.94949
G01 X20.81607 Y0.82500
G01 X19.81607 Y0.82500
G01 X20.01607 Y0.82500
G01 X20.02496 Y0.94949
G01 X20.02496 Y21.70098
G01 X19.97802 Y22.57720
G01 X19.83771 Y23.44340
G01 X19.82651 Y23.49491
G01 X19.42666 Y24.79940
G01 X18.81607 Y26.01954
G01 X18.01161 Y27.12152
G01 X17.96586 Y27.17435
G01 X16.83734 Y28.25060
G01 X15.52548 Y29.09373
G01 X14.07773 Y29.67328
G01 X14.01070 Y29.69296
G01 X12.86770 Y29.94155
G01 X11.70098 Y30.02497
G01 X8.57043 Y30.02497
G01 X9.44314 Y31.62496
G01 X9.22498 Y31.22496
G01 X11.70098 Y31.22496
G01 X13.03844 Y31.12933
G01 X14.34870 Y30.84437
G01 X14.41575 Y30.82469
G01 X16.07536 Y30.16032
G01 X17.57920 Y29.19380
G01 X18.87284 Y27.96007
G01 X18.91859 Y27.90727
G01 X19.84079 Y26.64400
G01 X20.54076 Y25.24530
G01 X20.82496 Y24.31799
G01 X20.82499 Y24.99810
G01 X20.72643 Y25.31959
G01 X20.01158 Y26.74806
G01 X19.06977 Y28.03823
G01 X19.02402 Y28.09104
G01 X17.70284 Y29.35100
G01 X16.16701 Y30.33810
G01 X14.47209 Y31.01658
G01 X14.40503 Y31.03627
G01 X13.06689 Y31.32730
G01 X11.70098 Y31.42496
G01 X9.33408 Y31.42496
G01 X8.67952 Y30.22497
G01 X9.00680 Y30.82497
G01 X11.70098 Y30.82497
G01 X12.98152 Y30.73340
G01 X14.23602 Y30.46055
G01 X14.30308 Y30.44087
G01 X15.89208 Y29.80480
G01 X17.33190 Y28.87940
G01 X18.57051 Y27.69817
G01 X18.61625 Y27.64537
G01 X19.49921 Y26.43582
G01 X20.16939 Y25.09666
G01 X20.60822 Y23.66488
G01 X20.61942 Y23.61337
G01 X20.77342 Y22.66268
G01 X20.82496 Y21.70098
G01 X20.82496 Y23.59351
G01 X20.80367 Y23.70738
G01 X20.35506 Y25.17098
G01 X19.67000 Y26.53988
G01 X18.76743 Y27.77630
G01 X18.72169 Y27.82911
G01 X17.45555 Y29.03660
G01 X15.98372 Y29.98257
G01 X14.35942 Y30.63279
G01 X14.29236 Y30.65247
G01 X13.00999 Y30.93137
G01 X11.70098 Y31.02496
G01 X9.11586 Y31.02496
G01 X8.89770 Y30.62497
G01 X11.70098 Y30.62497
G01 X12.95307 Y30.53543
G01 X14.17969 Y30.26865
G01 X14.24674 Y30.24897
G01 X15.80043 Y29.62703
G01 X17.20825 Y28.72220
G01 X18.41935 Y27.56721
G01 X18.46510 Y27.51441
G01 X19.32842 Y26.33176
G01 X19.98371 Y25.02234
G01 X20.41279 Y23.62239
G01 X20.42400 Y23.57088
G01 X20.57459 Y22.64131
G01 X20.62496 Y21.70098
G01 X20.62496 Y0.94949
G01 X20.61607 Y0.82500
G01 X20.41607 Y0.82500
G01 X20.42496 Y0.94949
G01 X20.42496 Y21.70098
G01 X20.37574 Y22.61993
G01 X20.22857 Y23.52838
G01 X20.21737 Y23.57989
G01 X19.79804 Y24.94802
G01 X19.15763 Y26.22767
G01 X18.31392 Y27.38344
G01 X18.26817 Y27.43625
G01 X17.08463 Y28.56500
G01 X15.70879 Y29.44925
G01 X14.19043 Y30.05707
G01 X14.12335 Y30.07676
G01 X12.92462 Y30.33746
G01 X11.70098 Y30.42497
G01 X8.78861 Y30.42497
G01 X9.11586 Y31.02496
G01 X8.46133 Y29.82497
G01 X11.70098 Y29.82497
G01 X12.83925 Y29.74359
G01 X13.95436 Y29.50104
G01 X14.02142 Y29.48136
G01 X15.43384 Y28.91595
G01 X16.71369 Y28.09340
G01 X17.81468 Y27.04341
G01 X17.86042 Y26.99058
G01 X18.64528 Y25.91548
G01 X19.24099 Y24.72508
G01 X19.63106 Y23.45239
G01 X19.64226 Y23.40088
G01 X19.77917 Y22.55582
G01 X19.82496 Y21.70098
G01 X19.82496 Y0.94949
G01 X19.81607 Y0.82500
G01 X18.21605 Y0.82500
G01 X18.41605 Y0.82500
G01 X18.42496 Y0.94949
G01 X18.42496 Y21.70098
G01 X18.38717 Y22.40621
G01 X18.27424 Y23.10339
G01 X18.26304 Y23.15490
G01 X17.94122 Y24.20489
G01 X17.44976 Y25.18695
G01 X16.80226 Y26.07392
G01 X16.75652 Y26.12673
G01 X15.84821 Y26.99297
G01 X14.79233 Y27.67161
G01 X13.62703 Y28.13805
G01 X13.56000 Y28.15774
G01 X12.64004 Y28.35781
G01 X11.70098 Y28.42497
G01 X7.69771 Y28.42497
G01 X8.02496 Y29.02497
G01 X7.58861 Y28.22497
G01 X11.70098 Y28.22497
G01 X12.61159 Y28.15985
G01 X13.50369 Y27.96584
G01 X13.57075 Y27.94615
G01 X14.70069 Y27.49383
G01 X15.72456 Y26.83577
G01 X16.60536 Y25.99579
G01 X16.65110 Y25.94298
G01 X17.27897 Y25.08286
G01 X17.75555 Y24.13057
G01 X18.06761 Y23.11241
G01 X18.07881 Y23.06090
G01 X18.18831 Y22.38485
G01 X18.22497 Y21.70098
G01 X18.22497 Y0.94949
G01 X18.21605 Y0.82500
G01 X15.21606 Y0.82500
G01 X15.41606 Y0.82500
G01 X15.42497 Y0.94949
G01 X15.42497 Y21.70098
G01 X15.40435 Y22.08566
G01 X15.34275 Y22.46593
G01 X15.33155 Y22.51744
G01 X15.15601 Y23.09016
G01 X14.88794 Y23.62582
G01 X14.53475 Y24.10964
G01 X14.48901 Y24.16244
G01 X13.99358 Y24.63493
G01 X13.41763 Y25.00509
G01 X12.78205 Y25.25952
G01 X12.71499 Y25.27921
G01 X12.21319 Y25.38835
G01 X11.70098 Y25.42498
G01 X6.06134 Y25.42498
G01 X6.82496 Y26.82495
G01 X11.70098 Y26.82495
G01 X12.41238 Y26.77407
G01 X13.10933 Y26.62248
G01 X13.17638 Y26.60282
G01 X14.05916 Y26.24946
G01 X14.85906 Y25.73534
G01 X15.54720 Y25.07910
G01 X15.59294 Y25.02630
G01 X16.08347 Y24.35434
G01 X16.45578 Y23.61035
G01 X16.69957 Y22.81492
G01 X16.71077 Y22.76341
G01 X16.79634 Y22.23524
G01 X16.82497 Y21.70098
G01 X16.82497 Y0.94949
G01 X16.81605 Y0.82500
G01 X17.01605 Y0.82500
G01 X17.02497 Y0.94949
G01 X17.02497 Y21.70098
G01 X16.99520 Y22.25663
G01 X16.90622 Y22.80591
G01 X16.89502 Y22.85742
G01 X16.64145 Y23.68467
G01 X16.25426 Y24.45843
G01 X15.74410 Y25.15726
G01 X15.69835 Y25.21007
G01 X14.98271 Y25.89256
G01 X14.15081 Y26.42723
G01 X13.23272 Y26.79475
G01 X13.16567 Y26.81443
G01 X12.44085 Y26.97206
G01 X11.70098 Y27.02497
G01 X6.93406 Y27.02497
G01 X6.60680 Y26.42497
G01 X11.70098 Y26.42497
G01 X12.35548 Y26.37816
G01 X12.99665 Y26.23872
G01 X13.06371 Y26.21903
G01 X13.87588 Y25.89394
G01 X14.61179 Y25.42094
G01 X15.24486 Y24.81721
G01 X15.29060 Y24.76440
G01 X15.74189 Y24.14619
G01 X16.08441 Y23.46173
G01 X16.30871 Y22.72993
G01 X16.31991 Y22.67842
G01 X16.39863 Y22.19250
G01 X16.42497 Y21.70098
G01 X16.42497 Y0.94949
G01 X16.41605 Y0.82500
G01 X16.21605 Y0.82500
G01 X16.22497 Y0.94949
G01 X16.22497 Y21.70098
G01 X16.19977 Y22.17113
G01 X16.12449 Y22.63593
G01 X16.11329 Y22.68744
G01 X15.89873 Y23.38741
G01 X15.57110 Y24.04212
G01 X15.13942 Y24.63344
G01 X15.09368 Y24.68624
G01 X14.48814 Y25.26374
G01 X13.78423 Y25.71616
G01 X13.00737 Y26.02713
G01 X12.94032 Y26.04682
G01 X12.32701 Y26.18019
G01 X11.70098 Y26.22497
G01 X6.49771 Y26.22497
G01 X6.71587 Y26.62497
G01 X6.38862 Y26.02498
G01 X11.70098 Y26.02498
G01 X12.29856 Y25.98223
G01 X12.88401 Y25.85492
G01 X12.95106 Y25.83524
G01 X13.69259 Y25.53839
G01 X14.36450 Y25.10654
G01 X14.94252 Y24.55531
G01 X14.98827 Y24.50250
G01 X15.40031 Y23.93803
G01 X15.71306 Y23.31309
G01 X15.91786 Y22.64495
G01 X15.92906 Y22.59343
G01 X16.00092 Y22.14977
G01 X16.02497 Y21.70098
G01 X16.02497 Y0.94949
G01 X16.01605 Y0.82500
G01 X15.81605 Y0.82500
G01 X15.82497 Y0.94949
G01 X15.82497 Y21.70098
G01 X15.80206 Y22.12839
G01 X15.73361 Y22.55092
G01 X15.72240 Y22.60243
G01 X15.52738 Y23.23877
G01 X15.22952 Y23.83397
G01 X14.83709 Y24.37154
G01 X14.79134 Y24.42434
G01 X14.24085 Y24.94934
G01 X13.60092 Y25.36061
G01 X12.89472 Y25.64331
G01 X12.82767 Y25.66300
G01 X12.27011 Y25.78428
G01 X11.70098 Y25.82498
G01 X6.27952 Y25.82498
G01 X6.71587 Y26.62497
G01 X11.70098 Y26.62497
G01 X12.38393 Y26.57613
G01 X13.05299 Y26.43061
G01 X13.12005 Y26.41093
G01 X13.96752 Y26.07169
G01 X14.73544 Y25.57814
G01 X15.39601 Y24.94817
G01 X15.44176 Y24.89536
G01 X15.91268 Y24.25028
G01 X16.27011 Y23.53603
G01 X16.50414 Y22.77243
G01 X16.51534 Y22.72092
G01 X16.59749 Y22.21388
G01 X16.62497 Y21.70098
G01 X16.62497 Y0.94949
G01 X16.61605 Y0.82500
G01 X15.41606 Y0.82500
G01 X15.61605 Y0.82500
G01 X15.62497 Y0.94949
G01 X15.62497 Y21.70098
G01 X15.60320 Y22.10703
G01 X15.53818 Y22.50842
G01 X15.52698 Y22.55993
G01 X15.34168 Y23.16445
G01 X15.05873 Y23.72991
G01 X14.68593 Y24.24057
G01 X14.64019 Y24.29338
G01 X14.11723 Y24.79214
G01 X13.50928 Y25.18286
G01 X12.83839 Y25.45142
G01 X12.77133 Y25.47110
G01 X12.24164 Y25.58632
G01 X11.70098 Y25.62498
G01 X6.17043 Y25.62498
G01 X6.71587 Y26.62497
G01 X5.95224 Y25.22498
G01 X11.70098 Y25.22498
G01 X12.18472 Y25.19038
G01 X12.65866 Y25.08731
G01 X12.72571 Y25.06762
G01 X13.32599 Y24.82731
G01 X13.86993 Y24.47773
G01 X14.33785 Y24.03148
G01 X14.38360 Y23.97867
G01 X14.71715 Y23.52175
G01 X14.97034 Y23.01584
G01 X15.13612 Y22.47494
G01 X15.14732 Y22.42343
G01 X15.20549 Y22.06428
G01 X15.22497 Y21.70098
G01 X15.22497 Y0.94949
G01 X15.21606 Y0.82500
G01 X13.21606 Y0.82500
G01 X13.41606 Y0.82500
G01 X13.42497 Y0.94949
G01 X13.42497 Y21.70098
G01 X13.41581 Y21.87195
G01 X13.38842 Y22.04096
G01 X13.37722 Y22.09247
G01 X13.29922 Y22.34700
G01 X13.18007 Y22.58508
G01 X13.02310 Y22.80011
G01 X12.97735 Y22.85292
G01 X12.75716 Y23.06290
G01 X12.50118 Y23.22742
G01 X12.21870 Y23.34050
G01 X12.15165 Y23.36018
G01 X11.92861 Y23.40870
G01 X11.70098 Y23.42498
G01 X4.97043 Y23.42498
G01 X5.62496 Y24.62498
G01 X5.51590 Y24.42498
G01 X11.70098 Y24.42498
G01 X12.07090 Y24.39851
G01 X12.43331 Y24.31970
G01 X12.50036 Y24.30001
G01 X12.95942 Y24.11627
G01 X13.37537 Y23.84893
G01 X13.73318 Y23.50768
G01 X13.77892 Y23.45488
G01 X14.03399 Y23.10545
G01 X14.22761 Y22.71858
G01 X14.35439 Y22.30494
G01 X14.36559 Y22.25343
G01 X14.41009 Y21.97881
G01 X14.42497 Y21.70098
G01 X14.42497 Y0.94949
G01 X14.41606 Y0.82500
G01 X14.61606 Y0.82500
G01 X14.62497 Y0.94949
G01 X14.62497 Y21.70098
G01 X14.60894 Y22.00017
G01 X14.56102 Y22.29595
G01 X14.54981 Y22.34746
G01 X14.41329 Y22.79290
G01 X14.20478 Y23.20951
G01 X13.93010 Y23.58581
G01 X13.88436 Y23.63862
G01 X13.49902 Y24.00613
G01 X13.05106 Y24.29402
G01 X12.55670 Y24.49191
G01 X12.48965 Y24.51159
G01 X12.09935 Y24.59648
G01 X11.70098 Y24.62498
G01 X5.62496 Y24.62498
G01 X5.29771 Y24.02498
G01 X11.70098 Y24.02498
G01 X12.01398 Y24.00258
G01 X12.32063 Y23.93590
G01 X12.38769 Y23.91622
G01 X12.77613 Y23.76072
G01 X13.12807 Y23.53450
G01 X13.43084 Y23.24576
G01 X13.47659 Y23.19295
G01 X13.69244 Y22.89730
G01 X13.85622 Y22.56994
G01 X13.96353 Y22.21995
G01 X13.97473 Y22.16844
G01 X14.01238 Y21.93606
G01 X14.02497 Y21.70098
G01 X14.02497 Y0.94949
G01 X14.01606 Y0.82500
G01 X14.21606 Y0.82500
G01 X14.22497 Y0.94949
G01 X14.22497 Y21.70098
G01 X14.21123 Y21.95742
G01 X14.17016 Y22.21094
G01 X14.15896 Y22.26245
G01 X14.04194 Y22.64426
G01 X13.86323 Y23.00138
G01 X13.62777 Y23.32391
G01 X13.58202 Y23.37672
G01 X13.25172 Y23.69171
G01 X12.86778 Y23.93849
G01 X12.44403 Y24.10811
G01 X12.37697 Y24.12780
G01 X12.04245 Y24.20054
G01 X11.70098 Y24.22498
G01 X5.40680 Y24.22498
G01 X5.62496 Y24.62498
G01 X5.18862 Y23.82498
G01 X11.70098 Y23.82498
G01 X11.98553 Y23.80463
G01 X12.26432 Y23.74398
G01 X12.33138 Y23.72429
G01 X12.68446 Y23.58294
G01 X13.00443 Y23.37730
G01 X13.27969 Y23.11482
G01 X13.32543 Y23.06201
G01 X13.52165 Y22.79323
G01 X13.67057 Y22.49562
G01 X13.76805 Y22.17746
G01 X13.77928 Y22.12595
G01 X13.81352 Y21.91467
G01 X13.82497 Y21.70098
G01 X13.82497 Y0.94949
G01 X13.81606 Y0.82500
G01 X13.41606 Y0.82500
G01 X13.61603 Y0.82500
G01 X13.62497 Y0.94949
G01 X13.62497 Y21.70098
G01 X13.61466 Y21.89331
G01 X13.58385 Y22.08345
G01 X13.57265 Y22.13496
G01 X13.48489 Y22.42132
G01 X13.35086 Y22.68914
G01 X13.17425 Y22.93105
G01 X13.12851 Y22.98386
G01 X12.88081 Y23.22010
G01 X12.59282 Y23.40519
G01 X12.27504 Y23.53240
G01 X12.20798 Y23.55208
G01 X11.95708 Y23.60667
G01 X11.70098 Y23.62498
G01 X5.07953 Y23.62498
G01 X5.62496 Y24.62498
G01 X4.86134 Y23.22498
G01 X11.70098 Y23.22498
G01 X11.90016 Y23.21073
G01 X12.09531 Y23.16829
G01 X12.16237 Y23.14860
G01 X12.40953 Y23.04964
G01 X12.63351 Y22.90570
G01 X12.82620 Y22.72196
G01 X12.87194 Y22.66915
G01 X13.00928 Y22.48099
G01 X13.11352 Y22.27268
G01 X13.18180 Y22.04998
G01 X13.19300 Y21.99847
G01 X13.21695 Y21.85056
G01 X13.22498 Y21.70098
G01 X13.22498 Y0.94949
G01 X13.21606 Y0.82500
G01 X11.99673 Y0.82500
G01 X12.20529 Y0.82500
G01 X12.22089 Y0.89254
G01 X12.22498 Y0.94949
G01 X12.22498 Y21.70098
G01 X12.21583 Y21.78597
G01 X12.18512 Y21.90111
G01 X12.15533 Y21.96062
G01 X12.11609 Y22.01439
G01 X12.07034 Y22.06720
G01 X12.01530 Y22.11970
G01 X11.95132 Y22.16082
G01 X11.88068 Y22.18909
G01 X11.75787 Y22.22089
G01 X11.70098 Y22.22498
G01 X4.31590 Y22.22498
G01 X4.20678 Y22.02498
G01 X11.70098 Y22.02498
G01 X11.75729 Y22.01688
G01 X11.82434 Y21.99720
G01 X11.85967 Y21.98305
G01 X11.89165 Y21.96250
G01 X11.96493 Y21.88343
G01 X11.98454 Y21.85656
G01 X11.99945 Y21.82679
G01 X12.02041 Y21.74347
G01 X12.02498 Y21.70098
G01 X12.02292 Y0.92101
G01 X11.99716 Y0.82609
G01 X11.98304 Y0.79084
G01 X11.96249 Y0.75886
G01 X11.93628 Y0.73132
G01 X11.88347 Y0.68555
G01 X11.85658 Y0.66592
G01 X11.82681 Y0.65104
G01 X11.74347 Y0.63005
G01 X11.70098 Y0.62551
G01 X0.94949 Y0.62551
G01 X0.89312 Y0.63361
G01 X0.79084 Y0.66742
G01 X0.75886 Y0.68797
G01 X0.68555 Y0.76699
G01 X0.66592 Y0.79388
G01 X0.65104 Y0.82365
G01 X0.63005 Y0.90697
G01 X0.62551 Y0.94949
G01 X0.62706 Y15.81814
G01 X0.64682 Y15.90203
G01 X0.66506 Y15.94839
G01 X3.88745 Y21.85612
G01 X3.92154 Y21.90169
G01 X3.97092 Y21.95112
G01 X3.99827 Y21.97403
G01 X4.02926 Y21.99168
G01 X4.06292 Y22.00357
G01 X4.14696 Y22.02341
G01 X4.20678 Y22.02498
G01 X4.53406 Y22.62498
G01 X4.42497 Y22.42498
G01 X11.70098 Y22.42498
G01 X11.78634 Y22.41886
G01 X11.86996 Y22.40067
G01 X11.93702 Y22.38099
G01 X12.04296 Y22.33860
G01 X12.13895 Y22.27690
G01 X12.22152 Y22.19813
G01 X12.26727 Y22.14533
G01 X12.32612 Y22.06471
G01 X12.37080 Y21.97543
G01 X12.40006 Y21.87997
G01 X12.41126 Y21.82846
G01 X12.42152 Y21.76509
G01 X12.42498 Y21.70098
G01 X12.42498 Y0.94949
G01 X12.41886 Y0.86407
G01 X12.41035 Y0.82500
G01 X12.61451 Y0.82500
G01 X12.61682 Y0.83559
G01 X12.62498 Y0.94949
G01 X12.62498 Y21.70098
G01 X12.62038 Y21.78645
G01 X12.60669 Y21.87096
G01 X12.59549 Y21.92247
G01 X12.55650 Y22.04975
G01 X12.49691 Y22.16877
G01 X12.41842 Y22.27629
G01 X12.37268 Y22.32910
G01 X12.26259 Y22.43410
G01 X12.13460 Y22.51635
G01 X11.99335 Y22.57289
G01 X11.92630 Y22.59257
G01 X11.81479 Y22.61683
G01 X11.70098 Y22.62498
G01 X4.53406 Y22.62498
G01 X4.64315 Y22.82498
G04 P0 ( dwell for no time -- G64 should not smooth over this point )
G00 Z2.00000 ( retract )

G00 X7.49999 Y15.87498 ( rapid move to begin. )
G01 F75.00000
( Mill infeed pass 1/1 )
G01 Z-0.10000
G04 P0 ( dwell for no time -- G64 should not smooth over this point )
G01 F150.00000
G01 X7.49999 Y15.87498
G01 X7.89999 Y15.87498
G01 X7.93471 Y15.87196
G01 X7.96839 Y15.86292
G01 X7.99999 Y15.84819
G01 X8.02854 Y15.82820
G01 X8.05321 Y15.80353
G01 X8.07319 Y15.77498
G01 X8.08793 Y15.74339
G01 X8.09694 Y15.70970
G01 X8.09999 Y15.67498
G01 X8.09999 Y15.27496
G01 X8.64271 Y15.27496
G01 X8.74053 Y15.44217
G01 X8.88739 Y15.60529
G01 X9.06621 Y15.73503
G01 X9.13997 Y15.76797
G01 X9.13999 Y15.88402
G01 X9.01279 Y15.82472
G01 X8.84795 Y15.70927
G01 X8.73786 Y15.59921
G01 X8.69229 Y15.56508
G01 X8.59603 Y15.51664
G01 X8.55889 Y15.50856
G01 X8.52087 Y15.50765
G01 X8.41368 Y15.51895
G01 X8.37802 Y15.53224
G01 X8.28963 Y15.59393
G01 X8.24939 Y15.63414
G01 X8.23400 Y15.65812
G01 X8.20520 Y15.71509
G01 X8.16598 Y15.82022
G01 X8.11429 Y15.88928
G01 X8.04523 Y15.94100
G01 X7.96100 Y15.97239
G01 X7.49999 Y15.97498
G01 X7.49999 Y15.87498
G04 P0 ( dwell for no time -- G64 should not smooth over this point )
G00 Z2.00000 ( retract )

G00 X5.90000 Y15.27498 ( rapid move to begin. )
G01 F75.00000
( Mill infeed pass 1/1 )
G01 Z-0.10000
G04 P0 ( dwell for no time -- G64 should not smooth over this point )
G01 F150.00000
G01 X5.90000 Y15.27498
G01 X6.00000 Y15.27498
G01 X6.00000 Y15.67498
G01 X6.00302 Y15.70970
G01 X6.01206 Y15.74339
G01 X6.02679 Y15.77498
G01 X6.04678 Y15.80353
G01 X6.07142 Y15.82820
G01 X6.10000 Y15.84819
G01 X6.13159 Y15.86292
G01 X6.16525 Y15.87196
G01 X6.20000 Y15.87498
G01 X6.59997 Y15.87498
G01 X6.59997 Y15.97498
G01 X6.13893 Y15.97239
G01 X6.05471 Y15.94100
G01 X5.98567 Y15.88931
G01 X5.93398 Y15.82025
G01 X5.90256 Y15.73597
G01 X5.90000 Y15.27498
G04 P0 ( dwell for no time -- G64 should not smooth over this point )
G00 Z2.00000 ( retract )

G00 X5.90000 Y13.93785 ( rapid move to begin. )
G01 F75.00000
( Mill infeed pass 1/1 )
G01 Z-0.10000
G04 P0 ( dwell for no time -- G64 should not smooth over this point )
G01 F150.00000
G01 X5.90000 Y13.93785
G01 X5.90256 Y13.91395
G01 X5.93396 Y13.82972
G01 X5.98567 Y13.76066
G01 X6.05471 Y13.70892
G01 X6.13893 Y13.67753
G01 X6.16284 Y13.67499
G01 X6.59997 Y13.67499
G01 X6.59997 Y13.77499
G01 X6.20000 Y13.77499
G01 X6.16525 Y13.77803
G01 X6.13159 Y13.78705
G01 X6.10000 Y13.80178
G01 X6.07142 Y13.82177
G01 X6.04678 Y13.84644
G01 X6.02679 Y13.87499
G01 X6.01206 Y13.90658
G01 X6.00302 Y13.94024
G01 X6.00000 Y13.97496
G01 X6.00000 Y14.37496
G01 X5.90000 Y14.37496
G01 X5.90000 Y13.93785
G04 P0 ( dwell for no time -- G64 should not smooth over this point )
G00 Z2.00000 ( retract )

G00 X7.49999 Y13.67499 ( rapid move to begin. )
G01 F75.00000
( Mill infeed pass 1/1 )
G01 Z-0.10000
G04 P0 ( dwell for no time -- G64 should not smooth over this point )
G01 F150.00000
G01 X7.49999 Y13.67499
G01 X7.93710 Y13.67499
G01 X7.96098 Y13.67753
G01 X8.04523 Y13.70897
G01 X8.11429 Y13.76066
G01 X8.16598 Y13.82972
G01 X8.21706 Y13.96081
G01 X8.27439 Y14.04077
G01 X8.29997 Y14.06892
G01 X8.33040 Y14.09167
G01 X8.36458 Y14.10829
G01 X8.46674 Y14.14252
G01 X8.50466 Y14.14524
G01 X8.54238 Y14.14075
G01 X8.61066 Y14.12589
G01 X8.66407 Y14.10597
G01 X8.73786 Y14.05073
G01 X8.84795 Y13.94065
G01 X9.01279 Y13.82523
G01 X9.13999 Y13.76589
G01 X9.13997 Y13.88200
G01 X9.06621 Y13.91494
G01 X8.88739 Y14.04468
G01 X8.74053 Y14.20780
G01 X8.64274 Y14.37496
G01 X8.09999 Y14.37496
G01 X8.09999 Y13.97496
G01 X8.09694 Y13.94024
G01 X8.08793 Y13.90658
G01 X8.07319 Y13.87499
G01 X8.05321 Y13.84644
G01 X8.02854 Y13.82177
G01 X7.99999 Y13.80178
G01 X7.96839 Y13.78705
G01 X7.93471 Y13.77803
G01 X7.89999 Y13.77499
G01 X7.49999 Y13.77499
G01 X7.49999 Y13.67499
G04 P0 ( dwell for no time -- G64 should not smooth over this point )
G00 Z2.00000 ( retract )

G00 X10.03999 Y13.76589 ( rapid move to begin. )
G01 F75.00000
( Mill infeed pass 1/1 )
G01 Z-0.10000
G04 P0 ( dwell for no time -- G64 should not smooth over this point )
G01 F150.00000
G01 X10.03999 Y13.76589
G01 X10.03999 Y13.88200
G01 X10.11375 Y13.91494
G01 X10.29257 Y14.04468
G01 X10.43946 Y14.20780
G01 X10.53722 Y14.37496
G01 X10.64901 Y14.37496
G01 X10.58970 Y14.24778
G01 X10.47431 Y14.08294
G01 X10.33202 Y13.94065
G01 X10.16717 Y13.82523
G01 X10.03999 Y13.76589
G04 P0 ( dwell for no time -- G64 should not smooth over this point )
G00 Z2.00000 ( retract )

G00 X10.03999 Y15.76797 ( rapid move to begin. )
G01 F75.00000
( Mill infeed pass 1/1 )
G01 Z-0.10000
G04 P0 ( dwell for no time -- G64 should not smooth over this point )
G01 F150.00000
G01 X10.03999 Y15.76797
G01 X10.03999 Y15.88402
G01 X10.16717 Y15.82469
G01 X10.33202 Y15.70930
G01 X10.47431 Y15.56701
G01 X10.58970 Y15.40216
G01 X10.64901 Y15.27496
G01 X10.53725 Y15.27496
G01 X10.43946 Y15.44217
G01 X10.29257 Y15.60529
G01 X10.11375 Y15.73503
G01 X10.03999 Y15.76797
G04 P0 ( dwell for no time -- G64 should not smooth over this point )
G00 Z2.00000 ( retract )

G00 X20.82499 Y26.45876 ( rapid move to begin. )
G01 F75.00000
( Mill infeed pass 1/1 )
G01 Z-0.10000
G04 P0 ( dwell for no time -- G64 should not smooth over this point )
G01 F150.00000
G01 X20.82499 Y26.45876
G01 X20.52394 Y27.06028
G01 X19.52326 Y28.43107
G01 X19.47752 Y28.48387
G01 X18.07376 Y29.82263
G01 X16.44194 Y30.87140
G01 X14.64110 Y31.59230
G01 X14.57405 Y31.61198
G01 X13.15225 Y31.92120
G01 X11.70098 Y32.02496
G01 X9.66133 Y32.02496
G01 X10.53405 Y33.62496
G01 X10.31589 Y33.22496
G01 X11.70098 Y33.22496
G01 X13.32302 Y33.10898
G01 X14.91204 Y32.76339
G01 X14.97910 Y32.74371
G01 X16.99182 Y31.93799
G01 X18.81562 Y30.76583
G01 X20.38452 Y29.26960
G01 X20.43027 Y29.21679
G01 X20.82499 Y28.67610
G01 X20.82499 Y29.01412
G01 X20.58142 Y29.34775
G01 X20.53568 Y29.40056
G01 X18.93926 Y30.92303
G01 X17.08346 Y32.11577
G01 X15.03544 Y32.93560
G01 X14.96838 Y32.95529
G01 X13.35147 Y33.30695
G01 X11.70098 Y33.42496
G01 X10.42498 Y33.42496
G01 X10.53405 Y33.62496
G01 X10.20679 Y33.02496
G01 X11.70098 Y33.02496
G01 X13.29455 Y32.91102
G01 X14.85571 Y32.57149
G01 X14.92276 Y32.55181
G01 X16.90018 Y31.76024
G01 X18.69197 Y30.60863
G01 X20.23334 Y29.13866
G01 X20.27909 Y29.08585
G01 X20.82499 Y28.33805
G01 X20.82496 Y29.35215
G01 X20.73261 Y29.47869
G01 X20.68686 Y29.53150
G01 X19.06289 Y31.08024
G01 X17.17511 Y32.29354
G01 X15.09177 Y33.12750
G01 X15.02472 Y33.14719
G01 X13.37992 Y33.50492
G01 X11.70098 Y33.62496
G01 X10.53405 Y33.62496
G01 X9.55224 Y31.82496
G01 X11.70098 Y31.82496
G01 X13.12381 Y31.72324
G01 X14.51771 Y31.42006
G01 X14.58476 Y31.40038
G01 X16.35029 Y30.69362
G01 X17.95011 Y29.66540
G01 X19.32636 Y28.35294
G01 X19.37211 Y28.30013
G01 X20.35316 Y26.95622
G01 X20.82496 Y26.01339
G01 X20.82496 Y25.56805
G01 X20.82496 Y31.32560
G01 X19.92839 Y32.18066
G01 X17.81663 Y33.53791
G01 X15.48611 Y34.47083
G01 X15.41905 Y34.49052
G01 X13.57913 Y34.89067
G01 X11.70098 Y35.02498
G01 X11.29770 Y35.02498
G01 X12.82498 Y37.82498
G01 X16.04440 Y37.82495

G04 P0 ( dwell for no time -- G64 should not smooth over this point )
G00 Z10.000000 ( retract )

M5 ( Spindle off. )
G04 P1.000000
M9 ( Coolant off. )
M2 ( Program end. )

