( pcb2gcode 2.5.0 )
( Software-independent Gcode )

G94 ( Millimeters per minute feed rate. )
G21 ( Units == Millimeters. )

G90 ( Absolute coordinates. )
G00 S10000 ( RPM spindle speed. )
G64 P0.01016 ( set maximum deviation from commanded toolpath )
G01 F150.00000 ( Feedrate. )


G00 Z10.00000 (Retract to tool change height)
T0
M5      (Spindle stop.)
G04 P1.00000 (Wait for spindle to stop)
(MSG, Change tool bit to mill diameter 0.34000mm)
M6      (Tool change.)
M0      (Temporary machine stop.)
M3 ( Spindle on clockwise. )
G04 P1.00000 (Wait for spindle to get up to speed)
G04 P0 ( dwell for no time -- G64 should not smooth over this point )
G00 Z2.00000 ( retract )

G00 X5.86997 Y13.93623 ( rapid move to begin. )
G01 F75.00000
( Mill infeed pass 1/1 )
G01 Z-0.20000
G04 P0 ( dwell for no time -- G64 should not smooth over this point )
G01 F150.00000
G01 X5.86997 Y13.93623
G01 X5.86997 Y14.40498
G01 X6.02999 Y14.40498
G01 X6.02999 Y13.97496
G01 X6.03256 Y13.94545
G01 X6.04023 Y13.91682
G01 X6.05275 Y13.89000
G01 X6.06977 Y13.86572
G01 X6.09072 Y13.84474
G01 X6.11498 Y13.82777
G01 X6.14185 Y13.81522
G01 X6.17046 Y13.80757
G01 X6.62999 Y13.80498
G01 X6.62999 Y13.64496
G01 X6.16124 Y13.64496
G01 X6.13200 Y13.64811
G01 X6.04018 Y13.68233
G01 X5.96423 Y13.73922
G01 X5.90736 Y13.81519
G01 X5.87312 Y13.90702
G01 X5.86997 Y13.93623
G04 P0 ( dwell for no time -- G64 should not smooth over this point )
G00 Z2.00000 ( retract )

G00 X5.86997 Y15.24496 ( rapid move to begin. )
G01 F75.00000
( Mill infeed pass 1/1 )
G01 Z-0.20000
G04 P0 ( dwell for no time -- G64 should not smooth over this point )
G01 F150.00000
G01 X5.86997 Y15.24496
G01 X5.86997 Y15.71369
G01 X5.87312 Y15.74293
G01 X5.90736 Y15.83475
G01 X5.96423 Y15.91072
G01 X6.04018 Y15.96759
G01 X6.13200 Y16.00183
G01 X6.16124 Y16.00498
G01 X6.62999 Y16.00498
G01 X6.62999 Y15.84499
G01 X6.17046 Y15.84239
G01 X6.14185 Y15.83472
G01 X6.11498 Y15.82220
G01 X6.09072 Y15.80521
G01 X6.06977 Y15.78425
G01 X6.05275 Y15.76000
G01 X6.04023 Y15.73312
G01 X6.03256 Y15.70450
G01 X6.02999 Y15.67498
G01 X6.02999 Y15.24496
G01 X5.86997 Y15.24496
G04 P0 ( dwell for no time -- G64 should not smooth over this point )
G00 Z2.00000 ( retract )

G00 X8.19019 Y15.36518 ( rapid move to begin. )
G01 F75.00000
( Mill infeed pass 1/1 )
G01 Z-0.20000
G04 P0 ( dwell for no time -- G64 should not smooth over this point )
G01 F150.00000
G01 X8.19019 Y15.36518
G01 X8.24000 Y15.41496
G01 X8.30266 Y15.41496
G01 X8.24000 Y15.45619
G01 X8.15066 Y15.62185
G01 X8.24000 Y15.45619
G01 X8.24000 Y15.41496
G01 X8.24000 Y15.45619
G01 X8.30266 Y15.41496
G01 X8.69105 Y15.29868
G01 X8.76479 Y15.42454
G01 X8.90748 Y15.58298
G01 X9.08104 Y15.70894
G01 X9.16999 Y15.74819
G01 X9.16999 Y15.93112
G01 X8.99773 Y15.85078
G01 X8.82859 Y15.73236
G01 X8.71665 Y15.62042
G01 X8.67792 Y15.59142
G01 X8.58688 Y15.54521
G01 X8.55531 Y15.53836
G01 X8.52303 Y15.53759
G01 X8.45333 Y15.54257
G01 X8.42143 Y15.54793
G01 X8.39115 Y15.55924
G01 X8.36354 Y15.57605
G01 X8.28930 Y15.63381
G01 X8.27342 Y15.65212
G01 X8.24340 Y15.70348
G01 X8.19260 Y15.83475
G01 X8.13570 Y15.91072
G01 X8.05976 Y15.96759
G01 X7.96794 Y16.00183
G01 X7.93870 Y16.00498
G01 X7.46994 Y16.00498
G01 X7.46994 Y15.84499
G01 X7.89999 Y15.84499
G01 X7.93316 Y15.84171
G01 X7.96504 Y15.83206
G01 X7.99443 Y15.81633
G01 X8.02018 Y15.79520
G01 X8.04134 Y15.76945
G01 X8.05704 Y15.74003
G01 X8.06672 Y15.70816
G01 X8.06999 Y15.67498
G01 X8.06999 Y15.24496
G01 X8.66077 Y15.24496
G01 X8.69105 Y15.29868
G04 P0 ( dwell for no time -- G64 should not smooth over this point )
G00 Z2.00000 ( retract )

G00 X8.19019 Y14.28476 ( rapid move to begin. )
G01 F75.00000
( Mill infeed pass 1/1 )
G01 Z-0.20000
G04 P0 ( dwell for no time -- G64 should not smooth over this point )
G01 F150.00000
G01 X8.19019 Y14.28476
G01 X8.24000 Y14.23498
G01 X8.30642 Y14.23498
G01 X8.25755 Y14.21123
G01 X8.24000 Y14.19810
G01 X8.15623 Y14.05581
G01 X8.24000 Y14.19810
G01 X8.24000 Y14.23498
G01 X8.24000 Y14.19810
G01 X8.25755 Y14.21123
G01 X8.30642 Y14.23498
G01 X8.69946 Y14.33673
G01 X8.66080 Y14.40498
G01 X8.06999 Y14.40498
G01 X8.06999 Y13.97496
G01 X8.06740 Y13.94545
G01 X8.05973 Y13.91682
G01 X8.04721 Y13.89000
G01 X8.03022 Y13.86572
G01 X8.00926 Y13.84474
G01 X7.98498 Y13.82777
G01 X7.95813 Y13.81522
G01 X7.92951 Y13.80757
G01 X7.46994 Y13.80498
G01 X7.46994 Y13.64496
G01 X7.93870 Y13.64496
G01 X7.96794 Y13.64811
G01 X8.05976 Y13.68233
G01 X8.13570 Y13.73922
G01 X8.19260 Y13.81519
G01 X8.24337 Y13.94644
G01 X8.29839 Y14.02279
G01 X8.32013 Y14.04672
G01 X8.34602 Y14.06607
G01 X8.37507 Y14.08019
G01 X8.44053 Y14.10460
G01 X8.47172 Y14.11293
G01 X8.50395 Y14.11527
G01 X8.60428 Y14.09658
G01 X8.64970 Y14.07966
G01 X8.71665 Y14.02949
G01 X8.82859 Y13.91758
G01 X8.99770 Y13.79914
G01 X9.16999 Y13.71885
G01 X9.16999 Y13.90178
G01 X9.08104 Y13.94103
G01 X8.90748 Y14.06696
G01 X8.76479 Y14.22546
G01 X8.69946 Y14.33673
G04 P0 ( dwell for no time -- G64 should not smooth over this point )
G00 Z2.00000 ( retract )

G00 X10.00997 Y13.71883 ( rapid move to begin. )
G01 F75.00000
( Mill infeed pass 1/1 )
G01 Z-0.20000
G04 P0 ( dwell for no time -- G64 should not smooth over this point )
G01 F150.00000
G01 X10.00997 Y13.71883
G01 X10.00997 Y13.90178
G01 X10.09895 Y13.94103
G01 X10.27250 Y14.06696
G01 X10.41518 Y14.22546
G01 X10.51919 Y14.40498
G01 X10.69610 Y14.40498
G01 X10.61579 Y14.23272
G01 X10.49737 Y14.06358
G01 X10.35137 Y13.91758
G01 X10.18223 Y13.79914
G01 X10.00997 Y13.71883
G04 P0 ( dwell for no time -- G64 should not smooth over this point )
G00 Z2.00000 ( retract )

G00 X10.00997 Y15.74819 ( rapid move to begin. )
G01 F75.00000
( Mill infeed pass 1/1 )
G01 Z-0.20000
G04 P0 ( dwell for no time -- G64 should not smooth over this point )
G01 F150.00000
G01 X10.00997 Y15.74819
G01 X10.00997 Y15.93112
G01 X10.18223 Y15.85078
G01 X10.35137 Y15.73236
G01 X10.49737 Y15.58636
G01 X10.61579 Y15.41722
G01 X10.69610 Y15.24496
G01 X10.51919 Y15.24496
G01 X10.41518 Y15.42454
G01 X10.27250 Y15.58298
G01 X10.09895 Y15.70894
G01 X10.00997 Y15.74819
G04 P0 ( dwell for no time -- G64 should not smooth over this point )
G00 Z2.00000 ( retract )

G00 X20.82496 Y21.88747 ( rapid move to begin. )
G01 F75.00000
( Mill infeed pass 1/1 )
G01 Z-0.20000
G04 P0 ( dwell for no time -- G64 should not smooth over this point )
G01 F150.00000
G01 X20.82496 Y21.88747
G01 X20.78338 Y22.66374
G01 X20.62920 Y23.61551
G01 X20.61800 Y23.66702
G01 X20.17868 Y25.10036
G01 X19.50774 Y26.44103
G01 X18.62382 Y27.65190
G01 X18.57808 Y27.70470
G01 X17.33810 Y28.88728
G01 X15.89665 Y29.81369
G01 X14.30590 Y30.45047
G01 X14.23884 Y30.47015
G01 X12.98294 Y30.74330
G01 X11.70098 Y30.83497
G01 X9.01223 Y30.83497
G01 X8.91952 Y30.66497
G01 X11.70098 Y30.66497
G01 X12.95876 Y30.57503
G01 X14.19096 Y30.30703
G01 X14.25802 Y30.28735
G01 X15.81875 Y29.66259
G01 X17.23299 Y28.75365
G01 X18.44958 Y27.59340
G01 X18.49532 Y27.54059
G01 X19.36258 Y26.35258
G01 X20.02085 Y25.03719
G01 X20.45188 Y23.63090
G01 X20.46309 Y23.57939
G01 X20.61434 Y22.64558
G01 X20.66497 Y21.70098
G01 X20.66497 Y1.44948
G01 X20.62029 Y0.82500
G01 X20.45028 Y0.82500
G01 X20.49496 Y1.44948
G01 X20.49496 Y21.70098
G01 X20.44533 Y22.62742
G01 X20.29697 Y23.54324
G01 X20.28577 Y23.59475
G01 X19.86301 Y24.97402
G01 X19.21742 Y26.26412
G01 X18.36682 Y27.42926
G01 X18.32108 Y27.48210
G01 X17.12789 Y28.62002
G01 X15.74087 Y29.51148
G01 X14.21014 Y30.12423
G01 X14.14308 Y30.14392
G01 X12.93458 Y30.40675
G01 X11.70098 Y30.49497
G01 X8.82679 Y30.49497
G01 X10.21769 Y33.04498
G01 X11.70098 Y33.04498
G01 X13.29739 Y32.93080
G01 X14.86134 Y32.59067
G01 X14.92840 Y32.57099
G01 X16.90935 Y31.77800
G01 X18.70434 Y30.62436
G01 X20.24846 Y29.15174
G01 X20.29420 Y29.09893
G01 X20.82496 Y28.37186
G01 X20.82496 Y28.65918
G01 X20.42270 Y29.21024
G01 X20.37695 Y29.26304
G01 X18.80942 Y30.75799
G01 X16.98725 Y31.92910
G01 X14.97628 Y32.73411
G01 X14.90922 Y32.75379
G01 X13.32160 Y33.09908
G01 X11.70098 Y33.21498
G01 X10.31043 Y33.21498
G01 X11.33041 Y35.08498
G01 X11.70098 Y35.08498
G01 X13.58766 Y34.95005
G01 X15.43597 Y34.54807
G01 X15.50303 Y34.52839
G01 X17.84412 Y33.59123
G01 X19.96547 Y32.22781
G01 X20.82496 Y31.40815
G01 X20.82499 Y31.64198
G01 X20.07058 Y32.36144
G01 X17.92202 Y33.74233
G01 X15.55090 Y34.69151
G01 X15.48385 Y34.71119
G01 X13.61182 Y35.11833
G01 X11.70098 Y35.25498
G01 X11.42315 Y35.25498
G01 X12.82498 Y37.82498
G01 X17.79863 Y37.82495
G01 X19.12258 Y37.32041
G01 X20.82499 Y36.34296
G01 X20.82499 Y0.82500
G01 X20.79029 Y0.82500
G01 X20.82499 Y0.82500
G01 X20.82496 Y36.14754
G01 X19.04975 Y37.16681
G01 X17.32268 Y37.82498
G01 X12.82498 Y37.82498
G01 X11.51589 Y35.42498
G01 X11.60860 Y35.59496
G01 X11.70098 Y35.59496
G01 X13.66023 Y35.45488
G01 X15.57961 Y35.03743
G01 X15.64666 Y35.01774
G01 X18.07782 Y34.04454
G01 X20.28076 Y32.62870
G01 X20.82499 Y32.10970
G01 X20.82499 Y32.34353
G01 X20.38587 Y32.76230
G01 X18.15572 Y34.19565
G01 X15.69457 Y35.18086
G01 X15.62751 Y35.20055
G01 X13.68438 Y35.62315
G01 X11.70131 Y35.76491
G01 X12.82498 Y37.82498
G01 X13.79884 Y37.82495
G01 X13.99886 Y37.81065
G01 X16.25001 Y37.32107
G01 X16.31707 Y37.30138
G01 X18.68567 Y36.39872
G01 X20.82499 Y35.17040
G01 X20.82496 Y35.95211
G01 X18.97696 Y37.01319
G01 X16.84679 Y37.82495
G01 X16.32672 Y37.82498
G01 X16.46071 Y37.79071
G01 X18.90414 Y36.85957
G01 X20.82496 Y35.75668
G01 X20.82496 Y35.56125
G01 X18.83131 Y36.70595
G01 X16.41283 Y37.62762
G01 X16.34577 Y37.64730
G01 X15.52886 Y37.82495
G01 X14.73104 Y37.82495
G01 X16.29789 Y37.48418
G01 X16.36495 Y37.46450
G01 X18.75849 Y36.55234
G01 X20.82499 Y35.36582
G01 X20.82499 Y34.31343
G01 X20.82496 Y34.96641
G01 X20.78793 Y34.99625
G01 X18.61285 Y36.24512
G01 X16.26917 Y37.13826
G01 X16.20211 Y37.15795
G01 X13.97468 Y37.64238
G01 X12.77227 Y37.72836
G01 X12.68302 Y37.56475
G01 X13.95045 Y37.47413
G01 X16.15423 Y36.99483
G01 X16.22129 Y36.97514
G01 X18.54005 Y36.09150
G01 X20.69197 Y34.85592
G01 X20.82496 Y34.74873
G01 X20.82496 Y34.53108
G01 X20.59600 Y34.71558
G01 X18.46723 Y35.93788
G01 X16.17341 Y36.81202
G01 X16.10635 Y36.83171
G01 X13.92629 Y37.30585
G01 X12.59379 Y37.40113
G01 X12.41527 Y37.07390
G01 X12.50453 Y37.23747
G01 X13.90211 Y37.13758
G01 X16.05847 Y36.66859
G01 X16.12553 Y36.64891
G01 X18.39441 Y35.78426
G01 X20.50007 Y34.57528
G01 X20.82499 Y34.31343
G01 X20.82499 Y33.04508
G01 X20.82496 Y33.27894
G01 X20.80624 Y33.29679
G01 X18.46731 Y34.80004
G01 X15.88611 Y35.83331
G01 X15.81905 Y35.85300
G01 X13.78116 Y36.29623
G01 X12.05830 Y36.41939
G01 X12.32604 Y36.91027
G01 X13.85373 Y36.80103
G01 X15.96269 Y36.34235
G01 X16.02974 Y36.32267
G01 X18.24876 Y35.47703
G01 X20.30815 Y34.29461
G01 X20.82499 Y33.87810
G01 X20.82496 Y34.09575
G01 X20.40411 Y34.43494
G01 X18.32159 Y35.63065
G01 X16.07762 Y36.48579
G01 X16.01057 Y36.50547
G01 X13.87788 Y36.96930
G01 X12.41527 Y37.07387
G01 X12.14756 Y36.58304
G01 X12.23679 Y36.74662
G01 X13.82952 Y36.63275
G01 X15.91481 Y36.17923
G01 X15.98187 Y36.15955
G01 X18.17594 Y35.32343
G01 X20.21219 Y34.15427
G01 X20.82496 Y33.66044
G01 X20.82496 Y33.48592
G01 X18.54521 Y34.95114
G01 X15.93399 Y35.99643
G01 X15.86693 Y36.01612
G01 X13.80537 Y36.46450
G01 X12.14756 Y36.58304
G01 X11.87982 Y36.09216
G01 X13.73280 Y35.95968
G01 X15.72327 Y35.52678
G01 X15.79032 Y35.50710
G01 X18.31153 Y34.49783
G01 X20.59606 Y33.02956
G01 X20.82496 Y32.81125
G01 X20.82496 Y32.57739
G01 X20.49095 Y32.89593
G01 X18.23363 Y34.34675
G01 X15.74245 Y35.34398
G01 X15.67539 Y35.36367
G01 X13.70859 Y35.79140
G01 X11.79056 Y35.92854
G01 X11.96905 Y36.25576
G01 X13.75695 Y36.12795
G01 X15.77115 Y35.68990
G01 X15.83820 Y35.67022
G01 X18.38943 Y34.64894
G01 X20.70116 Y33.16316
G01 X20.82499 Y33.04508
G01 X20.82499 Y31.87584
G01 X20.17569 Y32.49507
G01 X17.99992 Y33.89344
G01 X15.59878 Y34.85462
G01 X15.53173 Y34.87431
G01 X13.63602 Y35.28660
G01 X11.70098 Y35.42498
G01 X11.51589 Y35.42498
G01 X10.40316 Y33.38498
G01 X11.70098 Y33.38498
G01 X13.34578 Y33.26735
G01 X14.95713 Y32.91691
G01 X15.02418 Y32.89722
G01 X17.06515 Y32.08021
G01 X18.91452 Y30.89159
G01 X20.50545 Y29.37437
G01 X20.55120 Y29.32156
G01 X20.82499 Y28.94651
G01 X20.82496 Y29.23383
G01 X20.67970 Y29.43287
G01 X20.63395 Y29.48567
G01 X19.01963 Y31.02522
G01 X17.14303 Y32.23131
G01 X15.07206 Y33.06034
G01 X15.00501 Y33.08003
G01 X13.36996 Y33.43563
G01 X11.70098 Y33.55498
G01 X10.49587 Y33.55498
G01 X10.58861 Y33.72496
G01 X11.70098 Y33.72496
G01 X13.39414 Y33.60390
G01 X15.05289 Y33.24315
G01 X15.11994 Y33.22346
G01 X17.22093 Y32.38242
G01 X19.12471 Y31.15885
G01 X20.76243 Y29.59698
G01 X20.82496 Y29.52116
G01 X20.82496 Y29.77120
G01 X19.22981 Y31.29245
G01 X17.29883 Y32.53352
G01 X15.16782 Y33.38658
G01 X15.10077 Y33.40627
G01 X13.41835 Y33.77218
G01 X11.70098 Y33.89496
G01 X10.68134 Y33.89496
G01 X10.77405 Y34.06496
G01 X11.70098 Y34.06496
G01 X13.44253 Y33.94043
G01 X15.14864 Y33.56938
G01 X15.21570 Y33.54970
G01 X17.37673 Y32.68463
G01 X19.33492 Y31.42608
G01 X20.82499 Y30.00503
G01 X20.82499 Y30.23889
G01 X19.44000 Y31.55971
G01 X17.45463 Y32.83573
G01 X15.26360 Y33.71279
G01 X15.19655 Y33.73248
G01 X13.46671 Y34.10870
G01 X11.70098 Y34.23497
G01 X10.86679 Y34.23497
G01 X10.95952 Y34.40497
G01 X11.70098 Y34.40497
G01 X13.49091 Y34.27698
G01 X15.24443 Y33.89560
G01 X15.31148 Y33.87591
G01 X17.53254 Y32.98684
G01 X19.54510 Y31.69334
G01 X20.82499 Y30.47274
G01 X20.82499 Y31.17429
G01 X19.86039 Y32.09420
G01 X17.76622 Y33.44012
G01 X15.45515 Y34.36527
G01 X15.38809 Y34.38495
G01 X13.56348 Y34.78178
G01 X11.70098 Y34.91497
G01 X11.23770 Y34.91497
G01 X11.33041 Y35.08498
G01 X11.14497 Y34.74497
G01 X11.70098 Y34.74497
G01 X13.53925 Y34.61353
G01 X15.34019 Y34.22183
G01 X15.40724 Y34.20215
G01 X17.68834 Y33.28902
G01 X19.75529 Y31.96057
G01 X20.82499 Y30.94043
G01 X20.82496 Y30.70660
G01 X19.65018 Y31.82694
G01 X17.61044 Y33.13791
G01 X15.35936 Y34.03903
G01 X15.29231 Y34.05872
G01 X13.51509 Y34.44525
G01 X11.70098 Y34.57497
G01 X11.05223 Y34.57497
G01 X10.03225 Y32.70497
G01 X11.70098 Y32.70497
G01 X13.24903 Y32.59428
G01 X14.76559 Y32.26443
G01 X14.83264 Y32.24475
G01 X16.75354 Y31.47581
G01 X18.49415 Y30.35710
G01 X19.99148 Y28.92913
G01 X20.03723 Y28.87633
G01 X20.82496 Y27.79721
G01 X20.82496 Y28.08453
G01 X20.16573 Y28.98763
G01 X20.11998 Y29.04044
G01 X18.59923 Y30.49073
G01 X16.83145 Y31.62692
G01 X14.88052 Y32.40787
G01 X14.81347 Y32.42755
G01 X13.27321 Y32.76255
G01 X11.70098 Y32.87497
G01 X10.12496 Y32.87497
G01 X9.84678 Y32.36497
G01 X11.70098 Y32.36497
G01 X13.20064 Y32.25773
G01 X14.66980 Y31.93820
G01 X14.73686 Y31.91851
G01 X16.59774 Y31.17361
G01 X18.28394 Y30.08986
G01 X19.73449 Y28.70650
G01 X19.78023 Y28.65370
G01 X20.81429 Y27.23722
G01 X20.82496 Y27.21585
G01 X20.82499 Y27.50988
G01 X19.90873 Y28.76500
G01 X19.86299 Y28.81781
G01 X18.38905 Y30.22349
G01 X16.67564 Y31.32471
G01 X14.78474 Y32.08163
G01 X14.71768 Y32.10132
G01 X13.22482 Y32.42600
G01 X11.70098 Y32.53497
G01 X9.93951 Y32.53497
G01 X9.75407 Y32.19497
G01 X11.70098 Y32.19497
G01 X13.17646 Y32.08945
G01 X14.62192 Y31.77508
G01 X14.68898 Y31.75539
G01 X16.51984 Y31.02250
G01 X18.17886 Y29.95623
G01 X19.60601 Y28.59520
G01 X19.65176 Y28.54239
G01 X20.66911 Y27.14875
G01 X20.82496 Y26.83729
G01 X20.82496 Y26.45876
G01 X20.52394 Y27.06028
G01 X19.52326 Y28.43107
G01 X19.47752 Y28.48387
G01 X18.07376 Y29.82263
G01 X16.44194 Y30.87140
G01 X14.64110 Y31.59230
G01 X14.57405 Y31.61198
G01 X13.15225 Y31.92120
G01 X11.70098 Y32.02496
G01 X9.66133 Y32.02496
G01 X9.84678 Y32.36497
G01 X9.47588 Y31.68496
G01 X11.70098 Y31.68496
G01 X13.10389 Y31.58465
G01 X14.47826 Y31.28575
G01 X14.54532 Y31.26606
G01 X16.28616 Y30.56919
G01 X17.86357 Y29.55537
G01 X19.22054 Y28.26127
G01 X19.26629 Y28.20846
G01 X20.23360 Y26.88337
G01 X20.82499 Y25.70166
G01 X20.82499 Y26.08019
G01 X20.37878 Y26.97179
G01 X19.39476 Y28.31976
G01 X19.34902 Y28.37257
G01 X17.96865 Y29.68900
G01 X16.36406 Y30.72029
G01 X14.59322 Y31.42918
G01 X14.52617 Y31.44887
G01 X13.12807 Y31.75293
G01 X11.70098 Y31.85496
G01 X9.56859 Y31.85496
G01 X9.10497 Y31.00498
G01 X9.29044 Y31.34498
G01 X11.70098 Y31.34498
G01 X13.05551 Y31.24810
G01 X14.38250 Y30.95951
G01 X14.44956 Y30.93982
G01 X16.13035 Y30.26698
G01 X17.65339 Y29.28814
G01 X18.96355 Y28.03864
G01 X19.00929 Y27.98583
G01 X19.94325 Y26.70641
G01 X20.65216 Y25.28987
G01 X20.82499 Y24.72604
G01 X20.82496 Y25.30415
G01 X20.81000 Y25.35304
G01 X20.08844 Y26.79490
G01 X19.13779 Y28.09716
G01 X19.09204 Y28.14996
G01 X17.75847 Y29.42174
G01 X16.20826 Y30.41808
G01 X14.49744 Y31.10294
G01 X14.43038 Y31.12263
G01 X13.07971 Y31.41638
G01 X11.70098 Y31.51498
G01 X9.38315 Y31.51498
G01 X9.19770 Y31.17498
G01 X11.70098 Y31.17498
G01 X13.03133 Y31.07983
G01 X14.33463 Y30.79639
G01 X14.40168 Y30.77671
G01 X16.05245 Y30.11590
G01 X17.54828 Y29.15451
G01 X18.83505 Y27.92733
G01 X18.88079 Y27.87453
G01 X19.79809 Y26.61796
G01 X20.49433 Y25.22670
G01 X20.82496 Y24.14797
G01 X20.82499 Y23.46859
G01 X20.78412 Y23.70314
G01 X20.33649 Y25.16353
G01 X19.65293 Y26.52950
G01 X18.75232 Y27.76322
G01 X18.70657 Y27.81603
G01 X17.44318 Y29.02088
G01 X15.97455 Y29.96479
G01 X14.35378 Y30.61359
G01 X14.28672 Y30.63327
G01 X13.00714 Y30.91158
G01 X11.70098 Y31.00498
G01 X9.10497 Y31.00498
G01 X0.82500 Y15.82500
G01 X0.82500 Y15.75850
G01 X0.85683 Y15.88334
G01 X0.82500 Y15.75850
G01 X0.82500 Y14.18499
G01 X0.82500 Y14.20376
G01 X0.82833 Y14.18499
G01 X0.82500 Y14.18499
G01 X0.82500 Y13.84499
G01 X0.82500 Y14.01497
G01 X1.08822 Y14.01497
G01 X1.24819 Y13.92695
G01 X1.08822 Y14.01497
G01 X1.07974 Y14.02477
G01 X1.04636 Y14.07049
G01 X1.02104 Y14.12109
G01 X1.00443 Y14.17521
G01 X0.98741 Y14.26264
G01 X0.98548 Y15.66574
G01 X0.98812 Y15.70805
G01 X0.99599 Y15.74971
G01 X1.02416 Y15.84948
G01 X1.04212 Y15.88791
G01 X4.33409 Y21.92315
G01 X4.36030 Y21.96397
G01 X4.44140 Y22.05008
G01 X4.48793 Y22.08899
G01 X4.54061 Y22.11901
G01 X4.59781 Y22.13921
G01 X4.65728 Y22.15440
G01 X4.69901 Y22.16232
G01 X4.74143 Y22.16496
G01 X11.70098 Y22.16496
G01 X11.74934 Y22.16151
G01 X11.79673 Y22.15120
G01 X11.86379 Y22.13151
G01 X11.92381 Y22.10748
G01 X11.97822 Y22.07253
G01 X12.02500 Y22.02790
G01 X12.07075 Y21.97510
G01 X12.10410 Y21.92940
G01 X12.12942 Y21.87881
G01 X12.15721 Y21.77322
G01 X12.16496 Y21.70098
G01 X12.16496 Y1.44948
G01 X12.16150 Y1.40107
G01 X12.15119 Y1.35368
G01 X12.13151 Y1.28664
G01 X12.10748 Y1.22665
G01 X12.07255 Y1.17229
G01 X12.02797 Y1.12551
G01 X11.97517 Y1.07974
G01 X11.92945 Y1.04636
G01 X11.87883 Y1.02104
G01 X11.77321 Y0.99322
G01 X11.70098 Y0.98548
G01 X1.44948 Y0.98548
G01 X1.40107 Y0.98893
G01 X1.28664 Y1.01893
G01 X1.22665 Y1.04296
G01 X1.17229 Y1.07788
G01 X1.12551 Y1.12246
G01 X1.07974 Y1.17527
G01 X1.04628 Y1.22111
G01 X1.02091 Y1.27186
G01 X0.99315 Y1.37798
G01 X0.98583 Y1.43394
G01 X0.98789 Y1.49033
G01 X0.99924 Y1.54560
G01 X1.01969 Y1.61456
G01 X1.10102 Y1.68748
G01 X1.01969 Y1.61456
G01 X0.94938 Y1.60150
G01 X0.82500 Y1.59965
G01 X0.82500 Y1.76965
G01 X0.93160 Y1.77057
G01 X1.12299 Y1.81032
G01 X1.15680 Y1.82129
G01 X1.33498 Y1.90163
G01 X1.49368 Y2.01578
G01 X1.52007 Y2.03955
G01 X1.65020 Y2.18545
G01 X1.75418 Y2.36498
G01 X1.93112 Y2.36498
G01 X1.85078 Y2.19274
G01 X1.73236 Y2.02358
G01 X1.58636 Y1.87760
G01 X1.41723 Y1.75916
G01 X1.30430 Y1.70465
G01 X1.23328 Y1.64484
G01 X1.21123 Y1.62154
G01 X1.19393 Y1.59452
G01 X1.18205 Y1.56472
G01 X1.15667 Y1.47006
G01 X1.15566 Y1.44186
G01 X1.17052 Y1.36206
G01 X1.19147 Y1.30953
G01 X1.20821 Y1.28662
G01 X1.25398 Y1.23381
G01 X1.27737 Y1.21151
G01 X1.30455 Y1.19406
G01 X1.40158 Y1.16236
G01 X1.44948 Y1.15548
G01 X11.70098 Y1.15548
G01 X11.78861 Y1.17054
G01 X11.84095 Y1.19152
G01 X11.91662 Y1.25398
G01 X11.93892 Y1.27737
G01 X11.95637 Y1.30455
G01 X11.98807 Y1.40158
G01 X11.99495 Y1.44948
G01 X11.99495 Y21.70098
G01 X11.99109 Y21.73710
G01 X11.97159 Y21.81564
G01 X11.94225 Y21.86379
G01 X11.89650 Y21.91660
G01 X11.87311 Y21.93890
G01 X11.84591 Y21.95638
G01 X11.74885 Y21.98808
G01 X11.70098 Y21.99496
G01 X4.74143 Y21.99496
G01 X4.69934 Y21.98968
G01 X4.63988 Y21.97449
G01 X4.61128 Y21.96440
G01 X4.58494 Y21.94939
G01 X4.51229 Y21.88051
G01 X4.48334 Y21.84175
G01 X1.19137 Y15.80650
G01 X1.17588 Y15.76711
G01 X1.16074 Y15.70772
G01 X1.15548 Y15.66574
G01 X1.15548 Y14.29899
G01 X1.15934 Y14.26284
G01 X1.17885 Y14.18428
G01 X1.20821 Y14.13610
G01 X1.25398 Y14.08332
G01 X1.27737 Y14.06102
G01 X1.30455 Y14.04357
G01 X1.33455 Y14.03155
G01 X1.42528 Y14.00671
G01 X1.71372 Y14.00498
G01 X1.74293 Y14.00183
G01 X1.83475 Y13.96759
G01 X1.91072 Y13.91072
G01 X1.96759 Y13.83473
G01 X2.00183 Y13.74293
G01 X2.00498 Y13.71372
G01 X2.00498 Y13.24496
G01 X1.84499 Y13.24496
G01 X1.84240 Y13.70450
G01 X1.83473 Y13.73313
G01 X1.82220 Y13.75998
G01 X1.80521 Y13.78423
G01 X1.78426 Y13.80521
G01 X1.76000 Y13.82218
G01 X1.73313 Y13.83473
G01 X1.70450 Y13.84237
G01 X1.67499 Y13.84499
G01 X0.82500 Y13.84499
G01 X0.79185 Y13.84169
G01 X0.75995 Y13.83204
G01 X0.73056 Y13.81634
G01 X0.70481 Y13.79521
G01 X0.68367 Y13.76942
G01 X0.66795 Y13.74004
G01 X0.65827 Y13.70813
G01 X0.65502 Y13.67499
G01 X0.65502 Y11.97499
G01 X0.65827 Y11.94182
G01 X0.66795 Y11.90994
G01 X0.68367 Y11.88053
G01 X0.70481 Y11.85477
G01 X0.73056 Y11.83364
G01 X0.75995 Y11.81792
G01 X0.79185 Y11.80826
G01 X0.82500 Y11.80499
G01 X1.67499 Y11.80499
G01 X1.70450 Y11.80758
G01 X1.73313 Y11.81525
G01 X1.76000 Y11.82777
G01 X1.78426 Y11.84476
G01 X1.80521 Y11.86572
G01 X1.82220 Y11.88998
G01 X1.83473 Y11.91685
G01 X1.84240 Y11.94548
G01 X1.84499 Y12.40499
G01 X2.00498 Y12.40499
G01 X2.00498 Y11.93623
G01 X2.00183 Y11.90699
G01 X1.96759 Y11.81520
G01 X1.91072 Y11.73923
G01 X1.83475 Y11.68236
G01 X1.70348 Y11.63156
G01 X1.65213 Y11.60153
G01 X1.63381 Y11.58566
G01 X1.57605 Y11.51141
G01 X1.55924 Y11.48381
G01 X1.54793 Y11.45353
G01 X1.54258 Y11.42163
G01 X1.53760 Y11.35193
G01 X1.53836 Y11.31964
G01 X1.54522 Y11.28807
G01 X1.59142 Y11.19704
G01 X1.62040 Y11.15830
G01 X1.73236 Y11.04637
G01 X1.85078 Y10.87723
G01 X1.93112 Y10.70496
G01 X1.75421 Y10.70496
G01 X1.65020 Y10.88452
G01 X1.52007 Y11.03042
G01 X1.49368 Y11.05419
G01 X1.33498 Y11.16834
G01 X1.15680 Y11.24868
G01 X1.12299 Y11.25968
G01 X0.93160 Y11.29940
G01 X0.82500 Y11.30034
G01 X0.82500 Y11.80499
G01 X0.82500 Y11.47034
G01 X0.82500 Y11.63499
G01 X1.45622 Y11.63499
G01 X1.59246 Y11.71718
G01 X1.45622 Y11.63499
G01 X1.40633 Y11.55810
G01 X1.38372 Y11.49752
G01 X1.37300 Y11.43374
G01 X1.36859 Y11.34047
G01 X1.42787 Y11.24251
G01 X1.36859 Y11.34047
G01 X1.19272 Y11.41675
G01 X0.94938 Y11.46846
G01 X0.82500 Y11.47034
G01 X0.82500 Y11.30034
G01 X0.79185 Y11.29706
G01 X0.75995 Y11.28739
G01 X0.73056 Y11.27169
G01 X0.70481 Y11.25053
G01 X0.68367 Y11.22478
G01 X0.66795 Y11.19539
G01 X0.65827 Y11.16349
G01 X0.65502 Y11.13034
G01 X0.65502 Y9.43964
G01 X0.65827 Y9.40647
G01 X0.66795 Y9.37459
G01 X0.68367 Y9.34520
G01 X0.70481 Y9.31945
G01 X0.73056 Y9.29829
G01 X0.75995 Y9.28259
G01 X0.79185 Y9.27291
G01 X0.91382 Y9.26964
G01 X0.94918 Y9.27337
G01 X1.12299 Y9.31030
G01 X1.15680 Y9.32127
G01 X1.33498 Y9.40164
G01 X1.50750 Y9.52699
G01 X1.65020 Y9.68543
G01 X1.75418 Y9.86499
G01 X1.93112 Y9.86499
G01 X1.85078 Y9.69272
G01 X1.73236 Y9.52359
G01 X1.58636 Y9.37759
G01 X1.41723 Y9.25917
G01 X1.30432 Y9.20464
G01 X1.23333 Y9.14490
G01 X1.21126 Y9.12158
G01 X1.19396 Y9.09455
G01 X1.16236 Y8.99770
G01 X1.15548 Y8.94983
G01 X1.15548 Y6.79898
G01 X1.17054 Y6.71132
G01 X1.19152 Y6.65897
G01 X1.25398 Y6.58331
G01 X1.27737 Y6.56101
G01 X1.30455 Y6.54356
G01 X1.33455 Y6.53154
G01 X1.42528 Y6.50670
G01 X1.71372 Y6.50497
G01 X1.74293 Y6.50182
G01 X1.83475 Y6.46758
G01 X1.91072 Y6.41071
G01 X1.96759 Y6.33477
G01 X2.00183 Y6.24295
G01 X2.00498 Y6.21371
G01 X2.00498 Y5.74495
G01 X1.84499 Y5.74495
G01 X1.84240 Y6.20452
G01 X1.83473 Y6.23314
G01 X1.82220 Y6.25999
G01 X1.80521 Y6.28427
G01 X1.78426 Y6.30520
G01 X1.76000 Y6.32222
G01 X1.73313 Y6.33474
G01 X1.70450 Y6.34241
G01 X1.67499 Y6.34498
G01 X0.82500 Y6.34498
G01 X0.82500 Y6.51498
G01 X1.08822 Y6.51498
G01 X1.24819 Y6.42694
G01 X1.08822 Y6.51498
G01 X1.04636 Y6.57048
G01 X1.02104 Y6.62110
G01 X1.00443 Y6.67520
G01 X0.98741 Y6.76263
G01 X0.98548 Y6.79898
G01 X0.98548 Y8.94983
G01 X0.98893 Y8.99821
G01 X1.01969 Y9.11454
G01 X1.10445 Y9.18907
G01 X1.01969 Y9.11454
G01 X0.94938 Y9.10151
G01 X0.82500 Y9.09963
G01 X0.82500 Y9.26964
G01 X0.82500 Y6.68498
G01 X0.82500 Y6.70375
G01 X0.82833 Y6.68498
G01 X0.82500 Y6.68498
G01 X0.82500 Y6.34498
G01 X0.79185 Y6.34173
G01 X0.75995 Y6.33205
G01 X0.73056 Y6.31633
G01 X0.70481 Y6.29519
G01 X0.68367 Y6.26944
G01 X0.66795 Y6.24005
G01 X0.65827 Y6.20815
G01 X0.65502 Y6.17498
G01 X0.65502 Y4.47498
G01 X0.65827 Y4.44183
G01 X0.66795 Y4.40993
G01 X0.68367 Y4.38054
G01 X0.70481 Y4.35479
G01 X0.73056 Y4.33363
G01 X0.75995 Y4.31793
G01 X0.79185 Y4.30825
G01 X0.82500 Y4.30498
G01 X1.67499 Y4.30498
G01 X1.70450 Y4.30757
G01 X1.73313 Y4.31524
G01 X1.76000 Y4.32776
G01 X1.78426 Y4.34475
G01 X1.80521 Y4.36571
G01 X1.82220 Y4.38999
G01 X1.83473 Y4.41684
G01 X1.84240 Y4.44547
G01 X1.84499 Y4.90498
G01 X2.00498 Y4.90498
G01 X2.00498 Y4.43624
G01 X2.00183 Y4.40701
G01 X1.96759 Y4.31519
G01 X1.91072 Y4.23924
G01 X1.83475 Y4.18235
G01 X1.70348 Y4.13152
G01 X1.65213 Y4.10152
G01 X1.63381 Y4.08565
G01 X1.57605 Y4.01140
G01 X1.55924 Y3.98379
G01 X1.54793 Y3.95352
G01 X1.54258 Y3.92162
G01 X1.53760 Y3.85192
G01 X1.53836 Y3.81963
G01 X1.54522 Y3.78806
G01 X1.59142 Y3.69703
G01 X1.62040 Y3.65829
G01 X1.73236 Y3.54636
G01 X1.85078 Y3.37722
G01 X1.93112 Y3.20495
G01 X1.75421 Y3.20495
G01 X1.65020 Y3.38453
G01 X1.52007 Y3.53040
G01 X1.49368 Y3.55420
G01 X1.33498 Y3.66833
G01 X1.15680 Y3.74869
G01 X1.12299 Y3.75967
G01 X0.93160 Y3.79939
G01 X0.82500 Y3.80033
G01 X0.82500 Y4.30498
G01 X0.82500 Y3.97033
G01 X0.82500 Y4.13498
G01 X1.45622 Y4.13498
G01 X1.59249 Y4.21717
G01 X1.45622 Y4.13498
G01 X1.40633 Y4.05809
G01 X1.38372 Y3.99751
G01 X1.37300 Y3.93373
G01 X1.36859 Y3.84049
G01 X1.42787 Y3.74252
G01 X1.36859 Y3.84049
G01 X1.19272 Y3.91674
G01 X0.94938 Y3.96848
G01 X0.82500 Y3.97033
G01 X0.82500 Y3.80033
G01 X0.79185 Y3.79705
G01 X0.75995 Y3.78740
G01 X0.73056 Y3.77168
G01 X0.70481 Y3.75055
G01 X0.68367 Y3.72477
G01 X0.66795 Y3.69538
G01 X0.65827 Y3.66350
G01 X0.65502 Y3.63033
G01 X0.65502 Y1.93965
G01 X0.65759 Y1.91011
G01 X0.66526 Y1.88149
G01 X0.67778 Y1.85464
G01 X0.69477 Y1.83036
G01 X0.71573 Y1.80943
G01 X0.74001 Y1.79241
G01 X0.76686 Y1.77989
G01 X0.79549 Y1.77222
G01 X0.82500 Y1.76965
G01 X0.82500 Y0.82500
G01 X0.94705 Y0.82500
G01 X0.86859 Y0.89978
G01 X0.82500 Y0.95009
G01 X0.86859 Y0.89978
G01 X0.94705 Y0.82500
G01 X1.35700 Y0.82500
G01 X1.23874 Y0.85581
G01 X1.14875 Y0.89185
G01 X1.06721 Y0.94423
G01 X0.99706 Y1.01111
G01 X0.95129 Y1.06391
G01 X0.90110 Y1.13267
G01 X0.86302 Y1.20882
G01 X0.83818 Y1.29025
G01 X0.82500 Y1.35733
G01 X0.83818 Y1.29025
G01 X0.86302 Y1.20882
G01 X0.90110 Y1.13267
G01 X0.95129 Y1.06391
G01 X0.99706 Y1.01111
G01 X1.06721 Y0.94423
G01 X1.14875 Y0.89185
G01 X1.23874 Y0.85581
G01 X1.35700 Y0.82500
G01 X19.60030 Y0.82500
G01 X19.43030 Y0.82500
G01 X19.47498 Y1.44948
G01 X19.47498 Y21.70098
G01 X19.43116 Y22.51843
G01 X19.30027 Y23.32650
G01 X19.28907 Y23.37802
G01 X18.91605 Y24.59503
G01 X18.34640 Y25.73333
G01 X17.59588 Y26.76142
G01 X17.55014 Y26.81423
G01 X16.49733 Y27.81829
G01 X15.27346 Y28.60488
G01 X13.92279 Y29.14554
G01 X13.85576 Y29.16523
G01 X12.78944 Y29.39713
G01 X11.70098 Y29.47498
G01 X8.27043 Y29.47498
G01 X7.99224 Y28.96497
G01 X11.70098 Y28.96497
G01 X12.71687 Y28.89233
G01 X13.71212 Y28.67587
G01 X13.77918 Y28.65619
G01 X15.03978 Y28.15156
G01 X16.18204 Y27.41740
G01 X17.16467 Y26.48030
G01 X17.21041 Y26.42749
G01 X17.91089 Y25.46795
G01 X18.44257 Y24.40552
G01 X18.79070 Y23.26966
G01 X18.80190 Y23.21815
G01 X18.92407 Y22.46392
G01 X18.96497 Y21.70098
G01 X18.96497 Y1.44948
G01 X18.92029 Y0.82500
G01 X18.75029 Y0.82500
G01 X18.79497 Y1.44948
G01 X18.79497 Y21.70098
G01 X18.75506 Y22.44576
G01 X18.63578 Y23.18203
G01 X18.62458 Y23.23354
G01 X18.28473 Y24.34235
G01 X17.76571 Y25.37948
G01 X17.08191 Y26.31619
G01 X17.03617 Y26.36897
G01 X16.07694 Y27.28380
G01 X14.96188 Y28.00046
G01 X13.73127 Y28.49307
G01 X13.66424 Y28.51275
G01 X12.69269 Y28.72406
G01 X11.70098 Y28.79497
G01 X7.89951 Y28.79497
G01 X7.06497 Y27.26498
G01 X11.70098 Y27.26498
G01 X12.47499 Y27.20961
G01 X13.23328 Y27.04471
G01 X13.30034 Y27.02502
G01 X14.26079 Y26.64052
G01 X15.13109 Y26.08119
G01 X15.87976 Y25.36722
G01 X15.92550 Y25.31441
G01 X16.45918 Y24.58332
G01 X16.86429 Y23.77385
G01 X17.12954 Y22.90842
G01 X17.14074 Y22.85691
G01 X17.23381 Y22.28226
G01 X17.26497 Y21.70098
G01 X17.26497 Y1.44948
G01 X17.22029 Y0.82500
G01 X15.50683 Y0.82500
G01 X15.52688 Y0.91713
G01 X15.56498 Y1.44948
G01 X15.56498 Y21.70098
G01 X15.54356 Y22.10062
G01 X15.47956 Y22.49567
G01 X15.46835 Y22.54718
G01 X15.28598 Y23.14218
G01 X15.00750 Y23.69867
G01 X14.64057 Y24.20131
G01 X14.59482 Y24.25411
G01 X14.08009 Y24.74497
G01 X13.48179 Y25.12952
G01 X12.82147 Y25.39386
G01 X12.75441 Y25.41355
G01 X12.23311 Y25.52691
G01 X11.70098 Y25.56498
G01 X6.13771 Y25.56498
G01 X6.04498 Y25.39498
G01 X11.70098 Y25.39498
G01 X12.20892 Y25.35866
G01 X12.70654 Y25.25043
G01 X12.77359 Y25.23074
G01 X13.40389 Y24.97842
G01 X13.97504 Y24.61136
G01 X14.46635 Y24.14278
G01 X14.51209 Y24.08998
G01 X14.86234 Y23.61022
G01 X15.12817 Y23.07901
G01 X15.30224 Y22.51106
G01 X15.31344 Y22.45955
G01 X15.37453 Y22.08244
G01 X15.39497 Y21.70098
G01 X15.39497 Y1.44948
G01 X15.35863 Y0.94133
G01 X15.33330 Y0.82500
G01 X15.68037 Y0.82500
G01 X15.69515 Y0.89294
G01 X15.73498 Y1.44948
G01 X15.73498 Y21.70098
G01 X15.71257 Y22.11879
G01 X15.64567 Y22.53181
G01 X15.63447 Y22.58333
G01 X15.44382 Y23.20535
G01 X15.15266 Y23.78713
G01 X14.76907 Y24.31261
G01 X14.72332 Y24.36542
G01 X14.18522 Y24.87860
G01 X13.55970 Y25.28063
G01 X12.86938 Y25.55698
G01 X12.80232 Y25.57666
G01 X12.25729 Y25.69518
G01 X11.70098 Y25.73498
G01 X6.23042 Y25.73498
G01 X5.95224 Y25.22498
G01 X11.70098 Y25.22498
G01 X12.18472 Y25.19038
G01 X12.65866 Y25.08731
G01 X12.72571 Y25.06762
G01 X13.32599 Y24.82731
G01 X13.86993 Y24.47773
G01 X14.33785 Y24.03148
G01 X14.38360 Y23.97867
G01 X14.71715 Y23.52175
G01 X14.97034 Y23.01584
G01 X15.13612 Y22.47494
G01 X15.14732 Y22.42343
G01 X15.20549 Y22.06428
G01 X15.22497 Y21.70098
G01 X15.22497 Y1.44948
G01 X15.19035 Y0.96554
G01 X15.15977 Y0.82500
G01 X14.98624 Y0.82500
G01 X15.02208 Y0.98972
G01 X15.05497 Y1.44948
G01 X15.05497 Y21.70098
G01 X15.03648 Y22.04612
G01 X14.97001 Y22.43883
G01 X14.81250 Y22.95267
G01 X14.57199 Y23.43329
G01 X14.25510 Y23.86737
G01 X14.20935 Y23.92018
G01 X13.76480 Y24.34410
G01 X13.24809 Y24.67621
G01 X12.67783 Y24.90450
G01 X12.61078 Y24.92419
G01 X12.16054 Y25.02211
G01 X11.70098 Y25.05497
G01 X5.85951 Y25.05497
G01 X5.76680 Y24.88497
G01 X11.70098 Y24.88497
G01 X12.13636 Y24.85383
G01 X12.56287 Y24.76107
G01 X12.62993 Y24.74139
G01 X13.17019 Y24.52513
G01 X13.65975 Y24.21048
G01 X14.08088 Y23.80888
G01 X14.12662 Y23.75607
G01 X14.42683 Y23.34482
G01 X14.65466 Y22.88950
G01 X14.80389 Y22.40271
G01 X14.81509 Y22.35120
G01 X14.86744 Y22.02795
G01 X14.88497 Y21.70098
G01 X14.88497 Y1.44948
G01 X14.85380 Y1.01393
G01 X14.81270 Y0.82500
G01 X14.63917 Y0.82500
G01 X14.68555 Y1.03813
G01 X14.71496 Y1.44948
G01 X14.71496 Y21.70098
G01 X14.69843 Y22.00979
G01 X14.63777 Y22.36656
G01 X14.49685 Y22.82633
G01 X14.28164 Y23.25635
G01 X13.99810 Y23.64474
G01 X13.95238 Y23.69755
G01 X13.55464 Y24.07687
G01 X13.09231 Y24.37403
G01 X12.58205 Y24.57827
G01 X12.51499 Y24.59795
G01 X12.11218 Y24.68556
G01 X11.70098 Y24.71497
G01 X5.67406 Y24.71497
G01 X5.39588 Y24.20496
G01 X11.70098 Y24.20496
G01 X12.03961 Y24.18076
G01 X12.37136 Y24.10860
G01 X12.43841 Y24.08891
G01 X12.85861 Y23.92071
G01 X13.23935 Y23.67601
G01 X13.56691 Y23.36361
G01 X13.61266 Y23.31081
G01 X13.84611 Y22.99097
G01 X14.02337 Y22.63682
G01 X14.13940 Y22.25821
G01 X14.15060 Y22.20669
G01 X14.19134 Y21.95529
G01 X14.20496 Y21.70098
G01 X14.20496 Y1.44948
G01 X14.18073 Y1.11072
G01 X14.11857 Y0.82500
G01 X13.94491 Y0.82500
G01 X14.01248 Y1.13491
G01 X14.03496 Y1.44948
G01 X14.03496 Y21.70098
G01 X14.02231 Y21.93712
G01 X13.97328 Y22.22209
G01 X13.86551 Y22.57365
G01 X13.70097 Y22.90250
G01 X13.48416 Y23.19950
G01 X13.43841 Y23.25231
G01 X13.13427 Y23.54238
G01 X12.78070 Y23.76961
G01 X12.39051 Y23.92579
G01 X12.32345 Y23.94548
G01 X12.01540 Y24.01248
G01 X11.70098 Y24.03496
G01 X5.30315 Y24.03496
G01 X4.83952 Y23.18498
G01 X11.70098 Y23.18498
G01 X11.89447 Y23.17113
G01 X12.08403 Y23.12991
G01 X12.15109 Y23.11022
G01 X12.39122 Y23.01411
G01 X12.60880 Y22.87426
G01 X12.79594 Y22.69577
G01 X12.84169 Y22.64296
G01 X12.97512 Y22.46019
G01 X13.07639 Y22.25782
G01 X13.14270 Y22.04147
G01 X13.15391 Y21.98996
G01 X13.17717 Y21.84629
G01 X13.18497 Y21.70098
G01 X13.18497 Y1.44948
G01 X13.17113 Y1.25589
G01 X13.12985 Y1.06625
G01 X13.11017 Y0.99922
G01 X13.04042 Y0.82500
G01 X12.85518 Y0.82500
G01 X12.86300 Y0.83717
G01 X12.94707 Y1.04712
G01 X12.96676 Y1.11415
G01 X13.00285 Y1.28009
G01 X13.01497 Y1.44948
G01 X13.01497 Y21.70098
G01 X13.00816 Y21.82813
G01 X12.97659 Y22.00535
G01 X12.91858 Y22.19466
G01 X12.82995 Y22.37172
G01 X12.71322 Y22.53164
G01 X12.66747 Y22.58444
G01 X12.50369 Y22.74065
G01 X12.31332 Y22.86301
G01 X12.10321 Y22.94710
G01 X12.03615 Y22.96679
G01 X11.87029 Y23.00286
G01 X11.70098 Y23.01497
G01 X4.74679 Y23.01497
G01 X4.65098 Y22.83931
G01 X4.74143 Y22.84497
G01 X11.70098 Y22.84497
G01 X11.84609 Y22.83458
G01 X11.98827 Y22.80367
G01 X12.05533 Y22.78399
G01 X12.23542 Y22.71190
G01 X12.39859 Y22.60702
G01 X12.53897 Y22.47314
G01 X12.58472 Y22.42033
G01 X12.68479 Y22.28325
G01 X12.76074 Y22.13149
G01 X12.81047 Y21.96923
G01 X12.82167 Y21.91772
G01 X12.83912 Y21.80997
G01 X12.84497 Y21.70098
G01 X12.84497 Y1.44948
G01 X12.83458 Y1.30430
G01 X12.80364 Y1.16206
G01 X12.78395 Y1.09503
G01 X12.71190 Y0.91507
G01 X12.65401 Y0.82500
G01 X12.44288 Y0.82500
G01 X12.47347 Y0.85705
G01 X12.56079 Y0.99297
G01 X12.62084 Y1.14293
G01 X12.64052 Y1.20996
G01 X12.66630 Y1.32848
G01 X12.67496 Y1.44948
G01 X12.67496 Y21.70098
G01 X12.67009 Y21.79179
G01 X12.64436 Y21.93309
G01 X12.60290 Y22.06832
G01 X12.53961 Y22.19481
G01 X12.45622 Y22.30903
G01 X12.41047 Y22.36184
G01 X12.29351 Y22.47339
G01 X12.15751 Y22.56080
G01 X12.00745 Y22.62087
G01 X11.94040 Y22.64055
G01 X11.82190 Y22.66633
G01 X11.70098 Y22.67497
G01 X4.74143 Y22.67497
G01 X4.63541 Y22.66834
G01 X4.54874 Y22.65188
G01 X2.90709 Y19.64216
G01 X4.43332 Y22.44027
G01 X4.23746 Y22.08117
G01 X4.32113 Y22.17022
G01 X4.39091 Y22.22859
G01 X4.46995 Y22.27362
G01 X4.55573 Y22.30393
G01 X4.61519 Y22.31911
G01 X4.67780 Y22.33098
G01 X4.74143 Y22.33496
G01 X11.70098 Y22.33496
G01 X11.77352 Y22.32978
G01 X11.84461 Y22.31431
G01 X11.91167 Y22.29463
G01 X12.00171 Y22.25859
G01 X12.08330 Y22.20616
G01 X12.15350 Y22.13921
G01 X12.19925 Y22.08640
G01 X12.24928 Y22.01787
G01 X12.28726 Y21.94198
G01 X12.31212 Y21.86085
G01 X12.32333 Y21.80934
G01 X12.33204 Y21.75546
G01 X12.33496 Y21.70098
G01 X12.33496 Y1.44948
G01 X12.32978 Y1.37689
G01 X12.31431 Y1.30577
G01 X12.29462 Y1.23874
G01 X12.25858 Y1.14875
G01 X12.20621 Y1.06721
G01 X12.13933 Y0.99706
G01 X12.08652 Y0.95129
G01 X12.01794 Y0.90120
G01 X11.94202 Y0.86320
G01 X11.86084 Y0.83831
G01 X11.79620 Y0.82500
G01 X12.20034 Y0.82500
G01 X12.25066 Y0.86859
G01 X12.33984 Y0.96213
G01 X12.40969 Y1.07087
G01 X12.45772 Y1.19084
G01 X12.47740 Y1.25787
G01 X12.49805 Y1.35268
G01 X12.50496 Y1.44948
G01 X12.50496 Y21.70098
G01 X12.50108 Y21.77362
G01 X12.48944 Y21.84546
G01 X12.47824 Y21.89697
G01 X12.44507 Y22.00515
G01 X12.39445 Y22.10634
G01 X12.32772 Y22.19773
G01 X12.28197 Y22.25053
G01 X12.18840 Y22.33977
G01 X12.07961 Y22.40969
G01 X11.95955 Y22.45775
G01 X11.89249 Y22.47743
G01 X11.79772 Y22.49806
G01 X11.70098 Y22.50497
G01 X4.74143 Y22.50497
G01 X4.65659 Y22.49966
G01 X4.57313 Y22.48381
G01 X4.51366 Y22.46862
G01 X4.43332 Y22.44027
G01 X5.02497 Y23.52498
G01 X11.70098 Y23.52498
G01 X11.94283 Y23.50768
G01 X12.17982 Y23.45615
G01 X12.24687 Y23.43646
G01 X12.54700 Y23.31629
G01 X12.81898 Y23.14152
G01 X13.05294 Y22.91838
G01 X13.09869 Y22.86557
G01 X13.26546 Y22.63712
G01 X13.39206 Y22.38416
G01 X13.47494 Y22.11371
G01 X13.51522 Y21.88262
G01 X13.52497 Y21.70098
G01 X13.52497 Y1.44948
G01 X13.50765 Y1.20750
G01 X13.45609 Y0.97047
G01 X13.43640 Y0.90344
G01 X13.40499 Y0.82500
G01 X13.22271 Y0.82500
G01 X13.27329 Y0.95134
G01 X13.29297 Y1.01837
G01 X13.33938 Y1.23168
G01 X13.35497 Y1.44948
G01 X13.35497 Y21.70098
G01 X13.34621 Y21.86445
G01 X13.32002 Y22.02608
G01 X13.30882 Y22.07759
G01 X13.23422 Y22.32099
G01 X13.12030 Y22.54865
G01 X12.97019 Y22.75427
G01 X12.92444 Y22.80707
G01 X12.71388 Y23.00789
G01 X12.46910 Y23.16521
G01 X12.19897 Y23.27334
G01 X12.13191 Y23.29303
G01 X11.91865 Y23.33941
G01 X11.70098 Y23.35498
G01 X4.93226 Y23.35498
G01 X5.21044 Y23.86496
G01 X11.70098 Y23.86496
G01 X11.99122 Y23.84421
G01 X12.27557 Y23.78238
G01 X12.34263 Y23.76270
G01 X12.70280 Y23.61850
G01 X13.02917 Y23.40875
G01 X13.30991 Y23.14101
G01 X13.35566 Y23.08820
G01 X13.55581 Y22.81403
G01 X13.70770 Y22.51050
G01 X13.80717 Y22.18597
G01 X13.85327 Y21.91896
G01 X13.86493 Y21.70098
G01 X13.86493 Y1.44948
G01 X13.84420 Y1.15911
G01 X13.78230 Y0.87466
G01 X13.76772 Y0.82500
G01 X13.58728 Y0.82500
G01 X13.61918 Y0.92256
G01 X13.67593 Y1.18329
G01 X13.69498 Y1.44948
G01 X13.69498 Y21.70098
G01 X13.68426 Y21.90080
G01 X13.65223 Y22.09831
G01 X13.64105 Y22.14982
G01 X13.54984 Y22.44733
G01 X13.41062 Y22.72557
G01 X13.22716 Y22.97690
G01 X13.18141 Y23.02971
G01 X12.92406 Y23.27512
G01 X12.62490 Y23.46740
G01 X12.29475 Y23.59958
G01 X12.22769 Y23.61926
G01 X11.96704 Y23.67593
G01 X11.70098 Y23.69498
G01 X5.11770 Y23.69498
G01 X5.67406 Y24.71497
G01 X5.58135 Y24.54497
G01 X11.70098 Y24.54497
G01 X12.08797 Y24.51731
G01 X12.46712 Y24.43483
G01 X12.53417 Y24.41515
G01 X13.01441 Y24.22292
G01 X13.44956 Y23.94324
G01 X13.82388 Y23.58624
G01 X13.86963 Y23.53344
G01 X14.13648 Y23.16791
G01 X14.33902 Y22.76316
G01 X14.47166 Y22.33044
G01 X14.52939 Y21.99161
G01 X14.54496 Y21.70098
G01 X14.54496 Y1.44948
G01 X14.51728 Y1.06231
G01 X14.46564 Y0.82500
G01 X14.29211 Y0.82500
G01 X14.34900 Y1.08652
G01 X14.37496 Y1.44948
G01 X14.37496 Y21.70098
G01 X14.36036 Y21.97345
G01 X14.31674 Y22.24281
G01 X14.30554 Y22.29432
G01 X14.18118 Y22.69999
G01 X13.99132 Y23.07944
G01 X13.74113 Y23.42214
G01 X13.69538 Y23.47494
G01 X13.34446 Y23.80961
G01 X12.93651 Y24.07182
G01 X12.48629 Y24.25203
G01 X12.41924 Y24.27171
G01 X12.06379 Y24.34903
G01 X11.70098 Y24.37497
G01 X5.48862 Y24.37497
G01 X6.41587 Y26.07496
G01 X6.32316 Y25.90496
G01 X11.70098 Y25.90496
G01 X12.28149 Y25.86346
G01 X12.85020 Y25.73978
G01 X12.91725 Y25.72010
G01 X13.63760 Y25.43173
G01 X14.29033 Y25.01223
G01 X14.85182 Y24.47672
G01 X14.89757 Y24.42391
G01 X15.29784 Y23.87560
G01 X15.60165 Y23.26852
G01 X15.80059 Y22.61944
G01 X15.88161 Y22.13695
G01 X15.90495 Y21.70098
G01 X15.90495 Y1.44948
G01 X15.86343 Y0.86874
G01 X15.85390 Y0.82500
G01 X16.02743 Y0.82500
G01 X16.03170 Y0.84456
G01 X16.07496 Y1.44948
G01 X16.07496 Y21.70098
G01 X16.05062 Y22.15511
G01 X15.97790 Y22.60405
G01 X15.96670 Y22.65556
G01 X15.75949 Y23.33169
G01 X15.44300 Y23.96407
G01 X15.02606 Y24.53524
G01 X14.98032 Y24.58805
G01 X14.39541 Y25.14583
G01 X13.71547 Y25.58284
G01 X12.96513 Y25.88319
G01 X12.89808 Y25.90288
G01 X12.30567 Y26.03173
G01 X11.70098 Y26.07496
G01 X6.41587 Y26.07496
G01 X6.97226 Y27.09498
G01 X11.70098 Y27.09498
G01 X12.45081 Y27.04136
G01 X13.18538 Y26.88156
G01 X13.25243 Y26.86190
G01 X14.18289 Y26.48944
G01 X15.02599 Y25.94758
G01 X15.75126 Y25.25589
G01 X15.79700 Y25.20308
G01 X16.31402 Y24.49485
G01 X16.70645 Y23.71068
G01 X16.96342 Y22.87230
G01 X16.97462 Y22.82079
G01 X17.06479 Y22.26410
G01 X17.09497 Y21.70098
G01 X17.09497 Y1.44948
G01 X17.05029 Y0.82500
G01 X16.88029 Y0.82500
G01 X16.92497 Y1.44948
G01 X16.92497 Y21.70098
G01 X16.89576 Y22.24594
G01 X16.80851 Y22.78467
G01 X16.79731 Y22.83618
G01 X16.54862 Y23.64751
G01 X16.16886 Y24.40639
G01 X15.66851 Y25.09178
G01 X15.62276 Y25.14459
G01 X14.92088 Y25.81395
G01 X14.10498 Y26.33833
G01 X13.20455 Y26.69879
G01 X13.13750 Y26.71847
G01 X12.42660 Y26.87308
G01 X11.70098 Y26.92497
G01 X6.87952 Y26.92497
G01 X6.60134 Y26.41497
G01 X11.70098 Y26.41497
G01 X12.35406 Y26.36828
G01 X12.99384 Y26.22911
G01 X13.06089 Y26.20943
G01 X13.87128 Y25.88505
G01 X14.60559 Y25.41309
G01 X15.23729 Y24.81065
G01 X15.28304 Y24.75785
G01 X15.73335 Y24.14098
G01 X16.07513 Y23.45800
G01 X16.29893 Y22.72780
G01 X16.31014 Y22.67629
G01 X16.38870 Y22.19143
G01 X16.41496 Y21.70098
G01 X16.41496 Y1.44948
G01 X16.37028 Y0.82500
G01 X16.20031 Y0.82500
G01 X16.24496 Y1.44948
G01 X16.24496 Y21.70098
G01 X16.21966 Y22.17327
G01 X16.14402 Y22.64017
G01 X16.13282 Y22.69168
G01 X15.91730 Y23.39483
G01 X15.58817 Y24.05254
G01 X15.15454 Y24.64654
G01 X15.10879 Y24.69935
G01 X14.50051 Y25.27946
G01 X13.79335 Y25.73394
G01 X13.01301 Y26.04631
G01 X12.94596 Y26.06600
G01 X12.32985 Y26.20001
G01 X11.70098 Y26.24496
G01 X6.50861 Y26.24496
G01 X6.78679 Y26.75495
G01 X11.70098 Y26.75495
G01 X12.40242 Y26.70481
G01 X13.08962 Y26.55535
G01 X13.15667 Y26.53567
G01 X14.02708 Y26.18723
G01 X14.81580 Y25.68032
G01 X15.49429 Y25.03328
G01 X15.54003 Y24.98048
G01 X16.02367 Y24.31792
G01 X16.39078 Y23.58434
G01 X16.63119 Y22.80006
G01 X16.64239 Y22.74855
G01 X16.72675 Y22.22778
G01 X16.75497 Y21.70098
G01 X16.75497 Y1.44948
G01 X16.71029 Y0.82500
G01 X16.54028 Y0.82500
G01 X16.58496 Y1.44948
G01 X16.58496 Y21.70098
G01 X16.55771 Y22.20962
G01 X16.47625 Y22.71241
G01 X16.46505 Y22.76392
G01 X16.23297 Y23.52117
G01 X15.87851 Y24.22945
G01 X15.41153 Y24.86915
G01 X15.36579 Y24.92195
G01 X14.71070 Y25.54672
G01 X13.94918 Y26.03613
G01 X13.10880 Y26.37255
G01 X13.04174 Y26.39221
G01 X12.37824 Y26.53653
G01 X11.70098 Y26.58497
G01 X6.69408 Y26.58497
G01 X6.60134 Y26.41497
G01 X7.89951 Y28.79497
G01 X7.80680 Y28.62497
G01 X11.70098 Y28.62497
G01 X12.66849 Y28.55578
G01 X13.61634 Y28.34963
G01 X13.68339 Y28.32995
G01 X14.88398 Y27.84936
G01 X15.97186 Y27.15017
G01 X16.90767 Y26.25769
G01 X16.95342 Y26.20488
G01 X17.62055 Y25.29102
G01 X18.12690 Y24.27918
G01 X18.45847 Y23.19740
G01 X18.46967 Y23.14588
G01 X18.58603 Y22.42760
G01 X18.62496 Y21.70098
G01 X18.62496 Y1.44948
G01 X18.58029 Y0.82500
G01 X18.24031 Y0.82500
G01 X18.28496 Y1.44948
G01 X18.28496 Y21.70098
G01 X18.24798 Y22.39125
G01 X18.13744 Y23.07365
G01 X18.12624 Y23.12516
G01 X17.81125 Y24.15284
G01 X17.33020 Y25.11408
G01 X16.69644 Y25.98225
G01 X16.65070 Y26.03506
G01 X15.76165 Y26.88294
G01 X14.72817 Y27.54715
G01 X13.58761 Y28.00371
G01 X13.52058 Y28.02340
G01 X12.62012 Y28.21926
G01 X11.70098 Y28.28497
G01 X7.62133 Y28.28497
G01 X7.43588 Y27.94496
G01 X11.70098 Y27.94496
G01 X12.57174 Y27.88271
G01 X13.42480 Y27.69718
G01 X13.49185 Y27.67750
G01 X14.57237 Y27.24496
G01 X15.55146 Y26.61568
G01 X16.39373 Y25.81245
G01 X16.43947 Y25.75965
G01 X17.03988 Y24.93717
G01 X17.49558 Y24.02653
G01 X17.79400 Y23.05292
G01 X17.80520 Y23.00141
G01 X17.90993 Y22.35493
G01 X17.94496 Y21.70098
G01 X17.94496 Y1.44948
G01 X17.90030 Y0.82500
G01 X17.73030 Y0.82500
G01 X17.77495 Y1.44948
G01 X17.77495 Y21.70098
G01 X17.74089 Y22.33677
G01 X17.63909 Y22.96529
G01 X17.62789 Y23.01680
G01 X17.33777 Y23.96336
G01 X16.89469 Y24.84870
G01 X16.31097 Y25.64832
G01 X16.26523 Y25.70113
G01 X15.44636 Y26.48207
G01 X14.49447 Y27.09386
G01 X13.44397 Y27.51438
G01 X13.37692 Y27.53407
G01 X12.54756 Y27.71443
G01 X11.70098 Y27.77496
G01 X7.34315 Y27.77496
G01 X7.25041 Y27.60498
G01 X11.70098 Y27.60498
G01 X12.52338 Y27.54616
G01 X13.32904 Y27.37092
G01 X13.39609 Y27.35126
G01 X14.41659 Y26.94273
G01 X15.34128 Y26.34844
G01 X16.13673 Y25.58982
G01 X16.18247 Y25.53702
G01 X16.74953 Y24.76023
G01 X17.17993 Y23.90019
G01 X17.46177 Y22.98066
G01 X17.47297 Y22.92915
G01 X17.57188 Y22.31861
G01 X17.60498 Y21.70098
G01 X17.60498 Y1.44948
G01 X17.56030 Y0.82500
G01 X17.39030 Y0.82500
G01 X17.43497 Y1.44948
G01 X17.43497 Y21.70098
G01 X17.40284 Y22.30045
G01 X17.30686 Y22.89303
G01 X17.29566 Y22.94454
G01 X17.02210 Y23.83702
G01 X16.60437 Y24.67176
G01 X16.05398 Y25.42571
G01 X16.00823 Y25.47852
G01 X15.23617 Y26.21481
G01 X14.33869 Y26.79162
G01 X13.34822 Y27.18814
G01 X13.28116 Y27.20783
G01 X12.49917 Y27.37786
G01 X11.70098 Y27.43495
G01 X7.15770 Y27.43495
G01 X7.52862 Y28.11496
G01 X11.70098 Y28.11496
G01 X12.59594 Y28.05098
G01 X13.47270 Y27.86028
G01 X13.53976 Y27.84059
G01 X14.65027 Y27.39607
G01 X15.65657 Y26.74931
G01 X16.52220 Y25.92376
G01 X16.56795 Y25.87095
G01 X17.18504 Y25.02564
G01 X17.65341 Y24.08970
G01 X17.96012 Y23.08904
G01 X17.97132 Y23.03753
G01 X18.07894 Y22.37309
G01 X18.11496 Y21.70098
G01 X18.11496 Y1.44948
G01 X18.07030 Y0.82500
G01 X18.41028 Y0.82500
G01 X18.45496 Y1.44948
G01 X18.45496 Y21.70098
G01 X18.41701 Y22.40944
G01 X18.30355 Y23.10977
G01 X18.29235 Y23.16128
G01 X17.96909 Y24.21601
G01 X17.47539 Y25.20255
G01 X16.82494 Y26.09355
G01 X16.77920 Y26.14636
G01 X15.86675 Y27.01654
G01 X14.80607 Y27.69825
G01 X13.63552 Y28.16683
G01 X13.56846 Y28.18651
G01 X12.64431 Y28.38751
G01 X11.70098 Y28.45497
G01 X7.71406 Y28.45497
G01 X8.17769 Y29.30498
G01 X11.70098 Y29.30498
G01 X12.76526 Y29.22885
G01 X13.80785 Y29.00211
G01 X13.87494 Y28.98242
G01 X15.19556 Y28.45377
G01 X16.39223 Y27.68466
G01 X17.42164 Y26.70293
G01 X17.46738 Y26.65012
G01 X18.20122 Y25.64486
G01 X18.75821 Y24.53186
G01 X19.12296 Y23.34190
G01 X19.13416 Y23.29039
G01 X19.26215 Y22.50027
G01 X19.30497 Y21.70098
G01 X19.30497 Y1.44948
G01 X19.26029 Y0.82500
G01 X19.09029 Y0.82500
G01 X19.13497 Y1.44948
G01 X19.13497 Y21.70098
G01 X19.09311 Y22.48208
G01 X18.96802 Y23.25427
G01 X18.95682 Y23.30578
G01 X18.60038 Y24.46869
G01 X18.05606 Y25.55640
G01 X17.33891 Y26.53879
G01 X17.29317 Y26.59162
G01 X16.28712 Y27.55103
G01 X15.11766 Y28.30267
G01 X13.82706 Y28.81931
G01 X13.76000 Y28.83899
G01 X12.74105 Y29.06061
G01 X11.70098 Y29.13498
G01 X8.08498 Y29.13498
G01 X8.36316 Y29.64498
G01 X11.70098 Y29.64498
G01 X12.81362 Y29.56540
G01 X13.90366 Y29.32835
G01 X13.97072 Y29.30866
G01 X15.35136 Y28.75598
G01 X16.60241 Y27.95192
G01 X17.67864 Y26.92551
G01 X17.72438 Y26.87273
G01 X18.49156 Y25.82180
G01 X19.07388 Y24.65820
G01 X19.45519 Y23.41416
G01 X19.46639 Y23.36265
G01 X19.60020 Y22.53659
G01 X19.64498 Y21.70098
G01 X19.64498 Y1.44948
G01 X19.60030 Y0.82500
G01 X20.28028 Y0.82500
G01 X20.11031 Y0.82500
G01 X20.15496 Y1.44948
G01 X20.15496 Y21.70098
G01 X20.10728 Y22.59107
G01 X19.96474 Y23.47100
G01 X19.95354 Y23.52252
G01 X19.54737 Y24.84771
G01 X18.92707 Y26.08718
G01 X18.10985 Y27.20666
G01 X18.06411 Y27.25947
G01 X16.91770 Y28.35278
G01 X15.58507 Y29.20927
G01 X14.11436 Y29.79799
G01 X14.04730 Y29.81768
G01 X12.88619 Y30.07023
G01 X11.70098 Y30.15496
G01 X8.64134 Y30.15496
G01 X8.73405 Y30.32497
G01 X8.54861 Y29.98496
G01 X11.70098 Y29.98496
G01 X12.86201 Y29.90195
G01 X13.99942 Y29.65458
G01 X14.06645 Y29.63490
G01 X15.50717 Y29.05817
G01 X16.81262 Y28.21915
G01 X17.93561 Y27.14816
G01 X17.98135 Y27.09533
G01 X18.78191 Y25.99874
G01 X19.38953 Y24.78454
G01 X19.78742 Y23.48640
G01 X19.79862 Y23.43489
G01 X19.93825 Y22.57291
G01 X19.98496 Y21.70098
G01 X19.98496 Y1.44948
G01 X19.94030 Y0.82500
G01 X19.77030 Y0.82500
G01 X19.81495 Y1.44948
G01 X19.81495 Y21.70098
G01 X19.76921 Y22.55475
G01 X19.63251 Y23.39877
G01 X19.62130 Y23.45028
G01 X19.23169 Y24.72137
G01 X18.63672 Y25.91027
G01 X17.85288 Y26.98405
G01 X17.80714 Y27.03686
G01 X16.70752 Y28.08552
G01 X15.42926 Y28.90706
G01 X14.01860 Y29.47178
G01 X13.95152 Y29.49147
G01 X12.83783 Y29.73368
G01 X11.70098 Y29.81496
G01 X8.45587 Y29.81496
G01 X8.73405 Y30.32497
G01 X11.70098 Y30.32497
G01 X12.91037 Y30.23848
G01 X14.09520 Y29.98080
G01 X14.16226 Y29.96111
G01 X15.66297 Y29.36038
G01 X17.02281 Y28.48639
G01 X18.19261 Y27.37079
G01 X18.23835 Y27.31799
G01 X19.07223 Y26.17565
G01 X19.70520 Y24.91088
G01 X20.11965 Y23.55863
G01 X20.13085 Y23.50712
G01 X20.27629 Y22.60926
G01 X20.32496 Y21.70098
G01 X20.32496 Y1.44948
G01 X20.28028 Y0.82500
G01 X20.79029 Y0.82500
G01 X20.82496 Y1.30976

G04 P0 ( dwell for no time -- G64 should not smooth over this point )
G00 Z10.000000 ( retract )

M5 ( Spindle off. )
G04 P1.000000
M9 ( Coolant off. )
M2 ( Program end. )

