( pcb2gcode 2.5.0 )
( Software-independent Gcode )
( This file uses a mill head of 0.80000mm to drill the 1 hole sizes. )
( Hole sizes: [2.19964mm] )

G94       (Millimeters per minute feed rate.)
G21       (Units == Millimeters.)
G91.1     (Incremental arc distance mode.)
G90       (Absolute coordinates.)
S10000    (RPM spindle speed.)

G01 F100.00000 (Feedrate)
G00 Z10.00000 (Retract to tool change height)
T1
M5        (Spindle stop.)
G04 P1.00000
(MSG, Change tool bit to drill size 0.80000mm)
M6        (Tool change.)
M0        (Temporary machine stop.)
M3        (Spindle on clockwise.)
G04 P1.00000
G00 Z2.00000

G0 X17.52428 Y8.82600
G1 Z0.50000 F50.00000
G1 F100.00000
G2 X17.52428 Y8.82600 Z-0.00000 I-0.69982 J0.00000
G2 X17.52428 Y8.82600 Z-0.50000 I-0.69982 J0.00000
G2 X17.52428 Y8.82600 Z-1.00000 I-0.69982 J0.00000
G2 X17.52428 Y8.82600 Z-1.50000 I-0.69982 J0.00000
G2 X17.52428 Y8.82600 Z-2.00000 I-0.69982 J0.00000
G2 X17.52428 Y8.82600 I-0.69982 J0.00000
G1 Z2.00000 F50.00000

G0 X17.52428 Y17.82522
G1 Z0.50000 F50.00000
G1 F100.00000
G2 X17.52428 Y17.82522 Z-0.00000 I-0.69982 J0.00000
G2 X17.52428 Y17.82522 Z-0.50000 I-0.69982 J0.00000
G2 X17.52428 Y17.82522 Z-1.00000 I-0.69982 J0.00000
G2 X17.52428 Y17.82522 Z-1.50000 I-0.69982 J0.00000
G2 X17.52428 Y17.82522 Z-2.00000 I-0.69982 J0.00000
G2 X17.52428 Y17.82522 I-0.69982 J0.00000
G1 Z2.00000 F50.00000

G0 X17.52428 Y26.82444
G1 Z0.50000 F50.00000
G1 F100.00000
G2 X17.52428 Y26.82444 Z-0.00000 I-0.69982 J0.00000
G2 X17.52428 Y26.82444 Z-0.50000 I-0.69982 J0.00000
G2 X17.52428 Y26.82444 Z-1.00000 I-0.69982 J0.00000
G2 X17.52428 Y26.82444 Z-1.50000 I-0.69982 J0.00000
G2 X17.52428 Y26.82444 Z-2.00000 I-0.69982 J0.00000
G2 X17.52428 Y26.82444 I-0.69982 J0.00000
G1 Z2.00000 F50.00000

G00 Z10.000000 ( All done -- retract )

M5      (Spindle off.)
G04 P1.000000
M9      (Coolant off.)
M2      (Program end.)

