( pcb2gcode 2.5.0 )
( Software-independent Gcode )

G94 ( Millimeters per minute feed rate. )
G21 ( Units == Millimeters. )

G90 ( Absolute coordinates. )
G00 S10000 ( RPM spindle speed. )
G64 P0.01016 ( set maximum deviation from commanded toolpath )
G01 F100.00000 ( Feedrate. )


G00 Z10.00000 (Retract to tool change height)
T0
M5      (Spindle stop.)
G04 P1.00000 (Wait for spindle to stop)
(MSG, Change tool bit to cutter diameter 0.80000mm)
M6      (Tool change.)
M0      (Temporary machine stop.)
M3 ( Spindle on clockwise. )
G04 P1.00000 (Wait for spindle to get up to speed)
G04 P0 ( dwell for no time -- G64 should not smooth over this point )
G00 Z2.00000 ( retract )

G00 X0.42500 Y0.82500 ( rapid move to begin. )
G01 Z-0.50000 F50.00000 ( plunge. )
G04 P0 ( dwell for no time -- G64 should not smooth over this point )
G01 F100.00000
G01 X0.42500 Y15.82500
G01 X0.43054 Y15.89126
G01 X0.44697 Y15.95570
G01 X0.47384 Y16.01651
G01 X12.47380 Y38.01649
G01 X12.51342 Y38.07583
G01 X12.56292 Y38.12719
G01 X12.62079 Y38.16892
G01 X12.68512 Y38.19973
G01 X12.75391 Y38.21860
G01 X12.82498 Y38.22498
G01 X15.92498 Y38.22498
G01 X17.72498 Y38.22498
G01 X20.82499 Y38.22498
G01 X20.90301 Y38.21728
G01 X20.97805 Y38.19452
G01 X21.04721 Y38.15756
G01 X21.10781 Y38.10781
G01 X21.15757 Y38.04720
G01 X21.19453 Y37.97804
G01 X21.21729 Y37.90301
G01 X21.22498 Y37.82498
G01 X21.22498 Y0.82500
G01 X21.21729 Y0.74697
G01 X21.19453 Y0.67194
G01 X21.15757 Y0.60278
G01 X21.10781 Y0.54217
G01 X21.04721 Y0.49241
G01 X20.97805 Y0.45546
G01 X20.90301 Y0.43270
G01 X20.82499 Y0.42500
G01 X11.72499 Y0.42500
G01 X9.92499 Y0.42500
G01 X0.82500 Y0.42500
G01 X0.74697 Y0.43270
G01 X0.67194 Y0.45546
G01 X0.60278 Y0.49241
G01 X0.54217 Y0.54217
G01 X0.49241 Y0.60278
G01 X0.45546 Y0.67194
G01 X0.43270 Y0.74697
G01 X0.42500 Y0.82500
G01 Z-1.00000 F50.00000 ( plunge. )
G04 P0 ( dwell for no time -- G64 should not smooth over this point )
G01 F100.00000
G01 X0.42500 Y15.82500
G01 X0.43054 Y15.89126
G01 X0.44697 Y15.95570
G01 X0.47384 Y16.01651
G01 X12.47380 Y38.01649
G01 X12.51342 Y38.07583
G01 X12.56292 Y38.12719
G01 X12.62079 Y38.16892
G01 X12.68512 Y38.19973
G01 X12.75391 Y38.21860
G01 X12.82498 Y38.22498
G01 X15.92498 Y38.22498
G01 X17.72498 Y38.22498
G01 X20.82499 Y38.22498
G01 X20.90301 Y38.21728
G01 X20.97805 Y38.19452
G01 X21.04721 Y38.15756
G01 X21.10781 Y38.10781
G01 X21.15757 Y38.04720
G01 X21.19453 Y37.97804
G01 X21.21729 Y37.90301
G01 X21.22498 Y37.82498
G01 X21.22498 Y0.82500
G01 X21.21729 Y0.74697
G01 X21.19453 Y0.67194
G01 X21.15757 Y0.60278
G01 X21.10781 Y0.54217
G01 X21.04721 Y0.49241
G01 X20.97805 Y0.45546
G01 X20.90301 Y0.43270
G01 X20.82499 Y0.42500
G01 X11.72499 Y0.42500
G01 X9.92499 Y0.42500
G01 X0.82500 Y0.42500
G01 X0.74697 Y0.43270
G01 X0.67194 Y0.45546
G01 X0.60278 Y0.49241
G01 X0.54217 Y0.54217
G01 X0.49241 Y0.60278
G01 X0.45546 Y0.67194
G01 X0.43270 Y0.74697
G01 X0.42500 Y0.82500
G01 Z-1.50000 F50.00000 ( plunge. )
G04 P0 ( dwell for no time -- G64 should not smooth over this point )
G01 F100.00000
G01 X0.42500 Y15.82500
G01 X0.43054 Y15.89126
G01 X0.44697 Y15.95570
G01 X0.47384 Y16.01651
G01 X12.47380 Y38.01649
G01 X12.51342 Y38.07583
G01 X12.56292 Y38.12719
G01 X12.62079 Y38.16892
G01 X12.68512 Y38.19973
G01 X12.75391 Y38.21860
G01 X12.82498 Y38.22498
G01 X15.92498 Y38.22498
G00 Z-1.20000
G01 X17.72498 Y38.22498
G01 Z-1.50000 F50.00000
G01 F100.00000
G01 X20.82499 Y38.22498
G01 X20.90301 Y38.21728
G01 X20.97805 Y38.19452
G01 X21.04721 Y38.15756
G01 X21.10781 Y38.10781
G01 X21.15757 Y38.04720
G01 X21.19453 Y37.97804
G01 X21.21729 Y37.90301
G01 X21.22498 Y37.82498
G01 X21.22498 Y0.82500
G01 X21.21729 Y0.74697
G01 X21.19453 Y0.67194
G01 X21.15757 Y0.60278
G01 X21.10781 Y0.54217
G01 X21.04721 Y0.49241
G01 X20.97805 Y0.45546
G01 X20.90301 Y0.43270
G01 X20.82499 Y0.42500
G01 X11.72499 Y0.42500
G00 Z-1.20000
G01 X9.92499 Y0.42500
G01 Z-1.50000 F50.00000
G01 F100.00000
G01 X0.82500 Y0.42500
G01 X0.74697 Y0.43270
G01 X0.67194 Y0.45546
G01 X0.60278 Y0.49241
G01 X0.54217 Y0.54217
G01 X0.49241 Y0.60278
G01 X0.45546 Y0.67194
G01 X0.43270 Y0.74697
G01 X0.42500 Y0.82500
G01 Z-2.00000 F50.00000 ( plunge. )
G04 P0 ( dwell for no time -- G64 should not smooth over this point )
G01 F100.00000
G01 X0.42500 Y15.82500
G01 X0.43054 Y15.89126
G01 X0.44697 Y15.95570
G01 X0.47384 Y16.01651
G01 X12.47380 Y38.01649
G01 X12.51342 Y38.07583
G01 X12.56292 Y38.12719
G01 X12.62079 Y38.16892
G01 X12.68512 Y38.19973
G01 X12.75391 Y38.21860
G01 X12.82498 Y38.22498
G01 X15.92498 Y38.22498
G00 Z-1.20000
G01 X17.72498 Y38.22498
G01 Z-2.00000 F50.00000
G01 F100.00000
G01 X20.82499 Y38.22498
G01 X20.90301 Y38.21728
G01 X20.97805 Y38.19452
G01 X21.04721 Y38.15756
G01 X21.10781 Y38.10781
G01 X21.15757 Y38.04720
G01 X21.19453 Y37.97804
G01 X21.21729 Y37.90301
G01 X21.22498 Y37.82498
G01 X21.22498 Y0.82500
G01 X21.21729 Y0.74697
G01 X21.19453 Y0.67194
G01 X21.15757 Y0.60278
G01 X21.10781 Y0.54217
G01 X21.04721 Y0.49241
G01 X20.97805 Y0.45546
G01 X20.90301 Y0.43270
G01 X20.82499 Y0.42500
G01 X11.72499 Y0.42500
G00 Z-1.20000
G01 X9.92499 Y0.42500
G01 Z-2.00000 F50.00000
G01 F100.00000
G01 X0.82500 Y0.42500
G01 X0.74697 Y0.43270
G01 X0.67194 Y0.45546
G01 X0.60278 Y0.49241
G01 X0.54217 Y0.54217
G01 X0.49241 Y0.60278
G01 X0.45546 Y0.67194
G01 X0.43270 Y0.74697
G01 X0.42500 Y0.82500

G04 P0 ( dwell for no time -- G64 should not smooth over this point )
G00 Z10.000000 ( retract )

M5 ( Spindle off. )
G04 P1.000000
M9 ( Coolant off. )
M2 ( Program end. )

