( pcb2gcode 2.5.0 )
( Software-independent Gcode )

G94 ( Millimeters per minute feed rate. )
G21 ( Units == Millimeters. )

G90 ( Absolute coordinates. )
G00 S10000 ( RPM spindle speed. )
G64 P0.01016 ( set maximum deviation from commanded toolpath )
G01 F150.00000 ( Feedrate. )


G00 Z10.00000 (Retract to tool change height)
T0
M5      (Spindle stop.)
G04 P1.00000 (Wait for spindle to stop)
(MSG, Change tool bit to mill diameter 0.36000mm)
M6      (Tool change.)
M0      (Temporary machine stop.)
M3 ( Spindle on clockwise. )
G04 P1.00000 (Wait for spindle to get up to speed)
G04 P0 ( dwell for no time -- G64 should not smooth over this point )
G00 Z2.00000 ( retract )

G00 X34.92498 Y5.69768 ( rapid move to begin. )
G01 F75.00000
( Mill infeed pass 1/1 )
G01 Z-0.15000
G04 P0 ( dwell for no time -- G64 should not smooth over this point )
G01 F150.00000
G01 X34.92498 Y5.69768
G01 X34.92498 Y1.24898
G01 X34.89465 Y0.82497
G01 X33.81465 Y0.82497
G01 X33.84497 Y1.24898
G01 X33.84497 Y6.77769
G01 X33.66499 Y6.95768
G01 X33.66499 Y1.24898
G01 X33.63466 Y0.82497
G01 X33.99466 Y0.82500
G01 X34.02498 Y1.24898
G01 X34.02498 Y6.59768
G01 X33.48498 Y7.13769
G01 X33.48498 Y1.24898
G01 X33.45465 Y0.82497
G01 X32.55465 Y0.82497
G01 X32.58498 Y1.24898
G01 X32.58498 Y8.03769
G01 X32.22499 Y8.39768
G01 X32.22499 Y1.24898
G01 X32.19466 Y0.82500
G01 X31.47261 Y0.82500
G01 X31.50497 Y1.24898
G01 X31.50497 Y9.11769
G01 X31.32499 Y9.29768
G01 X31.32499 Y1.24898
G01 X31.29748 Y0.86465
G01 X31.28887 Y0.82497
G01 X31.10513 Y0.82500
G01 X31.11933 Y0.89028
G01 X31.14498 Y1.24898
G01 X31.14498 Y9.47769
G01 X30.96497 Y9.65765
G01 X30.96497 Y1.24898
G01 X30.94117 Y0.91591
G01 X30.92138 Y0.82500
G01 X30.73764 Y0.82500
G01 X30.76299 Y0.94151
G01 X30.78499 Y1.24898
G01 X30.78499 Y9.83768
G04 P0 ( dwell for no time -- G64 should not smooth over this point )
G00 Z2.00000 ( retract )

G00 X34.00078 Y23.94497 ( rapid move to begin. )
G01 F75.00000
( Mill infeed pass 1/1 )
G01 Z-0.15000
G04 P0 ( dwell for no time -- G64 should not smooth over this point )
G01 F150.00000
G01 X34.00078 Y23.94497
G01 X35.00098 Y23.94497
G01 X35.42496 Y23.91467
G01 X35.42496 Y24.09465
G01 X35.00098 Y24.12498
G01 X34.21475 Y24.12498
G01 X34.40682 Y24.30496
G01 X35.00098 Y24.30496
G01 X35.42496 Y24.27466
G01 X35.42496 Y24.45464
G01 X35.00098 Y24.48497
G01 X34.59890 Y24.48497
G01 X34.79097 Y24.66498
G01 X35.00098 Y24.66498
G01 X35.42496 Y24.63465
G01 X35.42496 Y23.73466
G01 X35.00098 Y23.76498
G01 X33.77893 Y23.76498
G01 X33.55712 Y23.58497
G01 X35.00098 Y23.58497
G01 X35.42496 Y23.55465
G01 X35.42496 Y23.37466
G01 X35.00098 Y23.40496
G01 X33.31183 Y23.40496
G01 X33.05529 Y23.22498
G01 X35.00098 Y23.22498
G01 X35.42496 Y23.19465
G01 X35.42496 Y23.01467
G01 X35.00098 Y23.04497
G01 X32.77302 Y23.04497
G01 X35.42496 Y19.73225
G01 X35.38587 Y19.78821
G01 X35.34012 Y19.84101
G01 X35.29059 Y19.88826
G01 X35.23298 Y19.92527
G01 X35.16943 Y19.95072
G01 X35.10238 Y19.97040
G01 X35.05219 Y19.98132
G01 X35.00098 Y19.98498
G01 X29.52360 Y19.98498
G01 X29.50399 Y19.95524
G01 X29.52360 Y19.98498
G01 X29.50759 Y20.03776
G01 X29.47432 Y20.09999
G01 X29.42954 Y20.15455
G01 X29.37498 Y20.19931
G01 X29.31275 Y20.23258
G01 X29.24521 Y20.25308
G01 X29.17498 Y20.25999
G01 X27.07499 Y20.25999
G01 X27.00475 Y20.25308
G01 X26.93722 Y20.23258
G01 X26.87496 Y20.19931
G01 X26.82040 Y20.15455
G01 X26.77562 Y20.09999
G01 X26.74237 Y20.03776
G01 X26.72637 Y19.98498
G01 X26.74598 Y19.95524
G01 X26.72637 Y19.98498
G01 X20.02359 Y19.98498
G01 X20.00398 Y19.95524
G01 X20.02359 Y19.98498
G01 X20.00759 Y20.03776
G01 X19.97431 Y20.09999
G01 X19.92953 Y20.15455
G01 X19.87500 Y20.19931
G01 X19.81274 Y20.23258
G01 X19.74523 Y20.25308
G01 X19.67500 Y20.25999
G01 X17.57498 Y20.25999
G01 X17.50475 Y20.25308
G01 X17.43721 Y20.23258
G01 X17.37498 Y20.19931
G01 X17.32042 Y20.15455
G01 X17.27567 Y20.09999
G01 X17.24239 Y20.03776
G01 X17.22639 Y19.98498
G01 X17.24600 Y19.95524
G01 X17.22639 Y19.98498
G01 X13.74895 Y19.98498
G01 X13.71050 Y19.98292
G01 X13.62096 Y19.96555
G01 X13.56363 Y19.94797
G01 X13.50999 Y19.92113
G01 X13.46160 Y19.88574
G01 X13.40879 Y19.83997
G01 X13.36163 Y19.79047
G01 X13.32467 Y19.73294
G01 X13.29927 Y19.66944
G01 X13.27958 Y19.60241
G01 X13.26866 Y19.55222
G01 X13.26498 Y19.50098
G01 X13.26704 Y12.21050
G01 X13.28103 Y12.13651
G01 X13.41761 Y12.05028
G01 X13.47633 Y12.02345
G01 X13.59409 Y11.98807
G01 X13.57064 Y12.00316
G01 X13.54588 Y12.02678
G01 X13.48248 Y12.10379
G01 X13.46028 Y12.15922
G01 X13.44496 Y12.24898
G01 X13.44496 Y19.50098
G01 X13.45228 Y19.55168
G01 X13.47194 Y19.61871
G01 X13.48466 Y19.65046
G01 X13.50313 Y19.67924
G01 X13.57951 Y19.74975
G01 X13.63051 Y19.78087
G01 X13.71072 Y19.80086
G01 X13.74895 Y19.80497
G01 X17.39499 Y19.80497
G01 X17.39845 Y19.93510
G01 X17.40868 Y19.96888
G01 X17.42532 Y19.99999
G01 X17.44770 Y20.02727
G01 X17.47498 Y20.04965
G01 X17.50609 Y20.06629
G01 X17.53988 Y20.07652
G01 X17.57498 Y20.07998
G01 X19.67500 Y20.07998
G01 X19.71010 Y20.07652
G01 X19.74386 Y20.06629
G01 X19.77500 Y20.04965
G01 X19.80225 Y20.02727
G01 X19.82466 Y19.99999
G01 X19.84129 Y19.96888
G01 X19.85153 Y19.93510
G01 X19.85498 Y19.89999
G01 X19.85498 Y19.80497
G01 X26.89498 Y19.80497
G01 X26.89498 Y19.89999
G01 X26.89846 Y19.93510
G01 X26.90869 Y19.96888
G01 X26.92533 Y19.99999
G01 X26.94771 Y20.02727
G01 X26.97499 Y20.04965
G01 X27.00610 Y20.06629
G01 X27.03988 Y20.07652
G01 X27.07499 Y20.07998
G01 X29.17498 Y20.07998
G01 X29.21011 Y20.07652
G01 X29.24387 Y20.06629
G01 X29.27498 Y20.04965
G01 X29.30226 Y20.02727
G01 X29.32466 Y19.99999
G01 X29.34127 Y19.96888
G01 X29.35154 Y19.93510
G01 X29.35499 Y19.80497
G01 X35.00098 Y19.80497
G01 X35.05168 Y19.79768
G01 X35.15051 Y19.76527
G01 X35.17931 Y19.74678
G01 X35.20408 Y19.72316
G01 X35.26748 Y19.64615
G01 X35.28965 Y19.59072
G01 X35.30497 Y19.50098
G01 X35.30497 Y12.24898
G01 X35.29768 Y12.19826
G01 X35.27799 Y12.13123
G01 X35.26527 Y12.09945
G01 X35.24677 Y12.07065
G01 X35.22315 Y12.04588
G01 X35.14617 Y11.98251
G01 X35.09082 Y11.96031
G01 X35.00098 Y11.94497
G01 X13.74898 Y11.94497
G01 X13.69825 Y11.95226
G01 X13.47633 Y12.02345
G01 X13.41761 Y12.05028
G01 X13.22724 Y12.17047
G01 X13.06300 Y12.31423
G01 X10.96310 Y14.41413
G01 X10.65086 Y14.71032
G01 X10.33862 Y15.03861
G01 X9.25226 Y16.12497
G01 X9.30499 Y16.17770
G01 X9.30499 Y16.07224
G01 X9.30499 Y16.17770
G01 X9.66499 Y16.53769
G01 X9.48500 Y16.35771
G01 X9.48500 Y15.89223
G01 X9.66499 Y15.71224
G01 X9.66499 Y16.53769
G01 X10.02498 Y16.89769
G01 X9.84500 Y16.71770
G01 X9.84500 Y15.53223
G01 X10.02498 Y15.35225
G01 X10.02498 Y16.89769
G01 X10.38498 Y17.25768
G01 X10.20499 Y17.07770
G01 X10.20499 Y15.17224
G01 X10.38498 Y14.98989
G01 X10.38498 Y17.25768
G01 X10.56499 Y17.43769
G01 X10.56499 Y14.80061
G01 X10.07769 Y15.04499
G01 X8.27500 Y15.04499
G01 X8.05272 Y15.02309
G01 X8.05272 Y14.84311
G01 X8.27500 Y14.86498
G01 X10.25536 Y14.86498
G01 X10.44220 Y14.66851
G01 X10.27499 Y14.68499
G01 X8.27500 Y14.68499
G01 X8.05272 Y14.66310
G01 X8.05272 Y15.56310
G01 X8.27500 Y15.58499
G01 X9.53768 Y15.58499
G01 X9.35767 Y15.76497
G01 X8.27500 Y15.76497
G01 X8.05272 Y15.74311
G01 X8.05272 Y15.92309
G01 X8.27500 Y15.94498
G01 X9.17769 Y15.94498
G01 X10.21055 Y14.91212
G01 X10.49722 Y14.61067
G01 X10.49722 Y13.06125
G01 X10.48129 Y12.12399
G01 X10.38033 Y12.15462
G01 X10.27499 Y12.16498
G01 X8.27500 Y12.16498
G01 X8.16964 Y12.15462
G01 X8.06834 Y12.12388
G01 X8.07538 Y11.92452
G01 X8.13723 Y11.95759
G01 X8.20477 Y11.97806
G01 X8.27500 Y11.98500
G01 X10.27499 Y11.98500
G01 X10.34522 Y11.97806
G01 X10.41276 Y11.95759
G01 X10.47659 Y11.92300
G01 X10.47179 Y11.84545
G01 X10.45150 Y11.66021
G01 X10.47179 Y11.84545
G01 X10.47774 Y11.94098
G01 X10.48492 Y12.31007
G01 X10.41546 Y12.33115
G01 X10.27499 Y12.34499
G01 X8.27500 Y12.34499
G01 X8.13451 Y12.33115
G01 X8.06179 Y12.30910
G01 X8.07817 Y11.84545
G01 X8.09946 Y11.66341
G01 X8.10868 Y11.69386
G01 X8.12532 Y11.72498
G01 X8.14772 Y11.75226
G01 X8.17497 Y11.77466
G01 X8.20611 Y11.79130
G01 X8.23987 Y11.80153
G01 X8.27500 Y11.80499
G01 X10.27499 Y11.80499
G01 X10.31010 Y11.80153
G01 X10.34388 Y11.79130
G01 X10.37499 Y11.77466
G01 X10.40227 Y11.75226
G01 X10.42465 Y11.72498
G01 X10.44129 Y11.69386
G01 X10.45150 Y11.66021
G01 X10.45498 Y11.62498
G01 X10.45498 Y9.62498
G01 X10.45152 Y9.58988
G01 X10.44129 Y9.55610
G01 X10.42465 Y9.52498
G01 X10.40227 Y9.49770
G01 X10.37499 Y9.47533
G01 X10.34388 Y9.45869
G01 X10.31010 Y9.44845
G01 X10.27499 Y9.44500
G01 X8.27500 Y9.44500
G01 X8.23987 Y9.44845
G01 X8.20611 Y9.45869
G01 X8.17497 Y9.47533
G01 X8.14772 Y9.49770
G01 X8.12532 Y9.52498
G01 X8.10868 Y9.55610
G01 X8.09844 Y9.58988
G01 X8.09499 Y9.62498
G01 X8.09499 Y11.62498
G01 X8.09946 Y11.66341
G01 X8.07817 Y11.84545
G01 X8.05597 Y12.49452
G01 X8.09941 Y12.50770
G01 X8.27500 Y12.52498
G01 X10.27499 Y12.52498
G01 X10.45056 Y12.50770
G01 X10.48858 Y12.49617
G01 X10.49221 Y12.68225
G01 X10.27499 Y12.70499
G01 X8.27500 Y12.70499
G01 X8.05287 Y12.68078
G01 X8.05661 Y12.45594
G01 X8.05272 Y13.04309
G01 X8.05272 Y12.86310
G01 X8.27500 Y12.88500
G01 X10.27499 Y12.88500
G01 X10.49536 Y12.86328
G01 X10.49704 Y13.04311
G01 X10.27499 Y13.06498
G01 X8.27500 Y13.06498
G01 X8.05272 Y13.04309
G01 X8.05272 Y13.76310
G01 X8.05272 Y13.22310
G01 X8.27500 Y13.24499
G01 X10.27499 Y13.24499
G01 X10.49722 Y13.22310
G01 X10.49722 Y13.58309
G01 X10.49722 Y13.40311
G01 X10.27499 Y13.42497
G01 X8.27500 Y13.42497
G01 X8.05272 Y13.40311
G01 X8.05272 Y13.58309
G01 X8.27500 Y13.60498
G01 X10.27499 Y13.60498
G01 X10.49722 Y13.58309
G01 X10.49722 Y13.76310
G01 X10.27499 Y13.78497
G01 X8.27500 Y13.78497
G01 X8.05272 Y13.76310
G01 X8.05272 Y14.12309
G01 X8.05272 Y13.94311
G01 X8.27500 Y13.96498
G01 X10.27499 Y13.96498
G01 X10.49722 Y13.94311
G01 X10.49722 Y14.12309
G01 X10.27499 Y14.14499
G01 X8.27500 Y14.14499
G01 X8.05272 Y14.12309
G01 X8.05272 Y14.48309
G01 X8.05272 Y14.30310
G01 X8.27500 Y14.32500
G01 X10.27499 Y14.32500
G01 X10.49722 Y14.30310
G01 X10.49722 Y14.48309
G01 X10.27499 Y14.50498
G01 X8.27500 Y14.50498
G01 X8.05272 Y14.48309
G01 X8.05272 Y16.03109
G01 X8.27576 Y16.03498
G01 X9.08770 Y16.03498
G01 X9.89768 Y15.22500
G01 X9.71769 Y15.40498
G01 X8.27500 Y15.40498
G01 X8.05272 Y15.38309
G01 X8.05272 Y15.20310
G01 X8.27500 Y15.22500
G01 X9.89768 Y15.22500
G01 X10.07769 Y15.04499
G01 X10.56499 Y14.80061
G01 X10.56499 Y17.43769
G01 X10.92498 Y17.79769
G01 X10.74499 Y17.61770
G01 X10.74499 Y14.62106
G01 X10.92498 Y14.45032
G01 X10.92498 Y17.79769
G01 X11.28497 Y18.15768
G01 X11.10499 Y17.97770
G01 X11.10499 Y14.27224
G01 X11.28497 Y14.09226
G01 X11.28497 Y18.15768
G01 X12.56252 Y19.43522
G01 X12.84027 Y19.67805
G01 X12.90570 Y19.72704
G01 X13.04969 Y19.82476
G01 X13.79576 Y20.27259
G01 X13.94702 Y20.37513
G01 X14.02558 Y20.43413
G01 X14.30821 Y20.68122
G01 X15.66223 Y22.03496
G01 X17.32100 Y22.03496
G01 X16.62918 Y22.03496
G01 X16.49825 Y21.96496
G01 X16.49959 Y21.95958
G01 X16.49825 Y21.96496
G01 X15.59225 Y21.96499
G01 X15.41224 Y21.78498
G01 X16.54148 Y21.78498
G01 X16.54285 Y21.77959
G01 X16.54148 Y21.78498
G01 X16.74839 Y21.89557
G01 X17.15359 Y22.01848
G01 X17.32100 Y22.03496
G01 X30.32702 Y22.03580
G01 X30.68562 Y22.13461
G01 X31.02601 Y22.25358
G01 X31.45265 Y22.39468
G01 X31.52593 Y22.42209
G01 X32.00083 Y22.62148
G01 X32.48204 Y22.86841
G01 X32.96255 Y23.16016
G01 X33.51452 Y23.55051
G01 X34.16148 Y24.07537
G01 X34.81050 Y24.68330
G01 X35.06407 Y24.93679
G01 X35.42496 Y25.28314
G01 X35.42496 Y25.17466
G01 X35.31977 Y25.18218
G01 X35.42496 Y25.17466
G01 X35.42496 Y24.81466
G01 X35.42496 Y24.99465
G01 X35.14523 Y25.01466
G01 X34.97225 Y24.84497
G01 X35.42496 Y24.81466
G01 X35.42496 Y22.65465
G01 X35.42496 Y22.83466
G01 X35.00098 Y22.86499
G01 X32.47533 Y22.86499
G01 X32.12499 Y22.68498
G01 X35.00098 Y22.68498
G01 X35.42496 Y22.65465
G01 X35.42496 Y22.28884
G01 X35.42496 Y22.47258
G01 X35.00098 Y22.50497
G01 X31.72334 Y22.50497
G01 X31.52253 Y22.42074
G01 X31.24198 Y22.32498
G01 X35.00098 Y22.32498
G01 X35.38513 Y22.29750
G01 X35.42496 Y22.28884
G01 X35.42496 Y21.92138
G01 X35.42496 Y22.10509
G01 X35.35953 Y22.11934
G01 X35.00098 Y22.14497
G01 X30.71529 Y22.14497
G01 X30.31511 Y22.03336
G01 X30.12078 Y22.03496
G01 X30.25174 Y21.96499
G01 X30.25039 Y21.95958
G01 X30.25174 Y21.96499
G01 X35.00098 Y21.96496
G01 X35.33392 Y21.94116
G01 X35.42496 Y21.92138
G01 X35.42496 Y20.81345
G01 X35.42496 Y21.00126
G01 X35.20586 Y21.05033
G01 X35.00098 Y21.06496
G01 X30.01440 Y21.06496
G01 X30.01277 Y21.05892
G01 X30.01440 Y21.06496
G01 X29.97500 Y21.09730
G01 X29.72606 Y21.23037
G01 X29.45590 Y21.31231
G01 X29.17498 Y21.34000
G01 X27.07499 Y21.34000
G01 X26.79406 Y21.31231
G01 X26.52393 Y21.23037
G01 X26.27496 Y21.09730
G01 X26.23554 Y21.06496
G01 X26.23719 Y21.05892
G01 X26.23554 Y21.06496
G01 X20.51439 Y21.06496
G01 X20.51279 Y21.05892
G01 X20.51439 Y21.06496
G01 X20.47500 Y21.09730
G01 X20.22605 Y21.23037
G01 X19.95592 Y21.31231
G01 X19.67500 Y21.34000
G01 X17.57498 Y21.34000
G01 X17.29405 Y21.31231
G01 X17.02393 Y21.23037
G01 X16.77495 Y21.09730
G01 X16.73559 Y21.06496
G01 X16.73719 Y21.05892
G01 X16.73559 Y21.06496
G01 X14.69226 Y21.06496
G01 X14.51225 Y20.88498
G01 X16.79860 Y20.88498
G01 X16.80239 Y20.87446
G01 X16.79860 Y20.88498
G01 X16.87498 Y20.94764
G01 X17.09281 Y21.06408
G01 X17.32918 Y21.13578
G01 X17.57498 Y21.15999
G01 X19.67500 Y21.15999
G01 X19.92080 Y21.13578
G01 X20.15717 Y21.06408
G01 X20.37500 Y20.94764
G01 X20.45135 Y20.88498
G01 X20.44759 Y20.87446
G01 X20.45135 Y20.88498
G01 X26.29861 Y20.88498
G01 X26.30237 Y20.87446
G01 X26.29861 Y20.88498
G01 X26.37496 Y20.94764
G01 X26.59279 Y21.06408
G01 X26.82916 Y21.13578
G01 X27.07499 Y21.15999
G01 X29.17498 Y21.15999
G01 X29.42080 Y21.13578
G01 X29.65717 Y21.06408
G01 X29.87500 Y20.94764
G01 X29.95136 Y20.88498
G01 X29.94760 Y20.87446
G01 X29.95136 Y20.88498
G01 X35.00098 Y20.88498
G01 X35.18025 Y20.87215
G01 X35.35587 Y20.83395
G01 X35.42496 Y20.81345
G01 X35.42496 Y20.42745
G01 X35.42496 Y20.62044
G01 X35.37223 Y20.64157
G01 X35.30517 Y20.66126
G01 X35.15462 Y20.69400
G01 X35.00098 Y20.70497
G01 X29.88831 Y20.70497
G01 X29.88456 Y20.69445
G01 X29.88831 Y20.70497
G01 X29.77501 Y20.79798
G01 X29.58829 Y20.89778
G01 X29.38567 Y20.95922
G01 X29.17498 Y20.97998
G01 X27.07499 Y20.97998
G01 X26.86427 Y20.95922
G01 X26.66170 Y20.89778
G01 X26.47494 Y20.79798
G01 X26.36165 Y20.70497
G01 X26.36539 Y20.69445
G01 X26.36165 Y20.70497
G01 X20.38833 Y20.70497
G01 X20.38455 Y20.69445
G01 X20.38833 Y20.70497
G01 X20.27500 Y20.79798
G01 X20.08828 Y20.89778
G01 X19.88569 Y20.95922
G01 X19.67500 Y20.97998
G01 X17.57498 Y20.97998
G01 X17.36429 Y20.95922
G01 X17.16170 Y20.89778
G01 X16.97498 Y20.79798
G01 X16.86165 Y20.70497
G01 X16.86540 Y20.69445
G01 X16.86165 Y20.70497
G01 X14.33224 Y20.70497
G01 X14.12949 Y20.52499
G01 X16.92923 Y20.52499
G01 X16.93325 Y20.51399
G01 X16.92923 Y20.52499
G01 X16.93858 Y20.53639
G01 X17.07498 Y20.64830
G01 X17.23058 Y20.73149
G01 X17.39941 Y20.78269
G01 X17.57498 Y20.79999
G01 X19.67500 Y20.79999
G01 X19.85056 Y20.78269
G01 X20.01940 Y20.73149
G01 X20.17500 Y20.64830
G01 X20.31137 Y20.53639
G01 X20.32074 Y20.52499
G01 X20.31673 Y20.51399
G01 X20.32074 Y20.52499
G01 X26.42922 Y20.52499
G01 X26.43325 Y20.51399
G01 X26.42922 Y20.52499
G01 X26.43859 Y20.53639
G01 X26.57496 Y20.64830
G01 X26.73056 Y20.73149
G01 X26.89937 Y20.78269
G01 X27.07499 Y20.79999
G01 X29.17498 Y20.79999
G01 X29.35057 Y20.78269
G01 X29.51940 Y20.73149
G01 X29.67501 Y20.64830
G01 X29.81138 Y20.53639
G01 X29.82075 Y20.52499
G01 X29.81671 Y20.51399
G01 X29.82075 Y20.52499
G01 X35.00098 Y20.52499
G01 X35.12902 Y20.51582
G01 X35.25447 Y20.48854
G01 X35.32153 Y20.46885
G01 X35.42496 Y20.42745
G01 X35.42496 Y20.00769
G01 X35.42496 Y20.22788
G01 X35.39796 Y20.24526
G01 X35.27083 Y20.29613
G01 X35.20377 Y20.31582
G01 X35.10342 Y20.33766
G01 X35.00098 Y20.34498
G01 X29.73673 Y20.34498
G01 X29.72855 Y20.32770
G01 X29.73673 Y20.34498
G01 X29.68410 Y20.40911
G01 X29.57501 Y20.49865
G01 X29.45052 Y20.56517
G01 X29.31544 Y20.60616
G01 X29.17498 Y20.61998
G01 X27.07499 Y20.61998
G01 X26.93452 Y20.60616
G01 X26.79942 Y20.56517
G01 X26.67499 Y20.49865
G01 X26.56584 Y20.40911
G01 X26.51324 Y20.34498
G01 X26.52142 Y20.32770
G01 X26.51324 Y20.34498
G01 X20.23672 Y20.34498
G01 X20.22857 Y20.32770
G01 X20.23672 Y20.34498
G01 X20.18409 Y20.40911
G01 X20.07500 Y20.49865
G01 X19.95051 Y20.56517
G01 X19.81546 Y20.60616
G01 X19.67500 Y20.61998
G01 X17.57498 Y20.61998
G01 X17.43452 Y20.60616
G01 X17.29946 Y20.56517
G01 X17.17498 Y20.49865
G01 X17.06586 Y20.40911
G01 X17.01323 Y20.34498
G01 X17.02141 Y20.32770
G01 X17.01323 Y20.34498
G01 X13.90260 Y20.34498
G01 X13.79576 Y20.27259
G01 X13.50003 Y20.09745
G01 X13.27318 Y19.95737
G01 X13.22012 Y19.90169
G01 X13.16468 Y19.81539
G01 X13.12655 Y19.72016
G01 X13.10686 Y19.65313
G01 X13.09048 Y19.57784
G01 X13.08500 Y19.50098
G01 X13.08500 Y12.29437
G01 X13.22724 Y12.17047
G01 X13.26498 Y12.24898
G01 X13.44496 Y12.24898
G01 X13.26498 Y12.24898
G01 X13.22724 Y12.17047
G01 X13.06300 Y12.31423
G01 X12.36498 Y13.01225
G01 X12.36498 Y19.23766
G01 X12.18500 Y19.05768
G01 X12.18497 Y13.19226
G01 X12.00499 Y13.37224
G01 X12.00499 Y18.87769
G01 X11.46498 Y18.33769
G01 X11.46498 Y13.91225
G01 X11.82498 Y13.55225
G01 X11.64499 Y13.73221
G01 X11.64499 Y18.51770
G01 X11.82498 Y18.69768
G01 X11.82498 Y13.55225
G01 X12.72498 Y12.65226
G01 X12.54499 Y12.83224
G01 X12.54499 Y19.41767
G01 X12.73079 Y19.58234
G01 X12.72498 Y19.50098
G01 X12.72498 Y12.65226
G01 X12.90499 Y12.47225
G01 X12.90499 Y19.50098
G01 X12.91233 Y19.60345
G01 X12.93417 Y19.70385
G01 X12.94971 Y19.75691
G01 X13.04969 Y19.82476
G01 X13.34268 Y19.99824
G01 X13.56638 Y20.13644
G01 X13.69127 Y20.16189
G01 X13.74895 Y20.16497
G01 X17.10726 Y20.16497
G01 X17.11709 Y20.14559
G01 X17.10726 Y20.16497
G01 X17.12598 Y20.19999
G01 X17.19314 Y20.28183
G01 X17.27498 Y20.34899
G01 X17.36835 Y20.39887
G01 X17.46964 Y20.42961
G01 X17.57498 Y20.44000
G01 X19.67500 Y20.44000
G01 X19.78033 Y20.42961
G01 X19.88163 Y20.39887
G01 X19.97500 Y20.34899
G01 X20.05681 Y20.28183
G01 X20.12397 Y20.19999
G01 X20.14269 Y20.16497
G01 X20.13289 Y20.14559
G01 X20.14269 Y20.16497
G01 X26.60727 Y20.16497
G01 X26.61710 Y20.14559
G01 X26.60727 Y20.16497
G01 X26.62596 Y20.19999
G01 X26.69315 Y20.28183
G01 X26.77499 Y20.34899
G01 X26.86833 Y20.39887
G01 X26.96963 Y20.42961
G01 X27.07499 Y20.44000
G01 X29.17498 Y20.44000
G01 X29.28034 Y20.42961
G01 X29.38164 Y20.39887
G01 X29.47501 Y20.34899
G01 X29.55682 Y20.28183
G01 X29.62398 Y20.19999
G01 X29.64270 Y20.16497
G01 X29.63289 Y20.14559
G01 X29.64270 Y20.16497
G01 X35.00098 Y20.16497
G01 X35.07779 Y20.15948
G01 X35.15307 Y20.14312
G01 X35.22013 Y20.12344
G01 X35.31546 Y20.08526
G01 X35.40187 Y20.02974
G01 X35.42496 Y20.00769
G01 X35.42496 Y5.47282
G01 X35.06359 Y5.81361
G01 X33.79224 Y7.08496
G01 X35.00098 Y7.08496
G01 X35.42496 Y7.10769
G01 X35.42496 Y6.92773
G01 X35.00098 Y6.90497
G01 X33.97225 Y6.90497
G01 X34.51226 Y6.36497
G01 X35.00098 Y6.36497
G01 X35.42496 Y6.38770
G01 X35.42496 Y6.20772
G01 X35.00098 Y6.18496
G01 X34.69227 Y6.18496
G01 X34.87225 Y6.00497
G01 X35.00098 Y6.00497
G01 X35.42496 Y6.02771
G01 X35.42496 Y5.48770
G01 X35.41002 Y5.48694
G01 X35.06359 Y5.81361
G01 X35.22943 Y5.65722
G01 X35.42496 Y5.66774
G01 X35.42496 Y5.84772
G01 X35.04965 Y5.82758
G01 X34.15226 Y6.72496
G01 X34.33225 Y6.54495
G01 X35.00098 Y6.54495
G01 X35.42496 Y6.56774
G01 X35.42496 Y6.74770
G01 X35.00098 Y6.72496
G01 X34.15226 Y6.72496
G01 X32.71201 Y8.16517
G01 X35.00098 Y8.16496
G01 X35.42496 Y8.18770
G01 X35.42496 Y8.00774
G01 X35.00098 Y7.98495
G01 X32.89227 Y7.98495
G01 X33.07226 Y7.80497
G01 X35.00098 Y7.80497
G01 X35.42496 Y7.82770
G01 X35.42496 Y7.64774
G01 X35.00098 Y7.62496
G01 X33.25227 Y7.62496
G01 X33.43225 Y7.44498
G01 X35.00098 Y7.44498
G01 X35.42496 Y7.46771
G01 X35.42496 Y7.28772
G01 X35.00098 Y7.26494
G01 X33.61226 Y7.26494
G01 X29.31262 Y11.56460
G01 X29.18435 Y11.68040
G01 X29.12319 Y11.72891
G01 X29.06609 Y11.76496
G01 X35.00098 Y11.76496
G01 X35.03951 Y11.76704
G01 X35.12915 Y11.78444
G01 X35.18635 Y11.80202
G01 X35.23987 Y11.82881
G01 X35.28820 Y11.86409
G01 X35.34101 Y11.90984
G01 X35.38825 Y11.95937
G01 X35.42496 Y12.01647
G01 X35.42496 Y11.74443
G01 X35.33354 Y11.67512
G01 X35.25328 Y11.63491
G01 X35.16748 Y11.60857
G01 X35.11596 Y11.59734
G01 X35.05879 Y11.58807
G01 X35.00098 Y11.58497
G01 X29.29025 Y11.58497
G01 X29.18819 Y11.67712
G01 X29.13162 Y11.72287
G01 X28.92322 Y11.85515
G01 X28.83117 Y11.89714
G01 X28.67191 Y11.94497
G01 X28.83117 Y11.89714
G01 X28.91303 Y11.86193
G01 X29.13193 Y11.72328
G01 X29.18819 Y11.67712
G01 X29.31262 Y11.56460
G01 X31.09225 Y9.78495
G01 X30.91226 Y9.96496
G01 X35.00098 Y9.96496
G01 X35.23227 Y9.97738
G01 X35.42496 Y10.00867
G01 X35.42496 Y10.19087
G01 X35.21302 Y10.15635
G01 X35.00098 Y10.14497
G01 X30.73225 Y10.14497
G01 X30.55227 Y10.32496
G01 X35.00098 Y10.32496
G01 X35.19374 Y10.33532
G01 X35.42496 Y10.37512
G01 X35.42496 Y10.56178
G01 X35.34594 Y10.54213
G01 X35.17446 Y10.51429
G01 X35.00098 Y10.50497
G01 X30.37226 Y10.50497
G01 X29.31262 Y11.56460
G01 X29.47226 Y11.40496
G01 X35.00098 Y11.40496
G01 X35.07807 Y11.40910
G01 X35.20580 Y11.43270
G01 X35.32023 Y11.46783
G01 X35.42496 Y11.52028
G01 X35.42496 Y11.74443
G01 X35.42496 Y11.12470
G01 X35.42496 Y11.31964
G01 X35.38716 Y11.30072
G01 X35.24413 Y11.25683
G01 X35.09735 Y11.23013
G01 X35.00098 Y11.22495
G01 X29.65225 Y11.22495
G01 X29.83226 Y11.04497
G01 X35.00098 Y11.04497
G01 X35.11663 Y11.05117
G01 X35.23095 Y11.06973
G01 X35.28246 Y11.08096
G01 X35.42496 Y11.12470
G01 X35.42496 Y10.74941
G01 X35.42496 Y10.93704
G01 X35.32079 Y10.90509
G01 X35.26928 Y10.89386
G01 X35.13590 Y10.87220
G01 X35.00098 Y10.86496
G01 X30.01227 Y10.86496
G01 X30.19225 Y10.68497
G01 X35.00098 Y10.68497
G01 X35.15518 Y10.69326
G01 X35.30761 Y10.71799
G01 X35.42496 Y10.74941
G01 X35.42496 Y8.36979
G01 X35.00098 Y8.34497
G01 X32.53225 Y8.34497
G01 X32.35227 Y8.52496
G01 X35.00098 Y8.52496
G01 X35.38650 Y8.54566
G01 X35.42496 Y8.55188
G01 X35.42496 Y8.73398
G01 X35.36722 Y8.72463
G01 X35.00098 Y8.70497
G01 X32.17226 Y8.70497
G01 X31.99227 Y8.88495
G01 X35.00098 Y8.88495
G01 X35.34794 Y8.90360
G01 X35.42496 Y8.91609
G01 X35.42496 Y9.09816
G01 X35.32866 Y9.08257
G01 X35.00098 Y9.06496
G01 X31.81226 Y9.06496
G01 X31.45227 Y9.42496
G01 X31.63225 Y9.24497
G01 X35.00098 Y9.24497
G01 X35.30939 Y9.26153
G01 X35.42496 Y9.28025
G01 X35.42496 Y9.46237
G01 X35.29011 Y9.44050
G01 X35.00098 Y9.42496
G01 X31.45227 Y9.42496
G01 X31.27226 Y9.60497
G01 X35.00098 Y9.60497
G01 X35.27083 Y9.61944
G01 X35.42496 Y9.64449
G01 X35.42496 Y9.82658
G01 X35.25155 Y9.79841
G01 X35.00098 Y9.78498
G01 X31.09225 Y9.78495
G01 X32.71201 Y8.16517
G01 X30.24498 Y10.37769
G01 X30.24498 Y1.24898
G01 X30.22850 Y1.01837
G01 X30.18641 Y0.82500
G01 X30.37015 Y0.82500
G01 X30.40665 Y0.99277
G01 X30.42499 Y1.24898
G01 X30.42499 Y10.19768
G01 X30.60498 Y10.01769
G01 X30.60498 Y1.24898
G01 X30.58483 Y0.96714
G01 X30.55390 Y0.82497
G01 X31.65466 Y0.82497
G01 X31.68498 Y1.24898
G01 X31.68498 Y8.93768
G01 X32.40497 Y8.21769
G01 X32.40497 Y1.24898
G01 X32.37464 Y0.82497
G01 X29.00770 Y0.82500
G01 X29.02974 Y0.84809
G01 X29.08524 Y0.93445
G01 X29.12342 Y1.02975
G01 X29.14310 Y1.09680
G01 X29.15949 Y1.17209
G01 X29.16497 Y1.24898
G01 X29.16497 Y11.45553
G01 X29.02273 Y11.57946
G01 X28.96894 Y11.61342
G01 X28.98293 Y11.53943
G01 X28.98499 Y11.50098
G01 X28.98499 Y1.24898
G01 X28.98131 Y1.19772
G01 X28.97038 Y1.14753
G01 X28.95070 Y1.08050
G01 X28.92527 Y1.01695
G01 X28.88827 Y0.95937
G01 X28.84102 Y0.90984
G01 X28.78822 Y0.86409
G01 X28.73226 Y0.82497
G01 X29.22789 Y0.82500
G01 X29.24524 Y0.85197
G01 X29.29611 Y0.97905
G01 X29.31580 Y1.04608
G01 X29.33764 Y1.14649
G01 X29.34498 Y1.24898
G01 X29.34498 Y11.27768
G01 X29.18697 Y11.43570
G01 X29.02273 Y11.57946
G01 X28.83226 Y11.69970
G01 X28.77351 Y11.72653
G01 X28.65580 Y11.76186
G01 X28.67927 Y11.74677
G01 X28.70404 Y11.72317
G01 X28.76746 Y11.64616
G01 X28.78966 Y11.59071
G01 X28.80498 Y11.50098
G01 X28.80498 Y1.24898
G01 X28.79769 Y1.19825
G01 X28.77800 Y1.13122
G01 X28.76528 Y1.09945
G01 X28.74679 Y1.07064
G01 X28.67036 Y1.00013
G01 X28.61938 Y0.96907
G01 X28.53922 Y0.94910
G01 X28.50099 Y0.94499
G01 X1.24898 Y0.94499
G01 X1.19825 Y0.95228
G01 X1.13122 Y0.97196
G01 X1.09945 Y0.98469
G01 X1.07067 Y1.00318
G01 X1.04590 Y1.02675
G01 X0.98250 Y1.10376
G01 X0.96031 Y1.15921
G01 X0.94601 Y1.22972
G01 X0.94499 Y11.50098
G01 X0.95228 Y11.55167
G01 X0.97196 Y11.61873
G01 X0.98466 Y11.65048
G01 X1.00318 Y11.67928
G01 X1.02675 Y11.70405
G01 X1.10376 Y11.76745
G01 X1.15921 Y11.78965
G01 X1.24898 Y11.80496
G01 X7.65049 Y11.80496
G01 X7.70119 Y11.79767
G01 X7.79999 Y11.76526
G01 X7.82877 Y11.74677
G01 X7.85354 Y11.72317
G01 X7.89931 Y11.67037
G01 X7.93037 Y11.61936
G01 X7.95346 Y11.52020
G01 X7.95447 Y9.58676
G01 X7.95745 Y9.55920
G01 X7.99077 Y9.46981
G01 X8.04602 Y9.39603
G01 X8.11980 Y9.34078
G01 X8.20924 Y9.30743
G01 X8.23677 Y9.30446
G01 X10.31320 Y9.30448
G01 X10.34075 Y9.30746
G01 X10.43014 Y9.34078
G01 X10.50392 Y9.39603
G01 X10.55917 Y9.46981
G01 X10.59252 Y9.55922
G01 X10.59547 Y9.58673
G01 X10.59547 Y11.50100
G01 X10.60275 Y11.55170
G01 X10.63517 Y11.65050
G01 X10.65366 Y11.67931
G01 X10.67728 Y11.70407
G01 X10.73009 Y11.74982
G01 X10.78106 Y11.78088
G01 X10.86123 Y11.80085
G01 X10.89948 Y11.80496
G01 X13.57803 Y11.80496
G01 X13.41868 Y11.85282
G01 X13.33729 Y11.88906
G01 X13.18383 Y11.98497
G01 X10.89948 Y11.98497
G01 X10.86100 Y11.98291
G01 X10.77146 Y11.96554
G01 X10.71418 Y11.94799
G01 X10.65668 Y11.91830
G01 X10.66862 Y12.49579
G01 X10.80329 Y12.51982
G01 X10.89948 Y12.52498
G01 X12.59770 Y12.52498
G01 X12.41771 Y12.70496
G01 X10.89948 Y12.70496
G01 X10.78406 Y12.69879
G01 X10.67222 Y12.68068
G01 X10.65752 Y11.93171
G01 X10.65094 Y11.82797
G01 X10.63014 Y11.63796
G01 X10.65094 Y11.82797
G01 X10.65767 Y11.93554
G01 X10.67499 Y12.82124
G01 X10.67723 Y14.43724
G01 X10.80113 Y14.31969
G01 X10.67723 Y14.31306
G01 X10.80113 Y14.31969
G01 X11.87771 Y13.24496
G01 X10.97771 Y14.14496
G01 X10.89948 Y14.14496
G01 X10.67723 Y14.13305
G01 X10.67723 Y13.95307
G01 X10.89948 Y13.96495
G01 X11.15772 Y13.96495
G01 X11.33770 Y13.78497
G01 X10.89948 Y13.78497
G01 X10.67723 Y13.77306
G01 X10.67723 Y13.59188
G01 X10.89948 Y13.60496
G01 X11.51771 Y13.60496
G01 X11.69770 Y13.42497
G01 X10.89948 Y13.42497
G01 X10.70712 Y13.41466
G01 X10.67723 Y13.40981
G01 X10.67723 Y13.22772
G01 X10.72635 Y13.23569
G01 X10.89948 Y13.24496
G01 X11.87771 Y13.24496
G01 X12.23770 Y12.88497
G01 X12.05772 Y13.06495
G01 X10.89948 Y13.06495
G01 X10.74558 Y13.05673
G01 X10.67710 Y13.04563
G01 X10.67537 Y12.86325
G01 X10.76483 Y12.87776
G01 X10.89948 Y12.88497
G01 X12.23770 Y12.88497
G01 X12.95972 Y12.16496
G01 X12.77771 Y12.34497
G01 X10.89948 Y12.34497
G01 X10.82252 Y12.34085
G01 X10.74647 Y12.32853
G01 X10.66496 Y12.30814
G01 X10.66125 Y12.11939
G01 X10.73321 Y12.14144
G01 X10.78472 Y12.15264
G01 X10.84177 Y12.16188
G01 X10.89948 Y12.16496
G01 X12.95972 Y12.16496
G01 X13.11804 Y12.02665
G01 X13.32665 Y11.89483
G01 X13.40671 Y11.85612
G01 X13.57803 Y11.80496
G01 X28.50099 Y11.80496
G01 X28.55169 Y11.79767
G01 X28.61872 Y11.77799
G01 X28.65580 Y11.76186
G01 X28.77351 Y11.72653
G01 X28.83226 Y11.69970
G01 X29.02273 Y11.57946
G01 X29.06949 Y11.54177
G01 X29.18697 Y11.43570
G01 X29.70498 Y10.91769
G01 X29.52499 Y11.09767
G01 X29.52499 Y1.24898
G01 X29.51582 Y1.12086
G01 X29.48852 Y0.99536
G01 X29.46883 Y0.92833
G01 X29.42746 Y0.82500
G01 X29.62047 Y0.82500
G01 X29.64153 Y0.87763
G01 X29.66121 Y0.94466
G01 X29.69398 Y1.09523
G01 X29.70498 Y1.24898
G01 X29.70498 Y10.91769
G01 X30.06497 Y10.55770
G01 X29.88499 Y10.73768
G01 X29.88499 Y1.24898
G01 X29.87216 Y1.06963
G01 X29.83393 Y0.89394
G01 X29.81349 Y0.82500
G01 X30.00129 Y0.82500
G01 X30.05032 Y1.04400
G01 X30.06497 Y1.24898
G01 X30.06497 Y10.55770
G01 X32.04498 Y8.57769
G01 X31.86499 Y8.75767
G01 X31.86499 Y1.24898
G01 X31.83467 Y0.82500
G01 X32.01465 Y0.82500
G01 X32.04498 Y1.24898
G01 X32.04498 Y8.57769
G01 X33.30497 Y7.31767
G01 X33.12499 Y7.49768
G01 X33.12499 Y1.24898
G01 X33.09466 Y0.82500
G01 X33.27464 Y0.82500
G01 X33.30497 Y1.24898
G01 X33.30497 Y7.31767
G01 X34.93733 Y5.68534
G01 X35.42496 Y5.22540
G01 X35.42498 Y0.82500
G01 X35.07466 Y0.82500
G01 X35.25465 Y0.82500
G01 X35.28498 Y1.24898
G01 X35.28498 Y5.35740
G01 X35.10499 Y5.52715
G01 X35.10499 Y1.24898
G01 X35.07466 Y0.82500
G01 X34.53466 Y0.82497
G01 X34.71464 Y0.82500
G01 X34.74497 Y1.24898
G01 X34.74497 Y5.87769
G01 X34.56499 Y6.05768
G01 X34.56499 Y1.24898
G01 X34.53466 Y0.82497
G01 X34.35465 Y0.82497
G01 X34.38498 Y1.24898
G01 X34.38498 Y6.23769
G01 X34.20499 Y6.41767
G01 X34.20499 Y1.24898
G01 X34.17467 Y0.82500
G01 X33.99466 Y0.82500
G01 X34.35465 Y0.82497
G01 X32.73466 Y0.82497
G01 X32.91465 Y0.82500
G01 X32.94498 Y1.24898
G01 X32.94498 Y7.67769
G01 X32.76499 Y7.85768
G01 X32.76499 Y1.24898
G01 X32.73466 Y0.82497
G01 X0.82500 Y0.82500
G01 X0.82497 Y1.47709
G01 X0.82500 Y1.01768
G01 X0.86414 Y0.96168
G01 X0.90989 Y0.90890
G01 X0.95942 Y0.86168
G01 X1.01652 Y0.82500
G01 X1.85190 Y0.82497
G01 X0.82500 Y0.82500
G01 X0.82500 Y1.01768
G01 X0.86414 Y0.96168
G01 X0.90989 Y0.90890
G01 X0.95942 Y0.86168
G01 X1.01652 Y0.82500
G01 X0.95942 Y0.86168
G01 X0.90989 Y0.90890
G01 X0.86414 Y0.96168
G01 X0.82500 Y1.01768
G01 X0.94499 Y1.24898
G01 X0.82500 Y1.01768
G01 X0.82500 Y15.01590
G01 X0.88352 Y15.02538
G01 X1.24898 Y15.04496
G01 X7.65049 Y15.04496
G01 X7.87274 Y15.02906
G01 X7.87274 Y14.84908
G01 X7.65049 Y14.86498
G01 X1.24898 Y14.86498
G01 X0.90275 Y14.84641
G01 X0.82500 Y14.83381
G01 X0.82497 Y14.65174
G01 X0.92198 Y14.66744
G01 X1.24898 Y14.68497
G01 X7.65049 Y14.68497
G01 X7.87274 Y14.66907
G01 X7.87274 Y13.76907
G01 X7.65049 Y13.78497
G01 X1.24898 Y13.78497
G01 X1.01814 Y13.77260
G01 X0.82500 Y13.74131
G01 X0.82497 Y13.55904
G01 X1.03739 Y13.59363
G01 X1.24898 Y13.60496
G01 X7.65049 Y13.60496
G01 X7.87274 Y13.58903
G01 X7.87274 Y13.40907
G01 X7.65049 Y13.42497
G01 X1.24898 Y13.42497
G01 X1.05662 Y13.41466
G01 X0.82500 Y13.37483
G01 X0.82500 Y13.18812
G01 X0.90473 Y13.20798
G01 X1.07585 Y13.23569
G01 X1.24898 Y13.24496
G01 X7.65049 Y13.24496
G01 X7.87274 Y13.22906
G01 X7.87274 Y13.04654
G01 X7.65049 Y13.06495
G01 X1.24898 Y13.06495
G01 X1.09508 Y13.05673
G01 X0.94298 Y13.03209
G01 X0.82500 Y13.00049
G01 X0.82500 Y12.00555
G01 X0.91639 Y12.07484
G01 X0.99675 Y12.11510
G01 X1.08271 Y12.14144
G01 X1.13422 Y12.15264
G01 X1.19127 Y12.16188
G01 X1.24898 Y12.16496
G01 X7.65049 Y12.16496
G01 X7.72735 Y12.15947
G01 X7.80263 Y12.14309
G01 X7.88851 Y12.11586
G01 X7.89552 Y11.91685
G01 X7.81894 Y11.95068
G01 X7.75191 Y11.97037
G01 X7.70172 Y11.98129
G01 X7.65049 Y11.98497
G01 X1.24898 Y11.98497
G01 X1.21050 Y11.98291
G01 X1.12096 Y11.96554
G01 X1.06366 Y11.94799
G01 X1.01006 Y11.92114
G01 X0.96168 Y11.88581
G01 X0.90890 Y11.84007
G01 X0.86168 Y11.79054
G01 X0.82497 Y11.73344
G01 X0.82497 Y16.03498
G01 X7.64950 Y16.03498
G01 X7.87274 Y16.03109
G01 X7.87274 Y15.74907
G01 X7.87274 Y15.92906
G01 X7.65049 Y15.94496
G01 X1.24898 Y15.94496
G01 X0.82497 Y15.92225
G01 X0.82497 Y15.74224
G01 X1.24898 Y15.76497
G01 X7.65049 Y15.76497
G01 X7.87274 Y15.74907
G01 X7.87274 Y12.68675
G01 X7.87665 Y12.45210
G01 X7.89837 Y11.83681
G01 X7.90662 Y11.74134
G01 X7.92133 Y11.63747
G01 X7.90662 Y11.74134
G01 X7.89837 Y11.83681
G01 X7.87594 Y12.49462
G01 X7.88173 Y12.30745
G01 X7.75295 Y12.33763
G01 X7.65049 Y12.34497
G01 X1.24898 Y12.34497
G01 X1.17201 Y12.34085
G01 X1.04446 Y12.31733
G01 X0.92988 Y12.28220
G01 X0.82500 Y12.22970
G01 X0.82500 Y12.43028
G01 X0.86297 Y12.44931
G01 X1.00620 Y12.49320
G01 X1.15279 Y12.51982
G01 X1.24898 Y12.52498
G01 X7.65049 Y12.52498
G01 X7.77858 Y12.51581
G01 X7.87594 Y12.49462
G01 X7.87274 Y12.86280
G01 X7.87286 Y12.67903
G01 X7.80421 Y12.69396
G01 X7.65049 Y12.70496
G01 X1.24898 Y12.70496
G01 X1.13356 Y12.69879
G01 X1.01949 Y12.68030
G01 X0.96798 Y12.66910
G01 X0.82500 Y12.62528
G01 X0.82500 Y12.81289
G01 X0.92972 Y12.84499
G01 X0.98123 Y12.85619
G01 X1.11433 Y12.87776
G01 X1.24898 Y12.88497
G01 X7.65049 Y12.88497
G01 X7.82981 Y12.87214
G01 X7.87274 Y12.86280
G01 X7.87274 Y14.12906
G01 X7.87274 Y13.94908
G01 X7.65049 Y13.96495
G01 X1.24898 Y13.96495
G01 X0.99891 Y13.95157
G01 X0.82500 Y13.92340
G01 X0.82500 Y14.10547
G01 X0.97969 Y14.13054
G01 X1.24898 Y14.14496
G01 X7.65049 Y14.14496
G01 X7.87274 Y14.12906
G01 X7.87274 Y14.48906
G01 X7.87274 Y14.30907
G01 X7.65049 Y14.32497
G01 X1.24898 Y14.32497
G01 X0.96046 Y14.30950
G01 X0.82500 Y14.28756
G01 X0.82500 Y14.46965
G01 X0.94120 Y14.48847
G01 X1.24898 Y14.50496
G01 X7.65049 Y14.50496
G01 X7.87274 Y14.48906
G01 X7.87274 Y15.56906
G01 X7.65049 Y15.58496
G01 X1.24898 Y15.58496
G01 X0.82581 Y15.56228
G01 X0.82497 Y15.38006
G01 X1.24898 Y15.40496
G01 X7.65049 Y15.40496
G01 X7.87274 Y15.38905
G01 X7.87274 Y15.20907
G01 X7.65049 Y15.22497
G01 X1.24898 Y15.22497
G01 X0.86427 Y15.20435
G01 X0.82500 Y15.19800
G01 X0.82500 Y15.01590
G04 P0 ( dwell for no time -- G64 should not smooth over this point )
G00 Z2.00000 ( retract )

G00 X0.94499 Y20.74899 ( rapid move to begin. )
G01 F75.00000
( Mill infeed pass 1/1 )
G01 Z-0.15000
G04 P0 ( dwell for no time -- G64 should not smooth over this point )
G01 F150.00000
G01 X0.94499 Y20.74899
G01 X0.82497 Y20.51767
G01 X0.82497 Y18.72001
G01 X0.82500 Y20.02207
G01 X0.82500 Y19.82250
G01 X0.92833 Y19.78112
G01 X0.99536 Y19.76144
G01 X1.12086 Y19.73413
G01 X1.24898 Y19.72496
G01 X12.62045 Y19.72499
G01 X12.41771 Y19.54498
G01 X1.24898 Y19.54498
G01 X1.09523 Y19.55598
G01 X0.94466 Y19.58874
G01 X0.87763 Y19.60843
G01 X0.82500 Y19.62948
G01 X0.82500 Y19.43647
G01 X0.89394 Y19.41602
G01 X1.06963 Y19.37779
G01 X1.24898 Y19.36497
G01 X12.23768 Y19.36497
G01 X12.05769 Y19.18498
G01 X1.24898 Y19.18498
G01 X1.04400 Y19.19964
G01 X0.82500 Y19.24866
G01 X0.82500 Y19.06355
G01 X1.01837 Y19.02146
G01 X1.24898 Y19.00497
G01 X11.87768 Y19.00497
G01 X11.33770 Y18.46497
G01 X1.24898 Y18.46497
G01 X0.94151 Y18.48697
G01 X0.82500 Y18.51231
G01 X0.82497 Y17.97792
G01 X0.82500 Y18.14483
G01 X0.89028 Y18.13063
G01 X1.24898 Y18.10498
G01 X10.97768 Y18.10498
G01 X11.15769 Y18.28496
G01 X1.24898 Y18.28498
G01 X0.91591 Y18.30878
G01 X0.82500 Y18.32857
G01 X0.82497 Y18.69603
G01 X0.96714 Y18.66512
G01 X1.24898 Y18.64498
G01 X11.51769 Y18.64498
G01 X11.69767 Y18.82496
G01 X1.24898 Y18.82496
G01 X0.99277 Y18.84330
G01 X0.82500 Y18.87980
G01 X0.82497 Y17.96106
G01 X0.86465 Y17.95247
G01 X1.24898 Y17.92497
G01 X10.79767 Y17.92497
G01 X10.61772 Y17.74498
G01 X1.24898 Y17.74498
G01 X0.82500 Y17.77734
G01 X0.82497 Y17.60848
G01 X0.82497 Y17.96106
G01 X0.82497 Y17.59527
G01 X1.24898 Y17.56497
G01 X10.43771 Y17.56497
G01 X10.25770 Y17.38496
G01 X1.24898 Y17.38496
G01 X0.82500 Y17.41529
G01 X0.82500 Y17.23530
G01 X1.24898 Y17.20498
G01 X10.07771 Y17.20498
G01 X10.25770 Y17.38496
G01 X9.89770 Y17.02497
G01 X1.24898 Y17.02497
G01 X0.82500 Y17.05529
G01 X0.82497 Y16.87528
G01 X1.24898 Y16.84498
G01 X9.71772 Y16.84498
G01 X9.89770 Y17.02497
G01 X9.53771 Y16.66497
G01 X1.24898 Y16.66497
G01 X0.82497 Y16.69528
G01 X0.82497 Y17.59527
G01 X0.82497 Y16.51527
G01 X1.24898 Y16.48496
G01 X9.35770 Y16.48496
G01 X9.17771 Y16.30498
G01 X1.24898 Y16.30498
G01 X0.82500 Y16.33531
G01 X0.82497 Y16.21496
G01 X0.82497 Y16.51527
G01 X0.82497 Y16.21496
G01 X7.65204 Y16.21496
G01 X7.96273 Y16.20958
G01 X8.27342 Y16.21496
G01 X9.08770 Y16.21496
G01 X12.44174 Y19.56873
G01 X12.72437 Y19.81582
G01 X12.80293 Y19.87482
G01 X12.95419 Y19.97736
G01 X13.70023 Y20.42516
G01 X13.84425 Y20.52293
G01 X13.90968 Y20.57190
G01 X14.01913 Y20.66758
G01 X14.02497 Y20.74899
G01 X14.02497 Y23.59765
G01 X14.20496 Y23.41766
G01 X14.20496 Y20.83225
G01 X14.01913 Y20.66758
G01 X14.18746 Y20.81475
G01 X14.38497 Y21.01226
G01 X14.38497 Y23.23765
G01 X14.56495 Y23.05767
G01 X14.56495 Y21.19224
G01 X14.38497 Y21.01226
G01 X14.92497 Y21.55226
G01 X14.92497 Y22.69765
G01 X15.10496 Y22.51767
G01 X15.10496 Y21.73225
G01 X14.92497 Y21.55226
G01 X15.28497 Y21.91226
G01 X15.28497 Y22.33766
G01 X15.28497 Y21.91226
G01 X15.46495 Y22.09224
G01 X15.46495 Y22.15767
G01 X15.46495 Y22.09224
G01 X15.49767 Y22.12496
G01 X13.68108 Y23.94162
G01 X13.54402 Y24.09861
G01 X13.48096 Y24.18370
G01 X13.35680 Y24.40506
G01 X13.32861 Y24.48579
G01 X13.30496 Y24.58424
G01 X13.30496 Y35.00098
G01 X13.28964 Y35.09072
G01 X13.26747 Y35.14614
G01 X13.20407 Y35.22315
G01 X13.17931 Y35.24677
G01 X13.15050 Y35.26527
G01 X13.11873 Y35.27799
G01 X13.05170 Y35.29768
G01 X13.00100 Y35.30497
G01 X1.22972 Y35.30395
G01 X1.15921 Y35.28965
G01 X1.10376 Y35.26745
G01 X1.02675 Y35.20405
G01 X1.00318 Y35.17929
G01 X0.98466 Y35.15048
G01 X0.97196 Y35.11873
G01 X0.95228 Y35.05168
G01 X0.94499 Y35.00098
G01 X0.94499 Y20.74899
G01 X0.94910 Y20.71074
G01 X0.96907 Y20.63057
G01 X1.00013 Y20.57960
G01 X1.04588 Y20.52679
G01 X1.07064 Y20.50317
G01 X1.09945 Y20.48468
G01 X1.19825 Y20.45227
G01 X1.24898 Y20.44498
G01 X13.00100 Y20.44498
G01 X13.03922 Y20.44909
G01 X13.11941 Y20.46908
G01 X13.17042 Y20.50020
G01 X13.24679 Y20.57071
G01 X13.26528 Y20.59948
G01 X13.27798 Y20.63123
G01 X13.29767 Y20.69826
G01 X13.30496 Y20.74899
G01 X13.30496 Y24.58424
G01 X13.32861 Y24.48579
G01 X13.35784 Y24.40550
G01 X13.48743 Y24.17380
G01 X13.54402 Y24.09861
G01 X13.68108 Y23.94162
G01 X13.84496 Y23.77766
G01 X13.84496 Y20.74899
G01 X13.83762 Y20.64650
G01 X13.80021 Y20.49303
G01 X13.70023 Y20.42516
G01 X12.95419 Y19.97736
G01 X12.84733 Y19.90497
G01 X1.24898 Y19.90497
G01 X1.14649 Y19.91231
G01 X1.04608 Y19.93416
G01 X0.97905 Y19.95384
G01 X0.85197 Y20.00472
G01 X0.82500 Y20.02207
G01 X0.82497 Y20.45686
G01 X0.82500 Y20.24226
G01 X0.84809 Y20.22021
G01 X0.93445 Y20.16471
G01 X1.02975 Y20.12654
G01 X1.09680 Y20.10685
G01 X1.17209 Y20.09047
G01 X1.24898 Y20.08498
G01 X13.00100 Y20.08498
G01 X13.05868 Y20.08805
G01 X13.18357 Y20.11351
G01 X13.47679 Y20.29258
G01 X13.52980 Y20.34825
G01 X13.58527 Y20.43456
G01 X13.62340 Y20.52979
G01 X13.64306 Y20.59682
G01 X13.65944 Y20.67210
G01 X13.66493 Y20.74899
G01 X13.66498 Y23.96031
G01 X13.54402 Y24.09861
G01 X13.48497 Y24.17756
G01 X13.48497 Y20.74899
G01 X13.48126 Y20.69773
G01 X13.45065 Y20.58051
G01 X13.42525 Y20.51701
G01 X13.38830 Y20.45948
G01 X13.34113 Y20.40997
G01 X13.28835 Y20.36420
G01 X13.23994 Y20.32882
G01 X13.18632 Y20.30197
G01 X13.12899 Y20.28440
G01 X13.03945 Y20.26702
G01 X13.00100 Y20.26497
G01 X1.24898 Y20.26497
G01 X1.19772 Y20.26865
G01 X1.08050 Y20.29926
G01 X1.01695 Y20.32468
G01 X0.95937 Y20.36169
G01 X0.90984 Y20.40893
G01 X0.86409 Y20.46174
G01 X0.82497 Y20.51767
G01 X0.82497 Y35.23344
G01 X0.86168 Y35.29054
G01 X0.90890 Y35.34007
G01 X0.96168 Y35.38581
G01 X1.01766 Y35.42496
G01 X0.96168 Y35.38581
G01 X0.90890 Y35.34007
G01 X0.86168 Y35.29054
G01 X0.82497 Y35.23344
G01 X0.82500 Y35.42498
G01 X13.23343 Y35.42498
G01 X13.28550 Y35.39150
G01 X13.23343 Y35.42498
G01 X13.28629 Y35.42496
G01 X13.28289 Y35.27870
G01 X13.28624 Y35.10184
G04 P0 ( dwell for no time -- G64 should not smooth over this point )
G00 Z2.00000 ( retract )

G00 X13.46625 Y35.09933 ( rapid move to begin. )
G01 F75.00000
( Mill infeed pass 1/1 )
G01 Z-0.15000
G04 P0 ( dwell for no time -- G64 should not smooth over this point )
G01 F150.00000
G01 X13.46625 Y35.09933
G01 X13.44682 Y35.02658
G01 X13.44496 Y35.00098
G01 X13.44496 Y24.74898
G01 X13.46028 Y24.65922
G01 X13.48248 Y24.60379
G01 X13.54588 Y24.52678
G01 X13.57064 Y24.50316
G01 X13.59942 Y24.48467
G01 X13.63120 Y24.47194
G01 X13.69825 Y24.45226
G01 X13.74898 Y24.44497
G01 X17.39499 Y24.44497
G01 X17.39845 Y24.31487
G01 X17.40868 Y24.28111
G01 X17.42532 Y24.25000
G01 X17.44770 Y24.22272
G01 X17.47498 Y24.20031
G01 X17.50609 Y24.18368
G01 X17.53988 Y24.17344
G01 X17.57498 Y24.16999
G01 X19.67500 Y24.16999
G01 X19.71010 Y24.17344
G01 X19.74386 Y24.18368
G01 X19.77500 Y24.20031
G01 X19.80225 Y24.22272
G01 X19.82466 Y24.25000
G01 X19.84129 Y24.28111
G01 X19.85153 Y24.31487
G01 X19.85498 Y24.35000
G01 X19.85498 Y24.44497
G01 X26.89498 Y24.44497
G01 X26.89498 Y24.35000
G01 X26.89846 Y24.31487
G01 X26.90869 Y24.28111
G01 X26.92533 Y24.25000
G01 X26.94771 Y24.22272
G01 X26.97499 Y24.20031
G01 X27.00610 Y24.18368
G01 X27.03988 Y24.17344
G01 X27.07499 Y24.16999
G01 X29.17498 Y24.16999
G01 X29.21011 Y24.17344
G01 X29.24387 Y24.18368
G01 X29.27498 Y24.20031
G01 X29.30226 Y24.22272
G01 X29.32466 Y24.25000
G01 X29.34127 Y24.28111
G01 X29.35154 Y24.31487
G01 X29.35499 Y24.44497
G01 X29.52024 Y24.44601
G01 X29.59083 Y24.46031
G01 X29.64618 Y24.48251
G01 X29.72316 Y24.54588
G01 X29.74679 Y24.57065
G01 X29.76528 Y24.59945
G01 X29.79769 Y24.69826
G01 X29.80498 Y24.74898
G01 X29.80498 Y35.00098
G01 X29.78966 Y35.09072
G01 X29.76746 Y35.14617
G01 X29.70404 Y35.22318
G01 X29.67927 Y35.24677
G01 X29.65049 Y35.26527
G01 X29.61872 Y35.27799
G01 X29.55169 Y35.29768
G01 X29.50099 Y35.30497
G01 X13.74898 Y35.30497
G01 X13.65921 Y35.28965
G01 X13.60374 Y35.26745
G01 X13.52675 Y35.20405
G01 X13.50318 Y35.17929
G01 X13.48466 Y35.15048
G01 X13.46625 Y35.09933
G01 X13.46290 Y35.27736
G01 X13.46546 Y35.38858
G01 X13.51763 Y35.42496
G01 X13.46546 Y35.38858
G01 X13.46635 Y35.42496
G01 X30.81290 Y35.42496
G01 X30.84501 Y35.32021
G01 X30.85621 Y35.26870
G01 X30.87777 Y35.13560
G01 X30.88499 Y35.00098
G01 X30.88499 Y24.74898
G01 X30.87216 Y24.56963
G01 X30.83393 Y24.39394
G01 X30.81425 Y24.32691
G01 X30.72519 Y24.10448
G01 X30.59565 Y23.90296
G01 X30.43030 Y23.72958
G01 X30.37749 Y23.68383
G01 X30.20833 Y23.56034
G01 X30.10775 Y23.50997
G01 X30.10523 Y23.51312
G01 X30.10775 Y23.50997
G01 X30.06594 Y23.45904
G01 X29.87500 Y23.30232
G01 X29.65717 Y23.18589
G01 X29.42080 Y23.11419
G01 X29.17498 Y23.08998
G01 X27.07499 Y23.08998
G01 X26.82916 Y23.11419
G01 X26.59279 Y23.18589
G01 X26.37496 Y23.30232
G01 X26.29866 Y23.36496
G01 X26.30242 Y23.37548
G01 X26.29866 Y23.36496
G01 X20.45133 Y23.36496
G01 X20.44757 Y23.37548
G01 X20.45133 Y23.36496
G01 X20.37500 Y23.30232
G01 X20.15717 Y23.18589
G01 X19.92080 Y23.11419
G01 X19.67500 Y23.08998
G01 X17.57498 Y23.08998
G01 X17.32918 Y23.11419
G01 X17.09281 Y23.18589
G01 X16.87498 Y23.30232
G01 X16.79865 Y23.36496
G01 X16.80241 Y23.37548
G01 X16.79865 Y23.36496
G01 X14.51225 Y23.36496
G01 X14.69223 Y23.18498
G01 X16.73561 Y23.18498
G01 X16.73724 Y23.19102
G01 X16.73561 Y23.18498
G01 X16.77495 Y23.15267
G01 X17.02393 Y23.01960
G01 X17.29405 Y22.93766
G01 X17.57498 Y22.90999
G01 X19.67500 Y22.90999
G01 X19.95592 Y22.93766
G01 X20.22605 Y23.01960
G01 X20.47500 Y23.15267
G01 X20.51437 Y23.18498
G01 X20.51274 Y23.19102
G01 X20.51437 Y23.18498
G01 X26.23562 Y23.18498
G01 X26.23724 Y23.19102
G01 X26.23562 Y23.18498
G01 X26.27496 Y23.15267
G01 X26.52393 Y23.01960
G01 X26.79406 Y22.93766
G01 X27.07499 Y22.90999
G01 X29.17498 Y22.90999
G01 X29.45590 Y22.93766
G01 X29.72606 Y23.01960
G01 X29.97500 Y23.15267
G01 X30.19322 Y23.33176
G01 X30.22088 Y23.36758
G01 X30.30203 Y23.40664
G01 X30.49535 Y23.54779
G01 X30.54816 Y23.59353
G01 X30.73713 Y23.79168
G01 X30.88516 Y24.02201
G01 X30.98694 Y24.27618
G01 X31.00663 Y24.34322
G01 X31.05031 Y24.54400
G01 X31.06497 Y24.74898
G01 X31.06497 Y35.00098
G01 X31.05674 Y35.15485
G01 X31.03210 Y35.30695
G01 X31.00050 Y35.42496
G01 X30.81290 Y35.42496
G01 X31.92341 Y35.42496
G01 X31.95158 Y35.25102
G01 X31.96497 Y35.00098
G01 X31.96497 Y24.74898
G01 X31.94117 Y24.41591
G01 X31.87017 Y24.08962
G01 X31.85049 Y24.02259
G01 X31.68509 Y23.60954
G01 X31.44452 Y23.23527
G01 X31.13744 Y22.91330
G01 X31.08463 Y22.86755
G01 X30.77048 Y22.63816
G01 X30.74335 Y22.62470
G01 X30.47503 Y22.40436
G01 X30.12075 Y22.21497
G01 X30.30261 Y22.21497
G01 X30.64282 Y22.31033
G01 X30.84064 Y22.47281
G01 X30.86416 Y22.48447
G01 X31.20249 Y22.73148
G01 X31.25529 Y22.77723
G01 X31.58600 Y23.12399
G01 X31.84508 Y23.52704
G01 X32.02318 Y23.97187
G01 X32.04287 Y24.03890
G01 X32.11932 Y24.39028
G01 X32.14498 Y24.74898
G01 X32.14498 Y35.00098
G01 X32.13055 Y35.27024
G01 X32.10548 Y35.42496
G01 X31.92341 Y35.42496
G01 X32.28757 Y35.42496
G01 X32.30952 Y35.28947
G01 X32.32499 Y35.00098
G01 X32.32499 Y24.74898
G01 X32.29748 Y24.36465
G01 X32.21559 Y23.98817
G01 X32.19590 Y23.92114
G01 X32.00507 Y23.44456
G01 X31.72748 Y23.01269
G01 X31.37315 Y22.64119
G01 X31.32034 Y22.59544
G01 X31.18275 Y22.49498
G01 X31.45788 Y22.58874
G01 X31.64612 Y22.66778
G01 X31.86896 Y22.90141
G01 X32.16504 Y23.36206
G01 X32.36860 Y23.87042
G01 X32.38828 Y23.93745
G01 X32.47566 Y24.33905
G01 X32.50497 Y24.74898
G01 X32.50497 Y35.00098
G01 X32.48849 Y35.30873
G01 X32.46967 Y35.42496
G01 X32.65173 Y35.42496
G01 X32.66746 Y35.32795
G01 X32.68498 Y35.00098
G01 X32.68498 Y24.74898
G01 X32.65382 Y24.31342
G01 X32.56100 Y23.88675
G01 X32.54132 Y23.81972
G01 X32.32504 Y23.27956
G01 X32.04724 Y22.84738
G01 X32.36527 Y23.01078
G01 X32.48501 Y23.19709
G01 X32.71401 Y23.76900
G01 X32.73370 Y23.83603
G01 X32.83200 Y24.28779
G01 X32.86499 Y24.74898
G01 X32.86499 Y35.00098
G01 X32.84642 Y35.34718
G01 X32.83383 Y35.42496
G01 X33.01592 Y35.42496
G01 X33.02539 Y35.36641
G01 X33.04498 Y35.00098
G01 X33.04498 Y24.74898
G01 X33.01015 Y24.26219
G01 X32.90639 Y23.78530
G01 X32.88671 Y23.71827
G01 X32.67845 Y23.19813
G01 X32.86657 Y23.31246
G01 X32.93703 Y23.36189
G01 X33.05943 Y23.66755
G01 X33.07911 Y23.73458
G01 X33.18833 Y24.23656
G01 X33.22499 Y24.74898
G01 X33.22499 Y35.00098
G01 X33.20436 Y35.38566
G01 X33.19801 Y35.42496
G01 X33.38008 Y35.42496
G01 X33.40497 Y35.00098
G01 X33.40497 Y24.74898
G01 X33.36649 Y24.21093
G01 X33.25181 Y23.68386
G01 X33.23212 Y23.61683
G01 X33.20545 Y23.55023
G01 X33.33786 Y23.64311
G01 X33.44462 Y23.72551
G01 X33.54467 Y24.18533
G01 X33.58498 Y24.74898
G01 X33.58498 Y35.00098
G01 X33.56217 Y35.42496
G01 X33.74226 Y35.42496
G01 X33.76499 Y35.00098
G01 X33.76499 Y24.74898
G01 X33.72283 Y24.15970
G01 X33.66776 Y23.90656
G01 X33.44462 Y23.72551
G01 X33.89090 Y24.08761
G01 X33.90101 Y24.13407
G01 X33.94497 Y24.74898
G01 X33.94497 Y35.00098
G01 X33.92227 Y35.42496
G01 X34.10225 Y35.42496
G01 X34.12498 Y35.00098
G01 X34.12498 Y24.74898
G01 X34.08960 Y24.25439
G01 X34.04561 Y24.21314
G01 X33.89090 Y24.08761
G01 X34.04561 Y24.21314
G01 X34.28254 Y24.43519
G01 X34.30497 Y24.74898
G01 X34.30497 Y35.00098
G01 X34.28226 Y35.42496
G01 X32.28757 Y35.42496
G01 X34.46227 Y35.42496
G01 X34.48498 Y35.00098
G01 X34.48498 Y24.74898
G01 X34.47548 Y24.61601
G01 X34.66499 Y24.79361
G01 X34.66499 Y35.00098
G01 X34.64225 Y35.42496
G01 X34.46227 Y35.42496
G01 X34.82226 Y35.42496
G01 X34.84497 Y35.00098
G01 X34.84497 Y24.97225
G01 X35.02498 Y25.14875
G01 X35.02498 Y35.00098
G01 X35.00225 Y35.42496
G01 X34.82226 Y35.42496
G01 X35.18226 Y35.42496
G01 X35.20499 Y35.00098
G01 X35.20499 Y25.32150
G01 X35.38498 Y25.49424
G01 X35.38498 Y35.00098
G01 X35.36227 Y35.42496
G01 X35.18226 Y35.42496
G01 X35.42498 Y35.42498
G01 X35.42496 Y25.53155
G01 X34.93865 Y25.06590
G01 X34.68637 Y24.81365
G01 X34.04561 Y24.21314
G01 X33.40520 Y23.69353
G01 X32.86657 Y23.31246
G01 X32.39695 Y23.02706
G01 X31.92796 Y22.78612
G01 X31.45788 Y22.58874
G01 X31.39128 Y22.56392
G01 X30.96728 Y22.42374
G01 X30.62905 Y22.30553
G01 X30.30261 Y22.21497
G01 X26.82121 Y22.21497
G01 X26.65360 Y22.23148
G01 X26.24839 Y22.35440
G01 X26.04156 Y22.46496
G01 X26.04291 Y22.47037
G01 X26.04156 Y22.46496
G01 X20.70842 Y22.46496
G01 X20.70708 Y22.47037
G01 X20.70842 Y22.46496
G01 X20.50159 Y22.35440
G01 X20.09639 Y22.23148
G01 X19.92872 Y22.21497
G01 X20.62072 Y22.21497
G01 X20.75168 Y22.28498
G01 X20.75031 Y22.29036
G01 X20.75168 Y22.28498
G01 X25.99830 Y22.28498
G01 X25.99965 Y22.29036
G01 X25.99830 Y22.28498
G01 X26.12924 Y22.21497
G01 X26.82121 Y22.21497
G01 X17.32128 Y22.21497
G01 X17.15359 Y22.23148
G01 X16.74839 Y22.35440
G01 X16.54155 Y22.46496
G01 X16.54290 Y22.47037
G01 X16.54155 Y22.46496
G01 X15.41224 Y22.46496
G01 X15.59223 Y22.28498
G01 X16.49830 Y22.28498
G01 X16.49964 Y22.29036
G01 X16.49830 Y22.28498
G01 X16.62926 Y22.21497
G01 X17.32128 Y22.21497
G01 X15.66223 Y22.21497
G01 X13.81479 Y24.06242
G01 X13.68179 Y24.21454
G01 X13.63508 Y24.27692
G01 X13.52409 Y24.47489
G01 X13.50234 Y24.53316
G01 X13.48682 Y24.59782
G01 X14.74496 Y22.87766
G01 X14.74496 Y21.37225
G04 P0 ( dwell for no time -- G64 should not smooth over this point )
G00 Z2.00000 ( retract )

G00 X14.87224 Y21.24497 ( rapid move to begin. )
G01 F75.00000
( Mill infeed pass 1/1 )
G01 Z-0.15000
G04 P0 ( dwell for no time -- G64 should not smooth over this point )
G01 F150.00000
G01 X14.87224 Y21.24497
G01 X16.67254 Y21.24497
G01 X16.67391 Y21.23954
G01 X16.67496 Y21.24698
G01 X16.95504 Y21.39666
G01 X17.25895 Y21.48886
G01 X17.57498 Y21.51998
G01 X19.67500 Y21.51998
G01 X19.99103 Y21.48886
G01 X20.29494 Y21.39666
G01 X20.57502 Y21.24698
G01 X20.57606 Y21.23954
G01 X20.57744 Y21.24497
G01 X26.17255 Y21.24497
G01 X26.17389 Y21.23954
G01 X26.17494 Y21.24698
G01 X26.45505 Y21.39666
G01 X26.75891 Y21.48886
G01 X27.07499 Y21.51998
G01 X29.17498 Y21.51998
G01 X29.49103 Y21.48886
G01 X29.79494 Y21.39666
G01 X30.07500 Y21.24698
G01 X30.07607 Y21.23954
G01 X30.07744 Y21.24497
G01 X35.00098 Y21.24497
G01 X35.23146 Y21.22849
G01 X35.42496 Y21.18640
G01 X35.42496 Y21.37015
G01 X35.25709 Y21.40667
G01 X35.00098 Y21.42498
G01 X30.12199 Y21.42498
G01 X30.12065 Y21.41957
G01 X30.12199 Y21.42498
G01 X29.86383 Y21.56298
G01 X29.52616 Y21.66539
G01 X29.17498 Y21.69999
G01 X27.07499 Y21.69999
G01 X26.72380 Y21.66539
G01 X26.38616 Y21.56298
G01 X26.12797 Y21.42498
G01 X26.12934 Y21.41957
G01 X26.12797 Y21.42498
G01 X20.62199 Y21.42498
G01 X20.62064 Y21.41957
G01 X20.62199 Y21.42498
G01 X20.36382 Y21.56298
G01 X20.02615 Y21.66539
G01 X19.67500 Y21.69999
G01 X17.57498 Y21.69999
G01 X17.22382 Y21.66539
G01 X16.88616 Y21.56298
G01 X16.62799 Y21.42498
G01 X16.62934 Y21.41957
G01 X16.62799 Y21.42498
G01 X15.05225 Y21.42498
G01 X15.23224 Y21.60497
G01 X16.58473 Y21.60497
G01 X16.58608 Y21.59958
G01 X16.58473 Y21.60497
G01 X16.81727 Y21.72928
G01 X17.18872 Y21.84195
G01 X17.57498 Y21.88000
G01 X19.67500 Y21.88000
G01 X20.06126 Y21.84195
G01 X20.43271 Y21.72928
G01 X20.66524 Y21.60497
G01 X20.66390 Y21.59958
G01 X20.66524 Y21.60497
G01 X26.08472 Y21.60497
G01 X26.08609 Y21.59958
G01 X26.08472 Y21.60497
G01 X26.31725 Y21.72928
G01 X26.68870 Y21.84195
G01 X27.07499 Y21.88000
G01 X29.17498 Y21.88000
G01 X29.56126 Y21.84195
G01 X29.93269 Y21.72928
G01 X30.16523 Y21.60497
G01 X30.16388 Y21.59958
G01 X30.16523 Y21.60497
G01 X35.00098 Y21.60497
G01 X35.28269 Y21.58483
G01 X35.42496 Y21.55389
G01 X35.42496 Y21.73763
G01 X35.30829 Y21.76301
G01 X35.00098 Y21.78498
G01 X30.20848 Y21.78498
G01 X30.20714 Y21.77959
G01 X30.20848 Y21.78498
G01 X30.00157 Y21.89557
G01 X29.59639 Y22.01848
G01 X29.42888 Y22.03496
G01 X26.12919 Y22.03496
G01 X25.99823 Y21.96499
G01 X25.99960 Y21.95958
G01 X25.99823 Y21.96499
G01 X20.75173 Y21.96499
G01 X20.75039 Y21.95958
G01 X20.75173 Y21.96499
G01 X20.62077 Y22.03496
G01 X19.92895 Y22.03496
G01 X20.09639 Y22.01848
G01 X20.50159 Y21.89557
G01 X20.70848 Y21.78498
G01 X20.70713 Y21.77959
G01 X20.70848 Y21.78498
G01 X26.04146 Y21.78498
G01 X26.04283 Y21.77959
G01 X26.04146 Y21.78498
G01 X26.24839 Y21.89557
G01 X26.65360 Y22.01848
G01 X26.82101 Y22.03496
G01 X29.42878 Y22.21497
G01 X29.59639 Y22.23148
G01 X30.00157 Y22.35440
G01 X30.37503 Y22.55401
G01 X30.64607 Y22.77659
G01 X30.67678 Y22.79186
G01 X30.96677 Y23.00359
G01 X31.01958 Y23.04934
G01 X31.30304 Y23.34654
G01 X31.52512 Y23.69204
G01 X31.67777 Y24.07331
G01 X31.69745 Y24.14035
G01 X31.76299 Y24.44151
G01 X31.78498 Y24.74898
G01 X31.78498 Y35.00098
G01 X31.77261 Y35.23179
G01 X31.74132 Y35.42496
G01 X31.55905 Y35.42496
G01 X31.59365 Y35.21254
G01 X31.60497 Y35.00098
G01 X31.60497 Y24.74898
G01 X31.58483 Y24.46714
G01 X31.52476 Y24.19107
G01 X31.50508 Y24.12404
G01 X31.36512 Y23.77453
G01 X31.16157 Y23.45782
G01 X30.90172 Y23.18538
G01 X30.84892 Y23.13964
G01 X30.58308 Y22.94555
G01 X30.54879 Y22.92851
G01 X30.27500 Y22.70367
G01 X29.93269 Y22.52071
G01 X29.56126 Y22.40804
G01 X29.17498 Y22.36999
G01 X27.07499 Y22.36999
G01 X26.68870 Y22.40804
G01 X26.31725 Y22.52071
G01 X26.08479 Y22.64497
G01 X26.08614 Y22.65036
G01 X26.08479 Y22.64497
G01 X20.66517 Y22.64497
G01 X20.66382 Y22.65036
G01 X20.66517 Y22.64497
G01 X20.43271 Y22.52071
G01 X20.06126 Y22.40804
G01 X19.67500 Y22.36999
G01 X17.57498 Y22.36999
G01 X17.18872 Y22.40804
G01 X16.81727 Y22.52071
G01 X16.58481 Y22.64497
G01 X16.58616 Y22.65036
G01 X16.58481 Y22.64497
G01 X15.23224 Y22.64497
G01 X15.05225 Y22.82496
G01 X16.62804 Y22.82496
G01 X16.62941 Y22.83037
G01 X16.62804 Y22.82496
G01 X16.88616 Y22.68701
G01 X17.22382 Y22.58457
G01 X17.57498 Y22.54998
G01 X19.67500 Y22.54998
G01 X20.02615 Y22.58457
G01 X20.36382 Y22.68701
G01 X20.62191 Y22.82496
G01 X20.62057 Y22.83037
G01 X20.62191 Y22.82496
G01 X26.12805 Y22.82496
G01 X26.12939 Y22.83037
G01 X26.12805 Y22.82496
G01 X26.38616 Y22.68701
G01 X26.72380 Y22.58457
G01 X27.07499 Y22.54998
G01 X29.17498 Y22.54998
G01 X29.52616 Y22.58457
G01 X29.86383 Y22.68701
G01 X30.17500 Y22.85335
G01 X30.44938 Y23.07936
G01 X30.48941 Y23.09925
G01 X30.73106 Y23.27570
G01 X30.78387 Y23.32145
G01 X31.02009 Y23.56910
G01 X31.20515 Y23.85701
G01 X31.33236 Y24.17474
G01 X31.35204 Y24.24177
G01 X31.40665 Y24.49277
G01 X31.42499 Y24.74898
G01 X31.42499 Y35.00098
G01 X31.41468 Y35.19331
G01 X31.37485 Y35.42496
G01 X31.18813 Y35.42496
G01 X31.20800 Y35.34520
G01 X31.23571 Y35.17408
G01 X31.24498 Y35.00098
G01 X31.24498 Y24.74898
G01 X31.22849 Y24.51837
G01 X31.17935 Y24.29249
G01 X31.15966 Y24.22546
G01 X31.04516 Y23.93951
G01 X30.87861 Y23.68040
G01 X30.66601 Y23.45749
G01 X30.61321 Y23.41175
G01 X30.39570 Y23.25295
G01 X30.33541 Y23.22302
G01 X30.32050 Y23.20448
G01 X30.07500 Y23.00301
G01 X29.79494 Y22.85330
G01 X29.49103 Y22.76113
G01 X29.17498 Y22.72998
G01 X27.07499 Y22.72998
G01 X26.75891 Y22.76113
G01 X26.45505 Y22.85330
G01 X26.17494 Y23.00301
G01 X26.17395 Y23.01040
G01 X26.17257 Y23.00497
G01 X20.57739 Y23.00497
G01 X20.57604 Y23.01040
G01 X20.57502 Y23.00301
G01 X20.29494 Y22.85330
G01 X19.99103 Y22.76113
G01 X19.67500 Y22.72998
G01 X17.57498 Y22.72998
G01 X17.25895 Y22.76113
G01 X16.95504 Y22.85330
G01 X16.67496 Y23.00301
G01 X16.67394 Y23.01040
G01 X16.67257 Y23.00497
G01 X14.87224 Y23.00497
G01 X14.33224 Y23.54497
G01 X16.86170 Y23.54497
G01 X16.86546 Y23.55548
G01 X16.86170 Y23.54497
G01 X16.97498 Y23.45201
G01 X17.16170 Y23.35221
G01 X17.36429 Y23.29074
G01 X17.57498 Y23.26999
G01 X19.67500 Y23.26999
G01 X19.88569 Y23.29074
G01 X20.08828 Y23.35221
G01 X20.27500 Y23.45201
G01 X20.38828 Y23.54497
G01 X20.38452 Y23.55548
G01 X20.38828 Y23.54497
G01 X26.36168 Y23.54497
G01 X26.36546 Y23.55548
G01 X26.36168 Y23.54497
G01 X26.47494 Y23.45201
G01 X26.66170 Y23.35221
G01 X26.86427 Y23.29074
G01 X27.07499 Y23.26999
G01 X29.17498 Y23.26999
G01 X29.38567 Y23.29074
G01 X29.58829 Y23.35221
G01 X29.77501 Y23.45201
G01 X29.93866 Y23.58632
G01 X29.99383 Y23.65353
G01 X29.99131 Y23.65668
G01 X29.99383 Y23.65353
G01 X30.11463 Y23.71403
G01 X30.25964 Y23.81990
G01 X30.31244 Y23.86564
G01 X30.45418 Y24.01423
G01 X30.56520 Y24.18698
G01 X30.64153 Y24.37763
G01 X30.66121 Y24.44466
G01 X30.69398 Y24.59523
G01 X30.70498 Y24.74898
G01 X30.70498 Y35.00098
G01 X30.69880 Y35.11637
G01 X30.68031 Y35.23044
G01 X30.66911 Y35.28195
G01 X30.62527 Y35.42496
G01 X30.43030 Y35.42496
G01 X30.44930 Y35.38698
G01 X30.49322 Y35.24373
G01 X30.51983 Y35.09714
G01 X30.52499 Y35.00098
G01 X30.52499 Y24.74898
G01 X30.51582 Y24.62086
G01 X30.48852 Y24.49536
G01 X30.46883 Y24.42833
G01 X30.40523 Y24.26948
G01 X30.31270 Y24.12551
G01 X30.19459 Y24.00169
G01 X30.14178 Y23.95594
G01 X30.02095 Y23.86773
G01 X29.88717 Y23.80072
G01 X29.88146 Y23.79899
G01 X29.87889 Y23.80225
G01 X29.88146 Y23.79899
G01 X29.81138 Y23.71360
G01 X29.67501 Y23.60166
G01 X29.51940 Y23.51850
G01 X29.35057 Y23.46727
G01 X29.17498 Y23.45000
G01 X27.07499 Y23.45000
G01 X26.89937 Y23.46727
G01 X26.73056 Y23.51850
G01 X26.57496 Y23.60166
G01 X26.43859 Y23.71360
G01 X26.42927 Y23.72495
G01 X26.43325 Y23.73595
G01 X26.42927 Y23.72495
G01 X20.32072 Y23.72495
G01 X20.31671 Y23.73595
G01 X20.32072 Y23.72495
G01 X20.31137 Y23.71360
G01 X20.17500 Y23.60166
G01 X20.01940 Y23.51850
G01 X19.85056 Y23.46727
G01 X19.67500 Y23.45000
G01 X17.57498 Y23.45000
G01 X17.39941 Y23.46727
G01 X17.23058 Y23.51850
G01 X17.07498 Y23.60166
G01 X16.93858 Y23.71360
G01 X16.92926 Y23.72495
G01 X16.93327 Y23.73595
G01 X16.92926 Y23.72495
G01 X14.15223 Y23.72498
G01 X13.97224 Y23.90496
G01 X17.01326 Y23.90496
G01 X17.02144 Y23.92224
G01 X17.01326 Y23.90496
G01 X17.06586 Y23.84088
G01 X17.17498 Y23.75132
G01 X17.29946 Y23.68480
G01 X17.43452 Y23.64383
G01 X17.57498 Y23.62998
G01 X19.67500 Y23.62998
G01 X19.81546 Y23.64383
G01 X19.95051 Y23.68480
G01 X20.07500 Y23.75132
G01 X20.18409 Y23.84088
G01 X20.23670 Y23.90496
G01 X20.22854 Y23.92224
G01 X20.23670 Y23.90496
G01 X26.51326 Y23.90496
G01 X26.52142 Y23.92224
G01 X26.51326 Y23.90496
G01 X26.56584 Y23.84088
G01 X26.67499 Y23.75132
G01 X26.79942 Y23.68480
G01 X26.93452 Y23.64383
G01 X27.07499 Y23.62998
G01 X29.17498 Y23.62998
G01 X29.31544 Y23.64383
G01 X29.45052 Y23.68480
G01 X29.57501 Y23.75132
G01 X29.68410 Y23.84088
G01 X29.77363 Y23.94997
G01 X29.77592 Y23.95421
G01 X29.77280 Y23.95830
G01 X29.77592 Y23.95421
G01 X29.82024 Y23.96783
G01 X29.92725 Y24.02142
G01 X30.02393 Y24.09198
G01 X30.07673 Y24.13773
G01 X30.17122 Y24.23681
G01 X30.24524 Y24.35198
G01 X30.29611 Y24.47905
G01 X30.31580 Y24.54608
G01 X30.33764 Y24.64649
G01 X30.34498 Y24.74898
G01 X30.34498 Y35.00098
G01 X30.34087 Y35.07792
G01 X30.31735 Y35.20547
G01 X30.28219 Y35.32008
G01 X30.22969 Y35.42496
G01 X30.00554 Y35.42496
G01 X30.07485 Y35.33357
G01 X30.11509 Y35.25318
G01 X30.14145 Y35.16722
G01 X30.15265 Y35.11571
G01 X30.16190 Y35.05866
G01 X30.16497 Y35.00098
G01 X30.16497 Y24.74898
G01 X30.15948 Y24.67209
G01 X30.14310 Y24.59681
G01 X30.12342 Y24.52978
G01 X30.08524 Y24.43445
G01 X30.02974 Y24.34809
G01 X29.95888 Y24.27380
G01 X29.90607 Y24.22805
G01 X29.83355 Y24.17512
G01 X29.75329 Y24.13491
G01 X29.66749 Y24.10857
G01 X29.65369 Y24.10557
G01 X29.64874 Y24.11192
G01 X29.65369 Y24.10557
G01 X29.62398 Y24.04997
G01 X29.55682 Y23.96816
G01 X29.47501 Y23.90100
G01 X29.38164 Y23.85109
G01 X29.28034 Y23.82036
G01 X29.17498 Y23.80999
G01 X27.07499 Y23.80999
G01 X26.96963 Y23.82036
G01 X26.86833 Y23.85109
G01 X26.77499 Y23.90100
G01 X26.69315 Y23.96816
G01 X26.62596 Y24.04997
G01 X26.60730 Y24.08497
G01 X26.61710 Y24.10435
G01 X26.60730 Y24.08497
G01 X20.14269 Y24.08497
G01 X20.13286 Y24.10435
G01 X20.14269 Y24.08497
G01 X20.12397 Y24.04997
G01 X20.05681 Y23.96816
G01 X19.97500 Y23.90100
G01 X19.88163 Y23.85109
G01 X19.78033 Y23.82036
G01 X19.67500 Y23.80999
G01 X17.57498 Y23.80999
G01 X17.46964 Y23.82036
G01 X17.36835 Y23.85109
G01 X17.27498 Y23.90100
G01 X17.19314 Y23.96816
G01 X17.12598 Y24.04997
G01 X17.10729 Y24.08497
G01 X17.11712 Y24.10435
G01 X17.10729 Y24.08497
G01 X13.79508 Y24.08497
G01 X13.68179 Y24.21454
G01 X13.63087 Y24.28441
G01 X13.69769 Y24.26864
G01 X13.74898 Y24.26496
G01 X17.22639 Y24.26496
G01 X17.24597 Y24.29462
G01 X17.22639 Y24.26496
G01 X17.24239 Y24.21223
G01 X17.27567 Y24.14997
G01 X17.32042 Y24.09544
G01 X17.37498 Y24.05066
G01 X17.43721 Y24.01738
G01 X17.50475 Y23.99691
G01 X17.57498 Y23.98998
G01 X19.67500 Y23.98998
G01 X19.74523 Y23.99691
G01 X19.81274 Y24.01738
G01 X19.87500 Y24.05066
G01 X19.92953 Y24.09544
G01 X19.97431 Y24.14997
G01 X20.00759 Y24.21223
G01 X20.02359 Y24.26496
G01 X20.00398 Y24.29470
G01 X20.02359 Y24.26496
G01 X26.72640 Y24.26496
G01 X26.74600 Y24.29470
G01 X26.72640 Y24.26496
G01 X26.74237 Y24.21223
G01 X26.77562 Y24.14997
G01 X26.82040 Y24.09544
G01 X26.87496 Y24.05066
G01 X26.93722 Y24.01738
G01 X27.00475 Y23.99691
G01 X27.07499 Y23.98998
G01 X29.17498 Y23.98998
G01 X29.24521 Y23.99691
G01 X29.31275 Y24.01738
G01 X29.37498 Y24.05066
G01 X29.42954 Y24.09544
G01 X29.47432 Y24.14997
G01 X29.50759 Y24.21223
G01 X29.52395 Y24.26620
G01 X29.50853 Y24.28568
G01 X29.52395 Y24.26620
G01 X29.53952 Y24.26704
G01 X29.62916 Y24.28444
G01 X29.68636 Y24.30202
G01 X29.73988 Y24.32881
G01 X29.78821 Y24.36409
G01 X29.84102 Y24.40984
G01 X29.88826 Y24.45937
G01 X29.92527 Y24.51695
G01 X29.95070 Y24.58050
G01 X29.98130 Y24.69772
G01 X29.98499 Y24.74898
G01 X29.98499 Y35.00098
G01 X29.98293 Y35.03943
G01 X29.96556 Y35.12897
G01 X29.94798 Y35.18627
G01 X29.92116 Y35.23987
G01 X29.88583 Y35.28828
G01 X29.84005 Y35.34108
G01 X29.79052 Y35.38828
G01 X29.73343 Y35.42496

G04 P0 ( dwell for no time -- G64 should not smooth over this point )
G00 Z10.000000 ( retract )

M5 ( Spindle off. )
G04 P1.000000
M9 ( Coolant off. )
M2 ( Program end. )

