( pcb2gcode 2.5.0 )
( Software-independent Gcode )

G94 ( Millimeters per minute feed rate. )
G21 ( Units == Millimeters. )

G90 ( Absolute coordinates. )
G00 S10000 ( RPM spindle speed. )
G64 P0.01016 ( set maximum deviation from commanded toolpath )
G01 F100.00000 ( Feedrate. )


G00 Z10.00000 (Retract to tool change height)
T0
M5      (Spindle stop.)
G04 P1.00000 (Wait for spindle to stop)
(MSG, Change tool bit to cutter diameter 0.80000mm)
M6      (Tool change.)
M0      (Temporary machine stop.)
M3 ( Spindle on clockwise. )
G04 P1.00000 (Wait for spindle to get up to speed)
G04 P0 ( dwell for no time -- G64 should not smooth over this point )
G00 Z2.00000 ( retract )

G00 X0.42500 Y0.82500 ( rapid move to begin. )
G01 Z-0.50000 F50.00000 ( plunge. )
G04 P0 ( dwell for no time -- G64 should not smooth over this point )
G01 F100.00000
G01 X0.42500 Y17.22499
G01 X0.42500 Y19.02499
G01 X0.42500 Y35.42498
G01 X0.43270 Y35.50301
G01 X0.45545 Y35.57804
G01 X0.49241 Y35.64721
G01 X0.54217 Y35.70781
G01 X0.60277 Y35.75757
G01 X0.67191 Y35.79453
G01 X0.74695 Y35.81728
G01 X0.82500 Y35.82498
G01 X35.42498 Y35.82498
G01 X35.50301 Y35.81728
G01 X35.57804 Y35.79453
G01 X35.64721 Y35.75757
G01 X35.70781 Y35.70781
G01 X35.75757 Y35.64721
G01 X35.79453 Y35.57804
G01 X35.81728 Y35.50301
G01 X35.82498 Y35.42498
G01 X35.82498 Y19.02499
G01 X35.82498 Y17.22499
G01 X35.82498 Y0.82500
G01 X35.81728 Y0.74695
G01 X35.79453 Y0.67191
G01 X35.75757 Y0.60277
G01 X35.70781 Y0.54217
G01 X35.64721 Y0.49241
G01 X35.57804 Y0.45545
G01 X35.50301 Y0.43270
G01 X35.42498 Y0.42500
G01 X0.82500 Y0.42500
G01 X0.74695 Y0.43270
G01 X0.67191 Y0.45545
G01 X0.60277 Y0.49241
G01 X0.54217 Y0.54217
G01 X0.49241 Y0.60277
G01 X0.45545 Y0.67191
G01 X0.43270 Y0.74695
G01 X0.42500 Y0.82500
G01 Z-1.00000 F50.00000 ( plunge. )
G04 P0 ( dwell for no time -- G64 should not smooth over this point )
G01 F100.00000
G01 X0.42500 Y17.22499
G01 X0.42500 Y19.02499
G01 X0.42500 Y35.42498
G01 X0.43270 Y35.50301
G01 X0.45545 Y35.57804
G01 X0.49241 Y35.64721
G01 X0.54217 Y35.70781
G01 X0.60277 Y35.75757
G01 X0.67191 Y35.79453
G01 X0.74695 Y35.81728
G01 X0.82500 Y35.82498
G01 X35.42498 Y35.82498
G01 X35.50301 Y35.81728
G01 X35.57804 Y35.79453
G01 X35.64721 Y35.75757
G01 X35.70781 Y35.70781
G01 X35.75757 Y35.64721
G01 X35.79453 Y35.57804
G01 X35.81728 Y35.50301
G01 X35.82498 Y35.42498
G01 X35.82498 Y19.02499
G01 X35.82498 Y17.22499
G01 X35.82498 Y0.82500
G01 X35.81728 Y0.74695
G01 X35.79453 Y0.67191
G01 X35.75757 Y0.60277
G01 X35.70781 Y0.54217
G01 X35.64721 Y0.49241
G01 X35.57804 Y0.45545
G01 X35.50301 Y0.43270
G01 X35.42498 Y0.42500
G01 X0.82500 Y0.42500
G01 X0.74695 Y0.43270
G01 X0.67191 Y0.45545
G01 X0.60277 Y0.49241
G01 X0.54217 Y0.54217
G01 X0.49241 Y0.60277
G01 X0.45545 Y0.67191
G01 X0.43270 Y0.74695
G01 X0.42500 Y0.82500
G01 Z-1.50000 F50.00000 ( plunge. )
G04 P0 ( dwell for no time -- G64 should not smooth over this point )
G01 F100.00000
G01 X0.42500 Y17.22499
G00 Z-1.20000
G01 X0.42500 Y19.02499
G01 Z-1.50000 F50.00000
G01 F100.00000
G01 X0.42500 Y35.42498
G01 X0.43270 Y35.50301
G01 X0.45545 Y35.57804
G01 X0.49241 Y35.64721
G01 X0.54217 Y35.70781
G01 X0.60277 Y35.75757
G01 X0.67191 Y35.79453
G01 X0.74695 Y35.81728
G01 X0.82500 Y35.82498
G01 X35.42498 Y35.82498
G01 X35.50301 Y35.81728
G01 X35.57804 Y35.79453
G01 X35.64721 Y35.75757
G01 X35.70781 Y35.70781
G01 X35.75757 Y35.64721
G01 X35.79453 Y35.57804
G01 X35.81728 Y35.50301
G01 X35.82498 Y35.42498
G01 X35.82498 Y19.02499
G00 Z-1.20000
G01 X35.82498 Y17.22499
G01 Z-1.50000 F50.00000
G01 F100.00000
G01 X35.82498 Y0.82500
G01 X35.81728 Y0.74695
G01 X35.79453 Y0.67191
G01 X35.75757 Y0.60277
G01 X35.70781 Y0.54217
G01 X35.64721 Y0.49241
G01 X35.57804 Y0.45545
G01 X35.50301 Y0.43270
G01 X35.42498 Y0.42500
G01 X0.82500 Y0.42500
G01 X0.74695 Y0.43270
G01 X0.67191 Y0.45545
G01 X0.60277 Y0.49241
G01 X0.54217 Y0.54217
G01 X0.49241 Y0.60277
G01 X0.45545 Y0.67191
G01 X0.43270 Y0.74695
G01 X0.42500 Y0.82500
G01 Z-2.00000 F50.00000 ( plunge. )
G04 P0 ( dwell for no time -- G64 should not smooth over this point )
G01 F100.00000
G01 X0.42500 Y17.22499
G00 Z-1.20000
G01 X0.42500 Y19.02499
G01 Z-2.00000 F50.00000
G01 F100.00000
G01 X0.42500 Y35.42498
G01 X0.43270 Y35.50301
G01 X0.45545 Y35.57804
G01 X0.49241 Y35.64721
G01 X0.54217 Y35.70781
G01 X0.60277 Y35.75757
G01 X0.67191 Y35.79453
G01 X0.74695 Y35.81728
G01 X0.82500 Y35.82498
G01 X35.42498 Y35.82498
G01 X35.50301 Y35.81728
G01 X35.57804 Y35.79453
G01 X35.64721 Y35.75757
G01 X35.70781 Y35.70781
G01 X35.75757 Y35.64721
G01 X35.79453 Y35.57804
G01 X35.81728 Y35.50301
G01 X35.82498 Y35.42498
G01 X35.82498 Y19.02499
G00 Z-1.20000
G01 X35.82498 Y17.22499
G01 Z-2.00000 F50.00000
G01 F100.00000
G01 X35.82498 Y0.82500
G01 X35.81728 Y0.74695
G01 X35.79453 Y0.67191
G01 X35.75757 Y0.60277
G01 X35.70781 Y0.54217
G01 X35.64721 Y0.49241
G01 X35.57804 Y0.45545
G01 X35.50301 Y0.43270
G01 X35.42498 Y0.42500
G01 X0.82500 Y0.42500
G01 X0.74695 Y0.43270
G01 X0.67191 Y0.45545
G01 X0.60277 Y0.49241
G01 X0.54217 Y0.54217
G01 X0.49241 Y0.60277
G01 X0.45545 Y0.67191
G01 X0.43270 Y0.74695
G01 X0.42500 Y0.82500

G04 P0 ( dwell for no time -- G64 should not smooth over this point )
G00 Z10.000000 ( retract )

M5 ( Spindle off. )
G04 P1.000000
M9 ( Coolant off. )
M2 ( Program end. )

