( pcb2gcode 2.5.0 )
( Software-independent Gcode )

G94 ( Millimeters per minute feed rate. )
G21 ( Units == Millimeters. )

G90 ( Absolute coordinates. )
G00 S10000 ( RPM spindle speed. )
G64 P0.01016 ( set maximum deviation from commanded toolpath )
G01 F200.00000 ( Feedrate. )


G00 Z10.00000 (Retract to tool change height)
T0
M5      (Spindle stop.)
G04 P1.00000 (Wait for spindle to stop)
(MSG, Change tool bit to mill diameter 2.20000mm)
M6      (Tool change.)
M0      (Temporary machine stop.)
M3 ( Spindle on clockwise. )
G04 P1.00000 (Wait for spindle to get up to speed)
G04 P0 ( dwell for no time -- G64 should not smooth over this point )
G00 Z5.00000 ( retract )

G00 X11.65174 Y30.91991 ( rapid move to begin. )
G01 F100.00000
( Mill infeed pass 1/1 )
G01 Z-0.18000
G04 P0 ( dwell for no time -- G64 should not smooth over this point )
G01 F200.00000
G01 X11.65174 Y30.91991
G01 X11.65184 Y30.92657
G01 X11.70200 Y30.97005
G01 X11.84988 Y31.07805
G01 X12.01364 Y31.16002
G01 X12.18872 Y31.21372
G01 X12.24023 Y31.22492
G01 X12.35643 Y31.24374
G01 X12.47399 Y31.25004
G01 X21.52599 Y31.25004
G01 X21.68255 Y31.23884
G01 X21.83592 Y31.20546
G01 X21.90295 Y31.18578
G01 X21.99225 Y31.15001
G01 X22.14999 Y31.15001
G01 X22.14999 Y31.07404
G01 X22.27290 Y30.99505
G01 X22.09703 Y31.10808
G01 X21.99228 Y31.15001
G01 X22.09703 Y31.10808
G01 X22.27290 Y30.99505
G01 X22.42423 Y30.85080
G01 X22.47000 Y30.79799
G01 X22.57800 Y30.65012
G01 X22.65997 Y30.48636
G01 X22.71367 Y30.31128
G01 X22.72487 Y30.25977
G01 X22.74369 Y30.14356
G01 X22.74999 Y30.02601
G01 X22.74999 Y2.27402
G01 X22.73879 Y2.11753
G01 X22.70544 Y1.96419
G01 X22.68575 Y1.89714
G01 X22.60800 Y1.70293
G01 X22.49490 Y1.52696
G01 X22.35052 Y1.37557
G01 X22.29771 Y1.32983
G01 X22.14989 Y1.22190
G01 X22.00628 Y1.15002
G01 X22.14989 Y1.22190
G01 X22.14999 Y1.15002
G01 X22.00628 Y1.15002
G01 X21.98621 Y1.13999
G01 X21.81123 Y1.08634
G01 X21.75972 Y1.07514
G01 X21.64351 Y1.05632
G01 X21.52599 Y1.05002
G01 X12.47399 Y1.05002
G01 X12.31739 Y1.06122
G01 X12.16403 Y1.09460
G01 X12.09700 Y1.11428
G01 X11.90292 Y1.19198
G01 X12.09700 Y1.11428
G01 X11.90292 Y1.19198
G01 X11.72705 Y1.30501
G01 X11.64823 Y1.38015
G01 X11.65232 Y1.60811
G01 X11.64810 Y1.99625
G01 X11.65184 Y30.30386
G01 X11.64765 Y30.69162
G01 X11.65174 Y30.91991
G01 X11.57305 Y30.99495
G01 X11.39708 Y31.10805
G01 X11.20287 Y31.18580
G01 X11.39708 Y31.10805
G01 X11.20287 Y31.18580
G01 X11.13581 Y31.20549
G01 X10.98247 Y31.23884
G01 X10.82598 Y31.25004
G01 X1.77398 Y31.25004
G01 X1.65643 Y31.24374
G01 X1.48871 Y31.21372
G01 X1.31363 Y31.16002
G01 X1.14988 Y31.07805
G01 X1.29364 Y31.15001
G01 X1.14998 Y31.15001
G01 X1.14988 Y31.07805
G01 X1.00200 Y30.97005
G01 X0.94919 Y30.92428
G01 X0.80495 Y30.77295
G01 X0.69192 Y30.59708
G01 X0.61422 Y30.40300
G01 X0.59453 Y30.33597
G01 X0.56116 Y30.18260
G01 X0.54996 Y30.02601
G01 X0.54996 Y2.27402
G01 X0.55628 Y2.15624
G01 X0.57520 Y2.03978
G01 X0.58643 Y1.98827
G01 X0.64007 Y1.81347
G01 X0.72194 Y1.64997
G01 X0.82979 Y1.50229
G01 X0.87553 Y1.44949
G01 X1.02687 Y1.30511
G01 X1.20281 Y1.19203
G01 X1.30771 Y1.15002
G01 X1.20281 Y1.19203
G01 X1.02687 Y1.30511
G01 X1.14998 Y1.22602
G01 X1.14998 Y1.15002
G01 X1.30771 Y1.15002
G01 X1.39699 Y1.11428
G01 X1.46403 Y1.09460
G01 X1.61739 Y1.06122
G01 X1.77398 Y1.05002
G01 X10.82598 Y1.05002
G01 X10.94351 Y1.05632
G01 X11.11122 Y1.08634
G01 X11.28621 Y1.13999
G01 X11.44988 Y1.22190
G01 X11.59771 Y1.32983
G01 X11.64813 Y1.37349
G01 X11.65164 Y1.51505

G04 P0 ( dwell for no time -- G64 should not smooth over this point )
G00 Z10.000000 ( retract )

M5 ( Spindle off. )
G04 P1.000000
M9 ( Coolant off. )
M2 ( Program end. )

