( pcb2gcode 2.5.0 )
( Software-independent Gcode )

G94 ( Millimeters per minute feed rate. )
G21 ( Units == Millimeters. )

G90 ( Absolute coordinates. )
G00 S10000 ( RPM spindle speed. )
G64 P0.01016 ( set maximum deviation from commanded toolpath )
G01 F200.00000 ( Feedrate. )


G00 Z10.00000 (Retract to tool change height)
T0
M5      (Spindle stop.)
G04 P1.00000 (Wait for spindle to stop)
(MSG, Change tool bit to cutter diameter 1.10000mm)
M6      (Tool change.)
M0      (Temporary machine stop.)
M3 ( Spindle on clockwise. )
G04 P1.00000 (Wait for spindle to get up to speed)
G04 P0 ( dwell for no time -- G64 should not smooth over this point )
G00 Z5.00000 ( retract )

G00 X0.59997 Y1.15002 ( rapid move to begin. )
G01 Z-0.50000 F100.00000 ( plunge. )
G04 P0 ( dwell for no time -- G64 should not smooth over this point )
G01 F200.00000
G01 X0.59997 Y31.15001
G01 X0.61053 Y31.25733
G01 X0.64183 Y31.36050
G01 X0.69265 Y31.45560
G01 X0.76105 Y31.53894
G01 X0.84439 Y31.60734
G01 X0.93949 Y31.65817
G01 X1.04266 Y31.68946
G01 X1.14998 Y31.70002
G01 X10.59998 Y31.70002
G01 X12.69998 Y31.70002
G01 X22.14999 Y31.70002
G01 X22.25728 Y31.68946
G01 X22.36045 Y31.65817
G01 X22.45555 Y31.60734
G01 X22.53889 Y31.53894
G01 X22.60729 Y31.45560
G01 X22.65812 Y31.36050
G01 X22.68941 Y31.25733
G01 X22.69997 Y31.15001
G01 X22.69997 Y1.15002
G01 X22.68941 Y1.04273
G01 X22.65812 Y0.93956
G01 X22.60729 Y0.84446
G01 X22.53889 Y0.76112
G01 X22.45555 Y0.69272
G01 X22.36045 Y0.64190
G01 X22.25728 Y0.61060
G01 X22.14999 Y0.60004
G01 X12.69998 Y0.60004
G01 X10.59998 Y0.60004
G01 X1.14998 Y0.60004
G01 X1.04266 Y0.61060
G01 X0.93949 Y0.64190
G01 X0.84439 Y0.69272
G01 X0.76105 Y0.76112
G01 X0.69265 Y0.84446
G01 X0.64183 Y0.93956
G01 X0.61053 Y1.04273
G01 X0.59997 Y1.15002
G01 Z-1.00000 F100.00000 ( plunge. )
G04 P0 ( dwell for no time -- G64 should not smooth over this point )
G01 F200.00000
G01 X0.59997 Y31.15001
G01 X0.61053 Y31.25733
G01 X0.64183 Y31.36050
G01 X0.69265 Y31.45560
G01 X0.76105 Y31.53894
G01 X0.84439 Y31.60734
G01 X0.93949 Y31.65817
G01 X1.04266 Y31.68946
G01 X1.14998 Y31.70002
G01 X10.59998 Y31.70002
G00 Z-0.60000
G01 X12.69998 Y31.70002
G01 Z-1.00000 F100.00000
G01 F200.00000
G01 X22.14999 Y31.70002
G01 X22.25728 Y31.68946
G01 X22.36045 Y31.65817
G01 X22.45555 Y31.60734
G01 X22.53889 Y31.53894
G01 X22.60729 Y31.45560
G01 X22.65812 Y31.36050
G01 X22.68941 Y31.25733
G01 X22.69997 Y31.15001
G01 X22.69997 Y1.15002
G01 X22.68941 Y1.04273
G01 X22.65812 Y0.93956
G01 X22.60729 Y0.84446
G01 X22.53889 Y0.76112
G01 X22.45555 Y0.69272
G01 X22.36045 Y0.64190
G01 X22.25728 Y0.61060
G01 X22.14999 Y0.60004
G01 X12.69998 Y0.60004
G00 Z-0.60000
G01 X10.59998 Y0.60004
G01 Z-1.00000 F100.00000
G01 F200.00000
G01 X1.14998 Y0.60004
G01 X1.04266 Y0.61060
G01 X0.93949 Y0.64190
G01 X0.84439 Y0.69272
G01 X0.76105 Y0.76112
G01 X0.69265 Y0.84446
G01 X0.64183 Y0.93956
G01 X0.61053 Y1.04273
G01 X0.59997 Y1.15002
G01 Z-1.50000 F100.00000 ( plunge. )
G04 P0 ( dwell for no time -- G64 should not smooth over this point )
G01 F200.00000
G01 X0.59997 Y31.15001
G01 X0.61053 Y31.25733
G01 X0.64183 Y31.36050
G01 X0.69265 Y31.45560
G01 X0.76105 Y31.53894
G01 X0.84439 Y31.60734
G01 X0.93949 Y31.65817
G01 X1.04266 Y31.68946
G01 X1.14998 Y31.70002
G01 X10.59998 Y31.70002
G00 Z-0.60000
G01 X12.69998 Y31.70002
G01 Z-1.50000 F100.00000
G01 F200.00000
G01 X22.14999 Y31.70002
G01 X22.25728 Y31.68946
G01 X22.36045 Y31.65817
G01 X22.45555 Y31.60734
G01 X22.53889 Y31.53894
G01 X22.60729 Y31.45560
G01 X22.65812 Y31.36050
G01 X22.68941 Y31.25733
G01 X22.69997 Y31.15001
G01 X22.69997 Y1.15002
G01 X22.68941 Y1.04273
G01 X22.65812 Y0.93956
G01 X22.60729 Y0.84446
G01 X22.53889 Y0.76112
G01 X22.45555 Y0.69272
G01 X22.36045 Y0.64190
G01 X22.25728 Y0.61060
G01 X22.14999 Y0.60004
G01 X12.69998 Y0.60004
G00 Z-0.60000
G01 X10.59998 Y0.60004
G01 Z-1.50000 F100.00000
G01 F200.00000
G01 X1.14998 Y0.60004
G01 X1.04266 Y0.61060
G01 X0.93949 Y0.64190
G01 X0.84439 Y0.69272
G01 X0.76105 Y0.76112
G01 X0.69265 Y0.84446
G01 X0.64183 Y0.93956
G01 X0.61053 Y1.04273
G01 X0.59997 Y1.15002
G01 Z-2.00000 F100.00000 ( plunge. )
G04 P0 ( dwell for no time -- G64 should not smooth over this point )
G01 F200.00000
G01 X0.59997 Y31.15001
G01 X0.61053 Y31.25733
G01 X0.64183 Y31.36050
G01 X0.69265 Y31.45560
G01 X0.76105 Y31.53894
G01 X0.84439 Y31.60734
G01 X0.93949 Y31.65817
G01 X1.04266 Y31.68946
G01 X1.14998 Y31.70002
G01 X10.59998 Y31.70002
G00 Z-0.60000
G01 X12.69998 Y31.70002
G01 Z-2.00000 F100.00000
G01 F200.00000
G01 X22.14999 Y31.70002
G01 X22.25728 Y31.68946
G01 X22.36045 Y31.65817
G01 X22.45555 Y31.60734
G01 X22.53889 Y31.53894
G01 X22.60729 Y31.45560
G01 X22.65812 Y31.36050
G01 X22.68941 Y31.25733
G01 X22.69997 Y31.15001
G01 X22.69997 Y1.15002
G01 X22.68941 Y1.04273
G01 X22.65812 Y0.93956
G01 X22.60729 Y0.84446
G01 X22.53889 Y0.76112
G01 X22.45555 Y0.69272
G01 X22.36045 Y0.64190
G01 X22.25728 Y0.61060
G01 X22.14999 Y0.60004
G01 X12.69998 Y0.60004
G00 Z-0.60000
G01 X10.59998 Y0.60004
G01 Z-2.00000 F100.00000
G01 F200.00000
G01 X1.14998 Y0.60004
G01 X1.04266 Y0.61060
G01 X0.93949 Y0.64190
G01 X0.84439 Y0.69272
G01 X0.76105 Y0.76112
G01 X0.69265 Y0.84446
G01 X0.64183 Y0.93956
G01 X0.61053 Y1.04273
G01 X0.59997 Y1.15002
G01 Z-2.50000 F100.00000 ( plunge. )
G04 P0 ( dwell for no time -- G64 should not smooth over this point )
G01 F200.00000
G01 X0.59997 Y31.15001
G01 X0.61053 Y31.25733
G01 X0.64183 Y31.36050
G01 X0.69265 Y31.45560
G01 X0.76105 Y31.53894
G01 X0.84439 Y31.60734
G01 X0.93949 Y31.65817
G01 X1.04266 Y31.68946
G01 X1.14998 Y31.70002
G01 X10.59998 Y31.70002
G00 Z-0.60000
G01 X12.69998 Y31.70002
G01 Z-2.50000 F100.00000
G01 F200.00000
G01 X22.14999 Y31.70002
G01 X22.25728 Y31.68946
G01 X22.36045 Y31.65817
G01 X22.45555 Y31.60734
G01 X22.53889 Y31.53894
G01 X22.60729 Y31.45560
G01 X22.65812 Y31.36050
G01 X22.68941 Y31.25733
G01 X22.69997 Y31.15001
G01 X22.69997 Y1.15002
G01 X22.68941 Y1.04273
G01 X22.65812 Y0.93956
G01 X22.60729 Y0.84446
G01 X22.53889 Y0.76112
G01 X22.45555 Y0.69272
G01 X22.36045 Y0.64190
G01 X22.25728 Y0.61060
G01 X22.14999 Y0.60004
G01 X12.69998 Y0.60004
G00 Z-0.60000
G01 X10.59998 Y0.60004
G01 Z-2.50000 F100.00000
G01 F200.00000
G01 X1.14998 Y0.60004
G01 X1.04266 Y0.61060
G01 X0.93949 Y0.64190
G01 X0.84439 Y0.69272
G01 X0.76105 Y0.76112
G01 X0.69265 Y0.84446
G01 X0.64183 Y0.93956
G01 X0.61053 Y1.04273
G01 X0.59997 Y1.15002

G04 P0 ( dwell for no time -- G64 should not smooth over this point )
G00 Z10.000000 ( retract )

M5 ( Spindle off. )
G04 P1.000000
M9 ( Coolant off. )
M2 ( Program end. )

