( pcb2gcode 2.5.0 )
( Software-independent Gcode )

G94 ( Millimeters per minute feed rate. )
G21 ( Units == Millimeters. )

G90 ( Absolute coordinates. )
G00 S10000 ( RPM spindle speed. )
G64 P0.01016 ( set maximum deviation from commanded toolpath )
G01 F200.00000 ( Feedrate. )


G00 Z10.00000 (Retract to tool change height)
T0
M5      (Spindle stop.)
G04 P1.00000 (Wait for spindle to stop)
(MSG, Change tool bit to mill diameter 0.40000mm)
M6      (Tool change.)
M0      (Temporary machine stop.)
M3 ( Spindle on clockwise. )
G04 P1.00000 (Wait for spindle to get up to speed)
G04 P0 ( dwell for no time -- G64 should not smooth over this point )
G00 Z5.00000 ( retract )

G00 X2.62143 Y12.79969 ( rapid move to begin. )
G01 F100.00000
( Mill infeed pass 1/1 )
G01 Z-0.15000
G04 P0 ( dwell for no time -- G64 should not smooth over this point )
G01 F200.00000
G01 X2.62143 Y12.79969
G01 X2.67896 Y12.87104
G01 X3.25897 Y13.45105
G01 X3.31200 Y13.49583
G01 X3.34459 Y13.51760
G01 X3.40623 Y13.54947
G01 X3.47238 Y13.57053
G01 X3.56039 Y13.58308
G01 X3.73999 Y13.58404
G01 X3.73999 Y13.75501
G01 X3.74982 Y13.84858
G01 X3.77890 Y13.93804
G01 X3.82592 Y14.01953
G01 X3.88889 Y14.08943
G01 X3.96498 Y14.14472
G01 X4.05094 Y14.18300
G01 X4.15338 Y14.20337
G01 X5.01644 Y14.20365
G01 X5.10882 Y14.18841
G01 X5.14860 Y14.17548
G01 X5.21499 Y14.14472
G01 X5.29109 Y14.08943
G01 X5.31837 Y14.06078
G01 X5.39140 Y14.02979
G01 X5.45853 Y13.99545
G01 X5.50626 Y13.96791
G01 X5.62630 Y13.88691
G01 X5.63999 Y13.75501
G01 X5.63999 Y12.50500
G01 X5.62579 Y12.36987
G01 X5.58380 Y12.24064
G01 X5.51586 Y12.12296
G01 X5.42493 Y12.02197
G01 X5.35010 Y11.96489
G01 X5.31002 Y11.93957
G01 X5.48870 Y11.97185
G01 X5.61832 Y12.02578
G01 X5.80064 Y12.12212
G01 X6.01065 Y12.26281
G01 X6.03013 Y12.36942
G01 X6.03999 Y12.50475
G01 X6.03013 Y12.36942
G01 X6.01065 Y12.26281
G01 X6.03999 Y12.28504
G01 X6.03999 Y13.02814
G01 X5.75523 Y13.71554
G01 X5.70613 Y13.82242
G01 X5.62630 Y13.88691
G01 X5.70458 Y13.82562
G01 X5.75523 Y13.71554
G01 X5.83999 Y13.51094
G01 X5.83999 Y12.50500
G01 X5.83671 Y12.44229
G01 X5.82142 Y12.32829
G01 X5.80516 Y12.26761
G01 X5.76650 Y12.15928
G01 X5.72457 Y12.08008
G01 X5.61832 Y12.02578
G01 X5.48870 Y11.97185
G01 X5.24527 Y11.92794
G01 X5.10285 Y11.90787
G01 X4.98929 Y11.90254
G01 X4.16818 Y11.90282
G01 X3.79706 Y11.92458
G01 X3.76163 Y11.91755
G01 X3.74507 Y11.91031
G01 X3.74141 Y11.91696
G01 X3.74507 Y11.91031
G01 X3.70466 Y11.87434
G01 X3.70674 Y11.87282
G01 X3.62655 Y11.73038
G01 X3.58122 Y11.62885
G01 X3.53936 Y11.51031
G01 X3.51213 Y11.38677
G01 X3.49808 Y11.27805
G01 X3.49668 Y11.23878
G01 X3.49569 Y10.90003
G01 X3.49806 Y10.82730
G01 X3.51281 Y10.69629
G01 X3.53509 Y10.65151
G01 X3.52838 Y10.64572
G01 X3.53509 Y10.65151
G01 X3.55983 Y10.62918
G01 X3.68792 Y10.55400
G01 X4.04159 Y10.55400
G01 X3.45399 Y10.55403
G01 X3.45396 Y12.36197
G01 X3.53895 Y12.44694
G01 X3.65399 Y12.13858
G01 X3.65399 Y11.78181
G01 X3.71716 Y11.88758
G01 X3.74507 Y11.91031
G01 X3.77921 Y11.92169
G01 X3.79727 Y11.92260
G01 X3.91766 Y11.91757
G01 X3.86498 Y11.94209
G01 X3.75505 Y12.02197
G01 X3.66412 Y12.12296
G01 X3.65399 Y12.13858
G01 X3.53895 Y12.44694
G01 X3.73999 Y12.64798
G01 X3.73999 Y12.50500
G01 X3.74654 Y12.43213
G01 X3.75523 Y12.39123
G01 X3.78840 Y12.30332
G01 X3.82592 Y12.24051
G01 X3.88889 Y12.17061
G01 X3.96498 Y12.11531
G01 X4.05094 Y12.07704
G01 X4.12226 Y12.06075
G01 X4.18998 Y12.05501
G01 X5.02658 Y12.05666
G01 X5.10882 Y12.07163
G01 X5.14860 Y12.08453
G01 X5.21499 Y12.11531
G01 X5.29109 Y12.17061
G01 X5.35403 Y12.24051
G01 X5.40107 Y12.32199
G01 X5.43016 Y12.41145
G01 X5.43999 Y12.50500
G01 X5.43890 Y13.77591
G01 X5.43016 Y13.84858
G01 X5.40859 Y13.91851
G01 X5.39157 Y13.95669
G01 X5.35403 Y14.01953
G01 X5.29109 Y14.08943
G01 X5.21499 Y14.14472
G01 X5.12904 Y14.18300
G01 X5.03719 Y14.20253
G01 X4.17951 Y14.20474
G01 X4.12226 Y14.19928
G01 X4.07116 Y14.18841
G01 X3.98363 Y14.15422
G01 X3.90514 Y14.10261
G01 X3.86163 Y14.06080
G01 X3.78843 Y14.02974
G01 X3.66923 Y13.96527
G01 X3.62158 Y13.89042
G01 X3.57227 Y13.79801
G01 X3.55437 Y13.77203
G01 X3.55800 Y13.76857
G01 X3.55437 Y13.77203
G01 X3.52925 Y13.75293
G01 X3.41261 Y13.68790
G01 X3.34723 Y13.64427
G01 X3.25396 Y13.57063
G01 X3.19356 Y13.51473
G01 X2.70497 Y13.02613
G01 X2.65833 Y12.91216
G01 X2.62143 Y12.79969
G01 X2.58889 Y12.74188
G01 X2.56392 Y12.67521
G01 X2.54972 Y12.60546
G01 X2.54596 Y12.55001
G01 X2.54596 Y8.02053
G01 X2.62290 Y7.93003
G01 X2.71215 Y7.78720
G01 X2.74238 Y7.75380
G01 X3.53651 Y6.95812
G01 X3.62554 Y6.89765
G01 X3.71822 Y6.86747
G01 X3.88734 Y6.86414
G01 X3.94276 Y6.85962
G01 X4.01616 Y6.82668
G01 X4.06138 Y6.81962
G01 X5.26249 Y6.81817
G01 X5.33379 Y6.82668
G01 X5.35055 Y6.83361
G01 X5.40958 Y6.86397
G01 X5.46028 Y6.91306
G01 X5.48784 Y6.95795
G01 X5.50557 Y6.99879
G01 X5.51431 Y7.07001
G01 X5.51431 Y7.37003
G01 X5.50748 Y7.43310
G01 X5.49691 Y7.46264
G01 X5.46884 Y7.51738
G01 X5.42312 Y7.56450
G01 X5.39790 Y7.58309
G01 X5.35063 Y7.60641
G01 X5.33379 Y7.61339
G01 X5.28855 Y7.62045
G01 X4.08749 Y7.62188
G01 X4.02493 Y7.61492
G01 X3.93626 Y7.59739
G01 X3.90209 Y7.61583
G01 X3.85231 Y7.65261
G01 X3.41167 Y8.09157
G01 X3.36577 Y8.15157
G01 X3.36100 Y8.17313
G01 X3.35599 Y8.21824
G01 X3.35582 Y8.49825
G01 X3.36958 Y8.59439
G01 X3.40347 Y8.68436
G01 X3.43816 Y8.74448
G01 X3.45399 Y8.76234
G01 X3.45399 Y8.91326
G01 X3.49668 Y8.96155
G01 X3.49668 Y9.33874
G01 X3.50651 Y9.45035
G01 X3.51906 Y9.51936
G01 X3.51434 Y9.52116
G01 X3.51906 Y9.51936
G01 X3.52584 Y9.53462
G01 X3.54652 Y9.56073
G01 X3.54306 Y9.56434
G01 X3.54652 Y9.56073
G01 X3.62023 Y9.60920
G01 X3.68790 Y9.64600
G01 X3.55983 Y9.57087
G01 X3.53509 Y9.54854
G01 X3.51906 Y9.51936
G01 X3.50651 Y9.45035
G01 X3.49679 Y9.34135
G01 X3.49668 Y8.96155
G01 X3.45399 Y8.91326
G01 X3.45399 Y8.76239
G01 X3.45399 Y9.64600
G01 X4.05632 Y9.64681
G01 X3.98434 Y9.63444
G01 X3.91248 Y9.60313
G01 X3.86956 Y9.57328
G01 X3.83849 Y9.54532
G01 X3.80433 Y9.50574
G01 X3.78221 Y9.46962
G01 X3.70507 Y9.42622
G01 X3.69572 Y9.29856
G01 X3.69874 Y8.92855
G01 X3.69392 Y8.89198
G01 X3.70468 Y8.88804
G01 X3.69392 Y8.89198
G01 X3.67616 Y8.85967
G01 X3.59943 Y8.77585
G01 X3.53034 Y8.78497
G01 X3.49559 Y8.78192
G01 X3.46374 Y8.77338
G01 X3.43816 Y8.74448
G01 X3.46374 Y8.77338
G01 X3.49559 Y8.78192
G01 X3.53034 Y8.78497
G01 X3.62432 Y8.77143
G01 X3.66201 Y8.76089
G01 X3.69694 Y8.74321
G01 X3.72775 Y8.71905
G01 X3.80753 Y8.64278
G01 X3.90733 Y8.58375
G01 X4.02109 Y8.55070
G01 X4.22495 Y8.55004
G01 X4.22495 Y8.65047
G01 X4.05068 Y8.65195
G01 X3.97933 Y8.66714
G01 X3.91248 Y8.69691
G01 X3.85330 Y8.73991
G01 X3.80433 Y8.79429
G01 X3.76775 Y8.85766
G01 X3.75056 Y8.90701
G01 X3.74187 Y8.94791
G01 X3.73748 Y9.00000
G01 X3.73748 Y9.30000
G01 X3.74515 Y9.37277
G01 X3.76775 Y9.44237
G01 X3.80433 Y9.50574
G01 X3.85330 Y9.56012
G01 X3.91248 Y9.60313
G01 X3.98434 Y9.63444
G01 X4.04667 Y9.64605
G01 X4.08749 Y9.64803
G01 X5.72259 Y9.64600
G01 X5.29363 Y9.64679
G01 X5.36564 Y9.63444
G01 X5.44255 Y9.60003
G01 X5.69853 Y9.60003
G01 X5.71695 Y9.64285
G01 X5.79960 Y9.68392
G01 X5.86523 Y9.69322
G01 X5.97034 Y9.69817
G01 X7.13747 Y9.69817
G01 X7.20879 Y9.70666
G01 X7.28459 Y9.74397
G01 X7.31367 Y9.77031
G01 X7.34384 Y9.80267
G01 X7.38057 Y9.87879
G01 X7.38934 Y9.95004
G01 X7.38934 Y10.25001
G01 X7.38057 Y10.32126
G01 X7.34809 Y10.38979
G01 X7.27158 Y10.51262
G01 X7.23180 Y10.58659
G01 X7.18898 Y10.59573
G01 X5.96262 Y10.59802
G01 X5.92155 Y10.59604
G01 X5.85934 Y10.58443
G01 X5.78975 Y10.55403
G01 X5.30341 Y10.55403
G01 X5.36564 Y10.56558
G01 X5.43524 Y10.59601
G01 X5.92155 Y10.59604
G01 X5.43524 Y10.59601
G01 X5.36564 Y10.56558
G01 X5.30341 Y10.55403
G01 X5.26234 Y10.55202
G01 X4.07166 Y10.55243
G01 X4.03024 Y10.55519
G01 X3.97933 Y10.56713
G01 X3.93115 Y10.58740
G01 X3.89493 Y10.60831
G01 X3.85330 Y10.63990
G01 X3.81751 Y10.67803
G01 X3.79292 Y10.71184
G01 X3.76023 Y10.77719
G01 X3.74515 Y10.82725
G01 X3.73748 Y10.90003
G01 X3.69572 Y10.90132
G01 X3.73748 Y10.90003
G01 X3.73859 Y11.22093
G01 X3.74515 Y11.27277
G01 X3.76775 Y11.34237
G01 X3.80433 Y11.40574
G01 X3.83849 Y11.44531
G01 X3.89493 Y11.49172
G01 X3.93115 Y11.51262
G01 X3.98434 Y11.53444
G01 X4.08749 Y11.55001
G01 X5.26249 Y11.55001
G01 X5.36564 Y11.53444
G01 X5.43521 Y11.50404
G01 X10.81498 Y11.50404
G01 X10.90355 Y11.49530
G01 X10.96103 Y11.47887
G01 X11.03109 Y11.40162
G01 X11.09454 Y11.35159
G01 X11.15997 Y11.31659
G01 X11.21201 Y11.29505
G01 X13.65999 Y11.29502
G01 X13.69900 Y11.29886
G01 X13.73652 Y11.31024
G01 X13.77111 Y11.32873
G01 X13.80141 Y11.35359
G01 X13.82628 Y11.38390
G01 X13.84477 Y11.41846
G01 X13.85615 Y11.45601
G01 X13.85999 Y11.49502
G01 X13.85999 Y12.49502
G01 X13.85615 Y12.53403
G01 X13.84477 Y12.57155
G01 X13.82628 Y12.60612
G01 X13.80141 Y12.63645
G01 X13.77111 Y12.66131
G01 X13.73652 Y12.67978
G01 X13.69900 Y12.69118
G01 X13.65999 Y12.69502
G01 X11.15999 Y12.69502
G01 X11.12098 Y12.69118
G01 X11.08346 Y12.67978
G01 X11.04887 Y12.66131
G01 X11.01856 Y12.63645
G01 X10.99370 Y12.60612
G01 X10.97521 Y12.57155
G01 X10.96383 Y12.53403
G01 X10.95999 Y12.44902
G01 X9.01303 Y12.44904
G01 X8.53998 Y12.92207
G01 X8.53998 Y13.75501
G01 X8.53343 Y13.82791
G01 X8.50859 Y13.91851
G01 X8.49157 Y13.95669
G01 X8.45405 Y14.01953
G01 X8.39109 Y14.08943
G01 X8.31499 Y14.14472
G01 X8.24859 Y14.17548
G01 X8.20882 Y14.18841
G01 X8.12660 Y14.20337
G01 X7.25842 Y14.20363
G01 X6.44100 Y15.02105
G01 X6.37222 Y15.07751
G01 X6.31146 Y15.11109
G01 X6.27524 Y15.12608
G01 X6.20857 Y15.14530
G01 X6.12000 Y15.15404
G01 X3.32498 Y15.15404
G01 X3.23854 Y15.14538
G01 X3.16994 Y15.12638
G01 X3.10514 Y15.09687
G01 X3.04578 Y15.05760
G01 X3.00395 Y15.02105
G01 X1.65396 Y13.67104
G01 X1.60918 Y13.61800
G01 X1.56392 Y13.54150
G01 X1.53448 Y13.45763
G01 X1.52684 Y13.41917
G01 X1.52097 Y13.35001
G01 X1.52097 Y4.52501
G01 X1.52539 Y4.47050
G01 X1.54083 Y4.45726
G01 X1.52422 Y4.47149
G01 X1.49318 Y4.46877
G01 X1.45950 Y4.45973
G01 X1.41112 Y4.43532
G01 X1.34729 Y4.39493
G01 X1.32262 Y4.37029
G01 X1.30263 Y4.34175
G01 X1.26735 Y4.25363
G01 X1.25831 Y4.21995
G01 X1.25526 Y4.18520
G01 X1.25526 Y1.54322
G01 X1.14998 Y1.26205
G01 X1.14995 Y2.78506
G01 X1.14998 Y1.15001
G01 X1.25734 Y1.15001
G01 X1.22951 Y1.16951
G01 X1.18020 Y1.21884
G01 X1.14998 Y1.26205
G01 X1.25526 Y1.54322
G01 X1.26202 Y1.48178
G01 X1.27076 Y1.45412
G01 X1.31345 Y1.37594
G01 X1.33344 Y1.34736
G01 X1.35808 Y1.32270
G01 X1.38666 Y1.30271
G01 X1.47477 Y1.26741
G01 X1.50845 Y1.25836
G01 X1.54320 Y1.25532
G01 X13.75679 Y1.25532
G01 X13.81805 Y1.26202
G01 X13.84584 Y1.27076
G01 X13.92415 Y1.31353
G01 X13.95267 Y1.33352
G01 X13.97733 Y1.35816
G01 X13.99732 Y1.38671
G01 X14.03260 Y1.47482
G01 X14.04165 Y1.50850
G01 X14.04469 Y1.54322
G01 X14.04469 Y3.29186
G01 X14.03921 Y3.34452
G01 X14.03199 Y3.37627
G01 X14.01973 Y3.40647
G01 X13.96728 Y3.48282
G01 X13.94434 Y3.50908
G01 X13.91719 Y3.53095
G01 X13.88666 Y3.54777
G01 X13.85366 Y3.55904
G01 X13.76087 Y3.57883
G01 X13.69712 Y3.57505
G01 X12.85999 Y3.57505
G01 X12.85999 Y3.67502
G01 X13.65999 Y3.67502
G01 X13.69900 Y3.67886
G01 X13.73652 Y3.69024
G01 X13.77111 Y3.70873
G01 X13.80141 Y3.73359
G01 X13.82628 Y3.76390
G01 X13.84477 Y3.79846
G01 X13.85615 Y3.83601
G01 X13.85999 Y3.87502
G01 X13.85999 Y4.87502
G01 X13.85615 Y4.91403
G01 X13.84477 Y4.95155
G01 X13.82628 Y4.98612
G01 X13.80141 Y5.01645
G01 X13.77111 Y5.04131
G01 X13.73652 Y5.05978
G01 X13.69900 Y5.07118
G01 X13.65999 Y5.07502
G01 X12.85999 Y5.07502
G01 X12.85999 Y5.17502
G01 X13.69704 Y5.17504
G01 X13.77883 Y5.17172
G01 X13.81122 Y5.17547
G01 X13.84259 Y5.18447
G01 X13.87208 Y5.19841
G01 X13.95267 Y5.24847
G01 X13.97731 Y5.27311
G01 X13.99730 Y5.30166
G01 X14.03260 Y5.38972
G01 X14.04165 Y5.42340
G01 X14.04469 Y5.45815
G01 X14.04469 Y6.13697
G01 X14.03525 Y6.20583
G01 X14.02559 Y6.24001
G01 X14.01005 Y6.27197
G01 X13.94947 Y6.34586
G01 X13.92422 Y6.37004
G01 X13.89516 Y6.38944
G01 X13.85938 Y6.40440
G01 X13.82440 Y6.38020
G01 X13.75775 Y6.34311
G01 X13.71881 Y6.32698
G01 X13.66999 Y6.31342
G01 X11.15997 Y6.31317
G01 X11.12062 Y6.32002
G01 X11.08727 Y6.34233
G01 X11.06497 Y6.37568
G01 X11.05138 Y6.44194
G01 X11.02636 Y6.52744
G01 X10.96781 Y6.54542
G01 X10.87173 Y6.55919
G01 X7.57907 Y6.55919
G01 X7.50892 Y6.55116
G01 X7.40882 Y6.52099
G01 X7.38934 Y6.36940
G01 X7.38814 Y6.09226
G01 X7.36769 Y5.98091
G01 X7.43633 Y5.88693
G01 X7.94854 Y5.37438
G01 X7.97760 Y5.34230
G01 X8.01494 Y5.27550
G01 X8.03010 Y5.24113
G01 X8.04732 Y5.14405
G01 X8.04580 Y4.30786
G01 X8.05395 Y4.23382
G01 X8.07445 Y4.16448
G01 X8.25517 Y4.09760
G01 X8.33419 Y4.04004
G01 X8.36810 Y4.00027
G01 X8.40229 Y3.95010
G01 X8.43820 Y3.84792
G01 X8.44184 Y3.78500
G01 X8.44184 Y2.53502
G01 X8.43820 Y2.47213
G01 X8.40229 Y2.36997
G01 X8.33985 Y2.28516
G01 X8.25517 Y2.22245
G01 X8.18850 Y2.19720
G01 X8.13770 Y2.18501
G01 X7.26383 Y2.18386
G01 X7.22716 Y2.18722
G01 X7.12479 Y2.22245
G01 X7.04011 Y2.28516
G01 X6.97765 Y2.36997
G01 X6.94760 Y2.45125
G01 X6.94176 Y2.47215
G01 X6.93813 Y2.53502
G01 X6.93813 Y3.78500
G01 X6.94176 Y3.84789
G01 X6.97765 Y3.95010
G01 X7.01187 Y4.00029
G01 X7.04580 Y4.04007
G01 X7.12479 Y4.09760
G01 X7.30656 Y4.16339
G01 X7.32035 Y4.21182
G01 X7.33412 Y4.30786
G01 X7.33412 Y4.90405
G01 X7.32416 Y4.97850
G01 X7.30168 Y5.01058
G01 X7.27854 Y5.03821
G01 X6.50415 Y5.81261
G01 X6.44438 Y5.85825
G01 X6.36996 Y5.86826
G01 X5.97034 Y5.86856
G01 X5.86534 Y5.86323
G01 X5.74260 Y5.84863
G01 X5.72371 Y5.82516
G01 X5.70692 Y5.79460
G01 X5.69856 Y5.77004
G01 X5.58266 Y5.77004
G01 X5.56386 Y5.80255
G01 X5.55853 Y5.82018
G01 X5.55144 Y5.81863
G01 X5.55853 Y5.82018
G01 X5.55650 Y5.83847
G01 X5.56155 Y5.87862
G01 X5.60110 Y5.88767
G01 X5.63610 Y5.90359
G01 X5.67298 Y5.92485
G01 X5.67539 Y5.93628
G01 X5.67298 Y5.92485
G01 X5.60110 Y5.88767
G01 X5.56371 Y5.87872
G01 X5.52531 Y5.87710
G01 X5.46285 Y5.88180
G01 X5.32881 Y5.91936
G01 X5.12498 Y5.92002
G01 X5.12498 Y5.81954
G01 X5.29930 Y5.81807
G01 X5.37065 Y5.80288
G01 X5.44255 Y5.77004
G01 X5.69856 Y5.77004
G01 X5.70692 Y5.79460
G01 X5.72371 Y5.82516
G01 X5.74260 Y5.84863
G01 X5.71349 Y5.87471
G01 X5.67285 Y5.92424
G01 X5.69335 Y6.01604
G01 X5.71062 Y6.16336
G01 X5.71172 Y6.44614
G01 X5.71939 Y6.49127
G01 X5.73709 Y6.53204
G01 X5.75609 Y6.56737
G01 X5.78629 Y6.59978
G01 X5.81535 Y6.62607
G01 X5.84598 Y6.64316
G01 X5.89117 Y6.66338
G01 X5.93638 Y6.67120
G01 X6.37770 Y6.67197
G01 X6.44435 Y6.68177
G01 X6.50415 Y6.72744
G01 X6.98248 Y7.20295
G01 X7.08309 Y7.25551
G01 X7.14717 Y7.26826
G01 X7.18093 Y7.27245
G01 X10.87173 Y7.27087
G01 X10.96484 Y7.28380
G01 X11.02626 Y7.30278
G01 X11.05108 Y7.38698
G01 X11.06497 Y7.45439
G01 X11.08725 Y7.48774
G01 X11.12062 Y7.51004
G01 X11.15997 Y7.51687
G01 X13.66999 Y7.51662
G01 X13.73840 Y7.49493
G01 X13.85879 Y7.42721
G01 X13.92407 Y7.46335
G01 X13.95579 Y7.48647
G01 X14.03499 Y7.44075
G01 X14.13837 Y7.39066
G01 X14.14995 Y7.40722
G01 X14.13837 Y7.39066
G01 X14.03499 Y7.44075
G01 X13.95579 Y7.48647
G01 X13.95264 Y7.48334
G01 X13.97731 Y7.50798
G01 X13.99730 Y7.53656
G01 X14.01203 Y7.56815
G01 X14.04165 Y7.65835
G01 X14.04469 Y7.69307
G01 X14.04469 Y8.67697
G01 X14.03525 Y8.74583
G01 X14.02559 Y8.78001
G01 X14.01005 Y8.81197
G01 X13.98909 Y8.84064
G01 X13.92422 Y8.91004
G01 X13.89516 Y8.92944
G01 X13.85892 Y8.94407
G01 X13.89516 Y8.92944
G01 X13.92422 Y8.91004
G01 X13.95140 Y8.88367
G01 X14.06677 Y8.94966
G01 X14.13436 Y8.97836
G01 X14.14995 Y8.95814
G01 X14.13436 Y8.97836
G01 X14.14995 Y8.98499
G01 X14.14995 Y7.38502
G01 X14.03499 Y7.44075
G01 X13.95579 Y7.48649
G01 X13.92407 Y7.46335
G01 X13.85879 Y7.42721
G01 X13.85999 Y7.31088
G01 X13.94449 Y7.26236
G01 X14.14995 Y7.16277
G01 X14.14995 Y6.66229
G01 X13.98318 Y6.59145
G01 X13.85999 Y6.52180
G01 X13.97261 Y6.58622
G01 X14.05999 Y6.62406
G01 X14.05999 Y7.20638
G01 X13.94449 Y7.26236
G01 X13.85999 Y7.31088
G01 X13.85892 Y6.40407
G01 X13.89516 Y6.38944
G01 X13.92422 Y6.37004
G01 X13.95140 Y6.34367
G01 X14.06677 Y6.40966
G01 X14.13436 Y6.43836
G01 X14.14995 Y6.41814
G01 X14.13436 Y6.43836
G01 X14.14995 Y6.44499
G01 X14.14995 Y5.17233
G01 X14.13052 Y5.14456
G01 X14.08125 Y5.09526
G01 X14.01716 Y5.05124
G01 X13.96725 Y5.06737
G01 X14.01716 Y5.05124
G01 X14.02953 Y5.02808
G01 X14.05229 Y4.95305
G01 X14.05999 Y4.87502
G01 X14.05999 Y3.87502
G01 X14.05229 Y3.79697
G01 X14.02953 Y3.72193
G01 X14.01904 Y3.70230
G01 X13.97403 Y3.68891
G01 X14.01904 Y3.70230
G01 X14.02862 Y3.69702
G01 X14.08292 Y3.65328
G01 X14.14995 Y3.57174
G01 X14.14995 Y1.25735
G01 X14.13055 Y1.22961
G01 X14.08125 Y1.18033
G01 X14.03799 Y1.15001
G01 X14.08125 Y1.18033
G01 X14.13055 Y1.22961
G01 X14.14998 Y1.25737
G01 X14.14995 Y5.17233
G01 X14.14998 Y1.15001
G01 X1.14998 Y1.15001
G01 X1.14995 Y4.47106
G01 X1.16941 Y4.49884
G01 X1.22625 Y4.55343
G01 X1.16941 Y4.49884
G01 X1.14995 Y4.47106
G01 X1.14995 Y4.59508
G01 X1.28224 Y4.52112
G01 X1.41112 Y4.43532
G01 X1.45950 Y4.45973
G01 X1.49318 Y4.46877
G01 X1.52422 Y4.47149
G01 X1.54083 Y4.45726
G01 X1.63464 Y4.37136
G01 X1.72336 Y4.27339
G01 X3.09686 Y2.89776
G01 X3.13397 Y2.86971
G01 X3.18028 Y2.84020
G01 X3.27847 Y2.80746
G01 X3.39280 Y2.80306
G01 X3.64748 Y2.80418
G01 X3.74441 Y2.79041
G01 X3.80534 Y2.77142
G01 X3.83011 Y2.68465
G01 X3.83745 Y2.63207
G01 X3.84258 Y2.46855
G01 X3.87225 Y2.38170
G01 X3.89925 Y2.33697
G01 X3.94009 Y2.28516
G01 X4.02478 Y2.22245
G01 X4.09145 Y2.19720
G01 X4.12716 Y2.18722
G01 X4.15848 Y2.18394
G01 X5.01626 Y2.18386
G01 X5.05279 Y2.18722
G01 X5.15518 Y2.22245
G01 X5.23986 Y2.28516
G01 X5.30229 Y2.36997
G01 X5.33821 Y2.47213
G01 X5.34184 Y2.53502
G01 X5.33950 Y3.83476
G01 X5.33234 Y3.86880
G01 X5.30229 Y3.95010
G01 X5.23986 Y4.03491
G01 X5.21746 Y4.05371
G01 X5.15518 Y4.09760
G01 X5.08850 Y4.12285
G01 X5.05276 Y4.13286
G01 X5.02147 Y4.13613
G01 X4.18462 Y4.13682
G01 X4.14019 Y4.13484
G01 X4.09145 Y4.12285
G01 X4.02478 Y4.09760
G01 X3.96249 Y4.05371
G01 X3.94009 Y4.03489
G01 X3.87766 Y3.95008
G01 X3.84266 Y3.85180
G01 X3.83496 Y3.66971
G01 X3.82437 Y3.60962
G01 X3.80534 Y3.54866
G01 X3.71860 Y3.52389
G01 X3.66504 Y3.51655
G01 X3.56735 Y3.51589
G01 X3.49150 Y3.52585
G01 X3.43179 Y3.57144
G01 X2.38640 Y4.61685
G01 X2.34078 Y4.67657
G01 X2.33601 Y4.69813
G01 X2.33082 Y4.75102
G01 X2.33082 Y7.73803
G01 X2.34459 Y7.83409
G01 X2.37847 Y7.92401
G01 X2.41317 Y7.98413
G01 X2.43339 Y8.01090
G01 X2.47060 Y8.02157
G01 X2.50537 Y8.02462
G01 X2.54596 Y8.02053
G01 X2.50537 Y8.02462
G01 X2.47060 Y8.02157
G01 X2.43689 Y8.01255
G01 X2.42897 Y8.00506
G01 X2.42897 Y12.85422
G01 X2.47172 Y12.98415
G01 X2.52780 Y13.12103
G01 X2.54947 Y13.15349
G01 X2.54596 Y13.15580
G01 X2.54947 Y13.15349
G01 X3.12097 Y13.72118
G01 X3.23415 Y13.80924
G01 X3.30771 Y13.85821
G01 X3.40710 Y13.91440
G01 X3.47979 Y14.04167
G01 X3.52445 Y14.10670
G01 X3.54731 Y14.12544
G01 X3.54276 Y14.13058
G01 X3.54731 Y14.12544
G01 X3.69976 Y14.20904
G01 X3.78609 Y14.24602
G01 X3.70458 Y14.21135
G01 X3.62808 Y14.17238
G01 X3.53517 Y14.11691
G01 X3.51533 Y14.09499
G01 X3.47776 Y14.03847
G01 X3.40710 Y13.91440
G01 X3.30771 Y13.85821
G01 X3.23415 Y13.80924
G01 X3.12150 Y13.72052
G01 X3.05300 Y13.65702
G01 X2.54947 Y13.15349
G01 X2.52780 Y13.12103
G01 X2.48226 Y13.01107
G01 X2.42897 Y12.85422
G01 X2.42900 Y13.16197
G01 X3.51302 Y14.24602
G01 X5.39384 Y14.24602
G01 X5.47522 Y14.21140
G01 X5.55655 Y14.17035
G01 X5.70529 Y14.07675
G01 X5.84657 Y13.96827
G01 X5.86671 Y13.94673
G01 X5.87138 Y13.95034
G01 X5.86671 Y13.94673
G01 X5.93849 Y13.79568
G01 X6.02475 Y13.58755
G01 X6.43999 Y13.17228
G01 X6.45520 Y13.17858
G01 X6.43999 Y13.17228
G01 X6.43999 Y12.50500
G01 X6.44326 Y12.44229
G01 X6.45855 Y12.32829
G01 X6.47481 Y12.26761
G01 X6.51347 Y12.15928
G01 X6.55540 Y12.08006
G01 X6.47925 Y12.12215
G01 X6.26935 Y12.26279
G01 X6.24984 Y12.36942
G01 X6.23999 Y12.50500
G01 X6.23999 Y13.04803
G01 X6.23656 Y13.07391
G01 X6.23999 Y13.07462
G01 X6.23656 Y13.07391
G01 X5.93849 Y13.79568
G01 X5.87417 Y13.93398
G01 X5.84657 Y13.96827
G01 X5.74758 Y14.04602
G01 X5.84908 Y14.04602
G01 X5.85540 Y14.06126
G01 X5.84908 Y14.04602
G01 X6.63998 Y13.25514
G01 X6.65520 Y13.26144
G01 X6.63998 Y13.25514
G01 X6.63998 Y12.50500
G01 X6.65418 Y12.36987
G01 X6.68118 Y12.27973
G01 X6.71519 Y12.20332
G01 X6.76411 Y12.12296
G01 X6.85505 Y12.02197
G01 X6.92988 Y11.96489
G01 X7.00229 Y11.92309
G01 X7.04951 Y11.90208
G01 X7.12457 Y11.89014
G01 X7.29063 Y11.87953
G01 X8.00882 Y11.87953
G01 X8.03470 Y11.87612
G01 X8.03544 Y11.87980
G01 X8.03470 Y11.87612
G01 X8.48832 Y11.68966
G01 X8.50396 Y11.67401
G01 X8.48829 Y11.68966
G01 X8.04709 Y11.87193
G01 X8.02187 Y11.87869
G01 X7.24354 Y11.88047
G01 X7.12457 Y11.89014
G01 X7.02624 Y11.90576
G01 X6.87349 Y11.94417
G01 X6.70902 Y12.00467
G01 X6.52703 Y12.09459
G01 X6.31964 Y12.22621
G01 X6.23996 Y12.28504
G01 X6.23999 Y13.08945
G01 X6.24415 Y13.09032
G01 X6.23999 Y13.08945
G01 X6.22475 Y13.10467
G01 X5.93950 Y13.79329
G01 X5.86671 Y13.94673
G01 X5.84657 Y13.96827
G01 X5.75756 Y14.03878
G01 X5.61319 Y14.13692
G01 X5.48007 Y14.20909
G01 X5.39384 Y14.24602
G01 X5.93193 Y14.24602
G01 X6.83998 Y13.33797
G01 X6.83998 Y12.50500
G01 X6.84981 Y12.41145
G01 X6.87890 Y12.32199
G01 X6.91453 Y12.25806
G01 X6.93910 Y12.22423
G01 X6.98888 Y12.17061
G01 X7.04743 Y12.12669
G01 X7.13137 Y12.08453
G01 X7.22228 Y12.06075
G01 X7.27953 Y12.05529
G01 X8.12157 Y12.05639
G01 X8.50396 Y11.67401
G01 X8.55700 Y11.62923
G01 X8.63350 Y11.58397
G01 X8.71737 Y11.55453
G01 X8.75583 Y11.54689
G01 X8.82499 Y11.54102
G01 X10.95999 Y11.54105
G01 X10.96162 Y11.47808
G01 X10.99451 Y11.43881
G01 X11.05445 Y11.38123
G01 X11.09454 Y11.35159
G01 X11.15997 Y11.31659
G01 X11.21201 Y11.29505
G01 X11.47340 Y11.29502
G01 X12.43906 Y10.89502
G01 X13.65999 Y10.89502
G01 X13.77703 Y10.90655
G01 X13.88960 Y10.94069
G01 X13.99334 Y10.99614
G01 X14.08424 Y11.07074
G01 X14.14995 Y11.15082
G01 X14.14995 Y10.86718
G01 X14.09547 Y10.82504
G01 X12.60802 Y10.82504
G01 X12.43906 Y10.89502
G01 X12.60802 Y10.82504
G01 X14.14995 Y10.82502
G01 X14.14995 Y12.83921
G01 X14.08424 Y12.91927
G01 X13.99334 Y12.99390
G01 X13.88960 Y13.04935
G01 X13.77703 Y13.08349
G01 X13.65999 Y13.09502
G01 X11.15999 Y13.09502
G01 X11.04292 Y13.08349
G01 X10.93038 Y13.04935
G01 X10.82664 Y12.99390
G01 X10.73573 Y12.91927
G01 X10.67808 Y12.84904
G01 X10.68407 Y12.83429
G01 X10.67808 Y12.84904
G01 X9.17871 Y12.84904
G01 X9.17242 Y12.83380
G01 X9.17871 Y12.84904
G01 X8.93998 Y13.08775
G01 X8.92477 Y13.08145
G01 X8.93998 Y13.08775
G01 X8.93998 Y13.75501
G01 X8.93124 Y13.86972
G01 X8.92141 Y13.93174
G01 X8.88900 Y14.04211
G01 X8.86650 Y14.10073
G01 X8.83800 Y14.15669
G01 X8.77765 Y14.25463
G01 X8.73813 Y14.30345
G01 X8.65875 Y14.38668
G01 X8.56767 Y14.45694
G01 X8.51499 Y14.49113
G01 X8.45903 Y14.51965
G01 X8.35266 Y14.56342
G01 X8.24087 Y14.59054
G01 X8.14753 Y14.60281
G01 X8.08999 Y14.60502
G01 X7.42274 Y14.60502
G01 X7.41651 Y14.58988
G01 X7.42274 Y14.60502
G01 X6.72386 Y15.30390
G01 X6.68022 Y15.34345
G01 X6.59444 Y15.41010
G01 X6.54395 Y15.44038
G01 X6.44679 Y15.48902
G01 X6.39134 Y15.50886
G01 X6.28659 Y15.53763
G01 X6.22835 Y15.54627
G01 X6.12000 Y15.55404
G01 X3.32498 Y15.55404
G01 X3.23816 Y15.54906
G01 X3.14517 Y15.53433
G01 X3.01685 Y15.49593
G01 X2.98005 Y15.48066
G01 X2.86217 Y15.41711
G01 X2.78599 Y15.36176
G01 X2.72110 Y15.30390
G01 X1.37111 Y13.95389
G01 X1.29999 Y13.87177
G01 X1.23464 Y13.77396
G01 X1.21117 Y13.73007
G01 X1.16616 Y13.62138
G01 X1.14998 Y13.56502
G01 X1.14995 Y4.81919
G01 X1.14998 Y14.29842
G01 X2.43824 Y15.58673
G01 X2.50758 Y15.65000
G01 X2.21868 Y15.65000
G01 X1.14998 Y14.58127
G01 X1.14995 Y14.00426
G01 X1.22968 Y14.09529
G01 X2.57967 Y15.44530
G01 X2.65610 Y15.51383
G01 X2.75767 Y15.58762
G01 X2.87322 Y15.65003
G01 X2.75767 Y15.58762
G01 X2.65610 Y15.51383
G01 X2.57967 Y15.44530
G01 X1.22968 Y14.09529
G01 X1.14995 Y14.00426
G01 X1.14995 Y14.86413
G01 X1.93585 Y15.65003
G01 X7.79195 Y15.65000
G01 X7.83696 Y15.60502
G01 X7.83074 Y15.59021
G01 X7.83696 Y15.60502
G01 X8.17371 Y15.60281
G01 X8.44877 Y15.56867
G01 X8.66167 Y15.51447
G01 X8.86576 Y15.43319
G01 X9.01499 Y15.35717
G01 X9.15545 Y15.26595
G01 X9.32789 Y15.12984
G01 X9.48128 Y14.97256
G01 X9.58666 Y14.84241
G01 X9.70401 Y14.65669
G01 X9.78003 Y14.50749
G01 X9.84005 Y14.35112
G01 X9.89957 Y14.13964
G01 X9.93122 Y13.92227
G01 X9.93505 Y13.84904
G01 X9.89058 Y13.79877
G01 X9.93505 Y13.84904
G01 X10.31536 Y13.84904
G01 X10.31686 Y13.84305
G01 X10.31536 Y13.84904
G01 X10.54770 Y13.97322
G01 X10.84785 Y14.06428
G01 X11.15999 Y14.09501
G01 X13.65999 Y14.09501
G01 X13.97213 Y14.06428
G01 X14.14995 Y14.01033
G01 X14.14995 Y13.80233
G01 X13.93311 Y13.86812
G01 X13.65999 Y13.89502
G01 X11.15999 Y13.89502
G01 X10.88686 Y13.86812
G01 X10.62423 Y13.78844
G01 X10.38219 Y13.65907
G01 X10.36995 Y13.64904
G01 X10.37155 Y13.64277
G01 X10.36995 Y13.64904
G01 X9.73998 Y13.64904
G01 X9.68524 Y13.59258
G01 X9.73998 Y13.64904
G01 X9.73998 Y13.75501
G01 X9.72685 Y13.95333
G01 X9.70394 Y14.09806
G01 X9.64986 Y14.28933
G01 X9.59733 Y14.42613
G01 X9.53081 Y14.55669
G01 X9.42487 Y14.72486
G01 X9.33264 Y14.83875
G01 X9.19406 Y14.98120
G01 X9.08016 Y15.07342
G01 X8.91499 Y15.18396
G01 X8.73668 Y15.27175
G01 X8.59987 Y15.32425
G01 X8.40719 Y15.37304
G01 X8.18938 Y15.40172
G01 X8.08999 Y15.40502
G01 X7.75411 Y15.40502
G01 X7.74788 Y15.39014
G01 X7.75411 Y15.40502
G01 X7.50912 Y15.65000
G01 X7.22627 Y15.65000
G01 X7.67128 Y15.20502
G01 X7.66503 Y15.19006
G01 X7.67128 Y15.20502
G01 X8.17892 Y15.20200
G01 X8.36561 Y15.17741
G01 X8.53805 Y15.13405
G01 X8.65532 Y15.08904
G01 X8.81499 Y15.01076
G01 X8.96261 Y14.91162
G01 X9.06022 Y14.83258
G01 X9.14905 Y14.74376
G01 X9.26307 Y14.60731
G01 X9.35761 Y14.45669
G01 X9.41463 Y14.34477
G01 X9.45964 Y14.22753
G01 X9.50831 Y14.05648
G01 X9.53343 Y13.88044
G01 X9.53998 Y13.75501
G01 X9.53998 Y13.44904
G01 X9.48336 Y13.39154
G01 X9.53998 Y13.44904
G01 X10.44000 Y13.44904
G01 X10.44419 Y13.43733
G01 X10.44000 Y13.44904
G01 X10.49329 Y13.49278
G01 X10.70076 Y13.60368
G01 X10.92588 Y13.67195
G01 X11.15999 Y13.69502
G01 X13.65999 Y13.69502
G01 X13.89410 Y13.67195
G01 X14.11922 Y13.60368
G01 X14.14998 Y13.58722
G01 X14.14995 Y13.12283
G01 X14.14998 Y13.36154
G01 X14.04266 Y13.41889
G01 X13.85508 Y13.47579
G01 X13.65999 Y13.49502
G01 X11.15999 Y13.49502
G01 X10.96489 Y13.47579
G01 X10.77731 Y13.41889
G01 X10.60442 Y13.32649
G01 X10.51003 Y13.24904
G01 X10.51422 Y13.23733
G01 X10.51003 Y13.24904
G01 X9.34440 Y13.24904
G01 X9.28788 Y13.19159
G01 X9.34440 Y13.24904
G01 X9.33998 Y13.25344
G01 X9.33998 Y13.75501
G01 X9.32906 Y13.91153
G01 X9.31267 Y14.01490
G01 X9.26942 Y14.16570
G01 X9.23193 Y14.26344
G01 X9.18440 Y14.35669
G01 X9.10127 Y14.48976
G01 X9.03538 Y14.57109
G01 X8.92639 Y14.68394
G01 X8.84506 Y14.74983
G01 X8.71499 Y14.83753
G01 X8.57397 Y14.90632
G01 X8.47625 Y14.94383
G01 X8.37516 Y14.97093
G01 X8.32403 Y14.98178
G01 X8.16846 Y15.00228
G01 X8.08999 Y15.00502
G01 X7.58842 Y15.00502
G01 X7.58227 Y14.99009
G01 X7.58842 Y15.00502
G01 X7.00668 Y15.58673
G01 X6.93689 Y15.65000
G01 X7.22627 Y15.65000
G01 X6.57367 Y15.65000
G01 X6.70554 Y15.57639
G01 X6.76861 Y15.52963
G01 X6.86528 Y15.44533
G01 X7.50559 Y14.80502
G01 X7.49927 Y14.78978
G01 X7.50559 Y14.80502
G01 X8.08999 Y14.80502
G01 X8.15799 Y14.80256
G01 X8.28245 Y14.78615
G01 X8.41445 Y14.75361
G01 X8.54039 Y14.70235
G01 X8.61499 Y14.66433
G01 X8.68522 Y14.61874
G01 X8.79258 Y14.53532
G01 X8.88677 Y14.43725
G01 X8.93945 Y14.37218
G01 X8.98507 Y14.30195
G01 X9.04920 Y14.18209
G01 X9.09538 Y14.05420
G01 X9.11704 Y13.97332
G01 X9.13015 Y13.89062
G01 X9.13998 Y13.75501
G01 X9.13998 Y13.17061
G01 X9.12477 Y13.16431
G01 X9.13998 Y13.17061
G01 X9.26157 Y13.04904
G01 X9.25525 Y13.03380
G01 X9.26157 Y13.04904
G01 X10.58473 Y13.04904
G01 X10.58923 Y13.03675
G01 X10.58473 Y13.04904
G01 X10.59431 Y13.06070
G01 X10.71554 Y13.16019
G01 X10.85384 Y13.23411
G01 X11.00391 Y13.27965
G01 X11.15999 Y13.29502
G01 X13.65999 Y13.29502
G01 X13.81607 Y13.27965
G01 X13.96613 Y13.23411
G01 X14.10444 Y13.16019
G01 X14.14995 Y13.12283
G01 X14.14995 Y12.83921
G01 X14.14995 Y14.21831
G01 X14.01114 Y14.26042
G01 X13.65999 Y14.29501
G01 X11.15999 Y14.29501
G01 X10.80884 Y14.26042
G01 X10.47117 Y14.15801
G01 X10.26731 Y14.04904
G01 X10.26881 Y14.04305
G01 X10.26731 Y14.04904
G01 X10.11613 Y14.04904
G01 X10.08082 Y14.00502
G01 X10.11613 Y14.04904
G01 X10.09520 Y14.18122
G01 X10.03028 Y14.41292
G01 X9.96276 Y14.58882
G01 X9.87721 Y14.75668
G01 X9.74846 Y14.95996
G01 X9.59492 Y15.14523
G01 X9.46170 Y15.27845
G01 X9.31529 Y15.39702
G01 X9.11499 Y15.53037
G01 X8.94712 Y15.61589
G01 X8.86589 Y15.65000
G01 X9.63762 Y15.65003
G01 X9.29749 Y15.65000
G01 X9.43284 Y15.55884
G01 X9.59553 Y15.42709
G01 X9.74356 Y15.27906
G01 X9.91029 Y15.07754
G01 X10.02428 Y14.90195
G01 X10.14546 Y14.67017
G01 X10.23662 Y14.42504
G01 X10.27572 Y14.27922
G01 X10.23492 Y14.17685
G01 X10.27572 Y14.27922
G01 X10.39461 Y14.34277
G01 X10.76980 Y14.45658
G01 X11.15999 Y14.49501
G01 X13.65999 Y14.49501
G01 X14.05016 Y14.45658
G01 X14.14995 Y14.42631
G01 X14.14998 Y15.04675
G01 X13.65999 Y15.09501
G01 X11.15999 Y15.09501
G01 X10.65275 Y15.04505
G01 X10.63038 Y15.03827
G01 X10.54391 Y15.20195
G01 X10.39568 Y15.43019
G01 X10.21694 Y15.65000
G01 X10.39568 Y15.43019
G01 X10.54391 Y15.20195
G01 X10.63038 Y15.03827
G01 X10.61371 Y15.00479
G01 X10.63038 Y15.03827
G01 X10.65275 Y15.04505
G01 X11.15999 Y15.09501
G01 X13.65999 Y15.09501
G01 X14.14995 Y15.04675
G01 X14.14995 Y14.63431
G01 X14.08920 Y14.65275
G01 X13.65999 Y14.69501
G01 X11.15999 Y14.69501
G01 X10.73078 Y14.65275
G01 X10.40414 Y14.55364
G01 X10.37198 Y14.48790
G01 X10.40414 Y14.55364
G01 X10.32817 Y14.75153
G01 X10.19751 Y15.00195
G01 X10.07208 Y15.19509
G01 X9.92715 Y15.37406
G01 X9.72936 Y15.57571
G01 X9.63764 Y15.65000
G01 X9.93751 Y15.65003
G01 X10.04082 Y15.54670
G01 X10.23388 Y15.31264
G01 X10.39682 Y15.05668
G01 X10.51089 Y14.83286
G01 X10.52423 Y14.79809
G01 X10.49944 Y14.74089
G01 X10.52423 Y14.79809
G01 X10.69177 Y14.84889
G01 X11.15999 Y14.89501
G01 X13.65999 Y14.89501
G01 X14.12821 Y14.84889
G01 X14.14998 Y14.84231
G01 X14.14995 Y14.21831
G01 X14.14995 Y15.24675
G01 X13.65999 Y15.29501
G01 X11.15999 Y15.29501
G01 X10.74457 Y15.25409
G01 X10.72938 Y15.22288
G01 X10.74457 Y15.25409
G01 X10.71712 Y15.30195
G01 X10.55748 Y15.54777
G01 X10.47467 Y15.65000
G01 X10.72923 Y15.65003
G01 X10.84973 Y15.46446
G01 X10.83495 Y15.43372
G01 X10.84973 Y15.46446
G01 X11.15999 Y15.49501
G01 X13.65999 Y15.49501
G01 X14.14995 Y15.44675
G01 X14.14998 Y15.64675
G01 X14.11686 Y15.65000
G01 X14.14995 Y15.64675
G01 X14.14995 Y15.24675
G01 X14.14998 Y15.65000
G01 X1.65300 Y15.65000
G01 X1.14995 Y15.14696
G01 X1.14998 Y15.42981
G01 X1.37017 Y15.65000
G01 X1.65300 Y15.65000
G01 X1.14998 Y15.65000
G01 X1.14995 Y4.81919
G01 X1.27568 Y4.75564
G01 X1.38475 Y4.69287
G01 X1.52097 Y4.60306
G01 X1.38965 Y4.68985
G01 X1.32097 Y4.72968
G01 X1.32097 Y13.35001
G01 X1.32778 Y13.43878
G01 X1.34309 Y13.51569
G01 X1.35755 Y13.56334
G01 X1.38754 Y13.63578
G01 X1.41101 Y13.67970
G01 X1.45457 Y13.74488
G01 X1.51254 Y13.81247
G01 X2.86252 Y15.16248
G01 X2.91589 Y15.20967
G01 X2.96666 Y15.24657
G01 X3.05658 Y15.29590
G01 X3.09341 Y15.31114
G01 X3.19186 Y15.33984
G01 X3.25386 Y15.34967
G01 X3.32498 Y15.35404
G01 X6.15919 Y15.35211
G01 X6.24758 Y15.34147
G01 X6.37026 Y15.30426
G01 X6.44966 Y15.26400
G01 X6.51486 Y15.22044
G01 X6.58243 Y15.16248
G01 X7.33991 Y14.40502
G01 X7.33371 Y14.39032
G01 X7.33991 Y14.40502
G01 X8.13706 Y14.40309
G01 X8.25040 Y14.38404
G01 X8.32995 Y14.35818
G01 X8.41499 Y14.31793
G01 X8.52492 Y14.23807
G01 X8.58951 Y14.16961
G01 X8.63866 Y14.10195
G01 X8.68380 Y14.01940
G01 X8.72578 Y13.89016
G01 X8.73998 Y13.75501
G01 X8.73998 Y13.00492
G01 X8.72477 Y12.99862
G01 X8.73998 Y13.00492
G01 X9.09589 Y12.64902
G01 X9.08956 Y12.63380
G01 X9.09589 Y12.64902
G01 X10.79093 Y12.64904
G01 X10.80353 Y12.62545
G01 X10.79093 Y12.64904
G01 X10.82740 Y12.71724
G01 X10.87714 Y12.77785
G01 X10.93777 Y12.82761
G01 X11.00691 Y12.86456
G01 X11.08196 Y12.88732
G01 X11.15999 Y12.89502
G01 X13.65999 Y12.89502
G01 X13.73801 Y12.88732
G01 X13.81307 Y12.86456
G01 X13.88221 Y12.82761
G01 X13.94284 Y12.77785
G01 X13.99257 Y12.71724
G01 X14.02953 Y12.64808
G01 X14.05229 Y12.57305
G01 X14.05999 Y12.49502
G01 X14.05999 Y11.49502
G01 X14.05229 Y11.41697
G01 X14.02953 Y11.34193
G01 X13.99257 Y11.27280
G01 X13.94284 Y11.21217
G01 X13.88221 Y11.16243
G01 X13.81307 Y11.12545
G01 X13.73801 Y11.10269
G01 X13.65999 Y11.09502
G01 X11.95623 Y11.09502
G01 X11.47340 Y11.29502
G01 X11.21201 Y11.29505
G01 X11.39677 Y11.11026
G01 X12.36248 Y10.71026
G01 X12.51772 Y10.55502
G01 X12.51147 Y10.54011
G01 X12.51772 Y10.55502
G01 X13.65999 Y10.55502
G01 X13.76418 Y10.54590
G01 X13.86519 Y10.51882
G01 X13.95999 Y10.47463
G01 X14.04566 Y10.41463
G01 X14.11962 Y10.34069
G01 X14.14995 Y10.29733
G01 X14.14998 Y10.58484
G01 X14.09255 Y10.62504
G01 X12.58813 Y10.62502
G01 X12.56225 Y10.62845
G01 X12.56149 Y10.62466
G01 X12.56225 Y10.62845
G01 X11.87962 Y10.91024
G01 X12.54985 Y10.63264
G01 X12.57508 Y10.62588
G01 X14.14995 Y10.62502
G01 X14.14995 Y9.20229
G01 X13.98318 Y9.13145
G01 X13.85999 Y9.06180
G01 X13.97261 Y9.12622
G01 X14.05999 Y9.16406
G01 X14.05999 Y9.95502
G01 X14.05391 Y10.02446
G01 X14.03586 Y10.09182
G01 X14.00639 Y10.15502
G01 X13.96641 Y10.21212
G01 X13.91711 Y10.26142
G01 X13.85999 Y10.30142
G01 X13.79679 Y10.33089
G01 X13.72946 Y10.34895
G01 X13.65999 Y10.35502
G01 X12.43487 Y10.35502
G01 X12.42857 Y10.33978
G01 X12.43487 Y10.35502
G01 X11.87962 Y10.91026
G01 X11.39677 Y11.11026
G01 X12.35204 Y10.15502
G01 X13.65999 Y10.15502
G01 X13.69471 Y10.15197
G01 X13.72839 Y10.14295
G01 X13.75999 Y10.12822
G01 X13.78854 Y10.10823
G01 X13.81320 Y10.08357
G01 X13.83319 Y10.05502
G01 X13.84792 Y10.02342
G01 X13.85694 Y9.98974
G01 X13.85999 Y9.95502
G01 X13.85892 Y8.94407
G01 X13.82440 Y8.92020
G01 X13.75775 Y8.88311
G01 X13.71881 Y8.86698
G01 X13.66999 Y8.85342
G01 X11.15997 Y8.85319
G01 X11.12062 Y8.86002
G01 X11.08727 Y8.88233
G01 X11.06497 Y8.91568
G01 X11.05837 Y8.94501
G01 X11.05837 Y9.96505
G01 X11.06497 Y9.99436
G01 X11.10251 Y10.04443
G01 X11.17612 Y10.11021
G01 X11.13342 Y10.20887
G01 X11.07521 Y10.28654
G01 X10.71757 Y10.64394
G01 X10.66342 Y10.68423
G01 X10.58897 Y10.69418
G01 X7.49596 Y10.69398
G01 X7.44974 Y10.68875
G01 X7.38962 Y10.67511
G01 X7.29363 Y10.63335
G01 X7.23567 Y10.59601
G01 X7.23201 Y10.58621
G01 X7.25230 Y10.54636
G01 X7.23201 Y10.58621
G01 X7.23567 Y10.59601
G01 X7.15329 Y10.59761
G01 X5.43524 Y10.59601
G01 X5.36564 Y10.56558
G01 X5.30341 Y10.55403
G01 X5.26234 Y10.55202
G01 X4.07166 Y10.55243
G01 X4.03024 Y10.55519
G01 X3.97933 Y10.56713
G01 X3.91248 Y10.59690
G01 X3.86956 Y10.62675
G01 X3.83849 Y10.65471
G01 X3.80433 Y10.69429
G01 X3.78218 Y10.73045
G01 X3.70507 Y10.77381
G01 X3.69572 Y10.90132
G01 X3.69572 Y11.19875
G01 X3.70512 Y11.32675
G01 X3.72445 Y11.42426
G01 X3.75681 Y11.52822
G01 X3.81952 Y11.66855
G01 X3.82887 Y11.68466
G01 X3.90616 Y11.71791
G01 X3.82887 Y11.68466
G01 X3.84974 Y11.72070
G01 X4.16491 Y11.70277
G01 X5.01502 Y11.70249
G01 X5.17413 Y11.71427
G01 X5.34286 Y11.74226
G01 X5.42244 Y11.72621
G01 X5.48042 Y11.70221
G01 X7.02142 Y11.70404
G01 X7.09576 Y11.69223
G01 X6.93493 Y11.72070
G01 X6.81385 Y11.75212
G01 X6.63010 Y11.82088
G01 X6.46038 Y11.90404
G01 X5.81956 Y11.90404
G01 X5.70212 Y11.84414
G01 X5.54210 Y11.77666
G01 X5.34286 Y11.74226
G01 X5.54161 Y11.77831
G01 X5.70212 Y11.84414
G01 X5.90316 Y11.94998
G01 X6.07161 Y12.06002
G01 X6.13224 Y12.10404
G01 X6.15032 Y12.10205
G01 X6.13224 Y12.10404
G01 X6.13996 Y12.10988
G01 X6.20834 Y12.06002
G01 X6.37697 Y11.95026
G01 X6.57298 Y11.84645
G01 X6.76193 Y11.77013
G01 X6.92975 Y11.72194
G01 X7.10099 Y11.69151
G01 X7.23625 Y11.68059
G01 X7.98893 Y11.67953
G01 X8.41382 Y11.50404
G04 P0 ( dwell for no time -- G64 should not smooth over this point )
G00 Z5.00000 ( retract )

G00 X5.12498 Y8.55004 ( rapid move to begin. )
G01 F100.00000
( Mill infeed pass 1/1 )
G01 Z-0.15000
G04 P0 ( dwell for no time -- G64 should not smooth over this point )
G01 F200.00000
G01 X5.12498 Y8.55004
G01 X5.12498 Y8.65047
G01 X5.29930 Y8.65195
G01 X5.37065 Y8.66714
G01 X5.44258 Y8.70003
G01 X5.59886 Y8.70003
G01 X5.54047 Y8.64164
G01 X5.44263 Y8.58375
G01 X5.32886 Y8.55070
G01 X5.12498 Y8.55004
G04 P0 ( dwell for no time -- G64 should not smooth over this point )
G00 Z5.00000 ( retract )

G00 X3.75109 Y5.77001 ( rapid move to begin. )
G01 F100.00000
( Mill infeed pass 1/1 )
G01 Z-0.15000
G04 P0 ( dwell for no time -- G64 should not smooth over this point )
G01 F200.00000
G01 X3.75109 Y5.77001
G01 X3.80949 Y5.82841
G01 X3.90733 Y5.88629
G01 X4.02117 Y5.91936
G01 X4.22495 Y5.92002
G01 X4.22495 Y5.81954
G01 X4.05068 Y5.81807
G01 X3.97933 Y5.80288
G01 X3.90743 Y5.77004
G01 X3.75109 Y5.77001
G04 P0 ( dwell for no time -- G64 should not smooth over this point )
G00 Z5.00000 ( retract )

G00 X3.75109 Y4.87001 ( rapid move to begin. )
G01 F100.00000
( Mill infeed pass 1/1 )
G01 Z-0.15000
G04 P0 ( dwell for no time -- G64 should not smooth over this point )
G01 F200.00000
G01 X3.75109 Y4.87001
G01 X3.80949 Y4.81162
G01 X3.90735 Y4.75373
G01 X4.02114 Y4.72069
G01 X4.22495 Y4.72003
G01 X4.22495 Y4.82048
G01 X4.05068 Y4.82196
G01 X3.97933 Y4.83715
G01 X3.90738 Y4.87001
G01 X3.75109 Y4.87001
G04 P0 ( dwell for no time -- G64 should not smooth over this point )
G00 Z5.00000 ( retract )

G00 X5.12498 Y4.72003 ( rapid move to begin. )
G01 F100.00000
( Mill infeed pass 1/1 )
G01 Z-0.15000
G04 P0 ( dwell for no time -- G64 should not smooth over this point )
G01 F200.00000
G01 X5.12498 Y4.72003
G01 X5.12498 Y4.82048
G01 X5.29930 Y4.82196
G01 X5.37065 Y4.83715
G01 X5.44260 Y4.87001
G01 X5.59886 Y4.87001
G01 X5.54047 Y4.81162
G01 X5.44263 Y4.75376
G01 X5.32881 Y4.72069
G01 X5.12498 Y4.72003
G04 P0 ( dwell for no time -- G64 should not smooth over this point )
G00 Z5.00000 ( retract )

G00 X10.85999 Y3.83789 ( rapid move to begin. )
G01 F100.00000
( Mill infeed pass 1/1 )
G01 Z-0.15000
G04 P0 ( dwell for no time -- G64 should not smooth over this point )
G01 F200.00000
G01 X10.85999 Y3.83789
G01 X10.85999 Y3.92501
G01 X10.95999 Y3.92501
G01 X10.96301 Y3.84027
G01 X10.97206 Y3.80662
G01 X10.98679 Y3.77502
G01 X11.00678 Y3.74645
G01 X11.03144 Y3.72181
G01 X11.05999 Y3.70182
G01 X11.09159 Y3.68709
G01 X11.12527 Y3.67804
G01 X11.15999 Y3.67502
G01 X11.95996 Y3.67502
G01 X11.95996 Y3.57505
G01 X11.09893 Y3.57761
G01 X11.01473 Y3.60901
G01 X10.94567 Y3.66072
G01 X10.89395 Y3.72978
G01 X10.86256 Y3.81401
G01 X10.85999 Y3.83789
G04 P0 ( dwell for no time -- G64 should not smooth over this point )
G00 Z5.00000 ( retract )

G00 X10.85999 Y4.82503 ( rapid move to begin. )
G01 F100.00000
( Mill infeed pass 1/1 )
G01 Z-0.15000
G04 P0 ( dwell for no time -- G64 should not smooth over this point )
G01 F200.00000
G01 X10.85999 Y4.82503
G01 X10.86256 Y4.93605
G01 X10.89398 Y5.02028
G01 X10.94567 Y5.08934
G01 X11.01473 Y5.14106
G01 X11.09893 Y5.17245
G01 X11.95996 Y5.17502
G01 X11.95996 Y5.07502
G01 X11.15999 Y5.07502
G01 X11.12098 Y5.07118
G01 X11.08346 Y5.05978
G01 X11.04887 Y5.04131
G01 X11.01856 Y5.01645
G01 X10.99370 Y4.98612
G01 X10.97521 Y4.95155
G01 X10.96383 Y4.91403
G01 X10.95999 Y4.82501
G01 X10.85999 Y4.82503

G04 P0 ( dwell for no time -- G64 should not smooth over this point )
G00 Z10.000000 ( retract )

M5 ( Spindle off. )
G04 P1.000000
M9 ( Coolant off. )
M2 ( Program end. )

