( pcb2gcode 2.5.0 )
( Software-independent Gcode )

G94 ( Millimeters per minute feed rate. )
G21 ( Units == Millimeters. )

G90 ( Absolute coordinates. )
G00 S10000 ( RPM spindle speed. )
G64 P0.01016 ( set maximum deviation from commanded toolpath )
G01 F200.00000 ( Feedrate. )


G00 Z10.00000 (Retract to tool change height)
T0
M5      (Spindle stop.)
G04 P1.00000 (Wait for spindle to stop)
(MSG, Change tool bit to cutter diameter 1.10000mm)
M6      (Tool change.)
M0      (Temporary machine stop.)
M3 ( Spindle on clockwise. )
G04 P1.00000 (Wait for spindle to get up to speed)
G04 P0 ( dwell for no time -- G64 should not smooth over this point )
G00 Z5.00000 ( retract )

G00 X0.59997 Y1.15001 ( rapid move to begin. )
G01 Z-0.50000 F100.00000 ( plunge. )
G04 P0 ( dwell for no time -- G64 should not smooth over this point )
G01 F200.00000
G01 X0.59997 Y15.65000
G01 X0.61053 Y15.75732
G01 X0.64183 Y15.86049
G01 X0.69265 Y15.95559
G01 X0.76105 Y16.03893
G01 X0.84439 Y16.10733
G01 X0.93949 Y16.15816
G01 X1.04266 Y16.18945
G01 X1.14998 Y16.20001
G01 X6.59998 Y16.20001
G01 X8.69998 Y16.20001
G01 X14.14998 Y16.20001
G01 X14.25727 Y16.18945
G01 X14.36044 Y16.15816
G01 X14.45554 Y16.10733
G01 X14.53888 Y16.03893
G01 X14.60728 Y15.95559
G01 X14.65810 Y15.86049
G01 X14.68940 Y15.75732
G01 X14.69996 Y15.65000
G01 X14.69996 Y1.15001
G01 X14.68940 Y1.04272
G01 X14.65810 Y0.93954
G01 X14.60728 Y0.84444
G01 X14.53888 Y0.76111
G01 X14.45554 Y0.69270
G01 X14.36044 Y0.64188
G01 X14.25727 Y0.61059
G01 X14.14998 Y0.60002
G01 X8.69998 Y0.60002
G01 X6.59998 Y0.60002
G01 X1.14998 Y0.60002
G01 X1.04266 Y0.61059
G01 X0.93949 Y0.64188
G01 X0.84439 Y0.69270
G01 X0.76105 Y0.76111
G01 X0.69265 Y0.84444
G01 X0.64183 Y0.93954
G01 X0.61053 Y1.04272
G01 X0.59997 Y1.15001
G01 Z-1.00000 F100.00000 ( plunge. )
G04 P0 ( dwell for no time -- G64 should not smooth over this point )
G01 F200.00000
G01 X0.59997 Y15.65000
G01 X0.61053 Y15.75732
G01 X0.64183 Y15.86049
G01 X0.69265 Y15.95559
G01 X0.76105 Y16.03893
G01 X0.84439 Y16.10733
G01 X0.93949 Y16.15816
G01 X1.04266 Y16.18945
G01 X1.14998 Y16.20001
G01 X6.59998 Y16.20001
G00 Z-0.60000
G01 X8.69998 Y16.20001
G01 Z-1.00000 F100.00000
G01 F200.00000
G01 X14.14998 Y16.20001
G01 X14.25727 Y16.18945
G01 X14.36044 Y16.15816
G01 X14.45554 Y16.10733
G01 X14.53888 Y16.03893
G01 X14.60728 Y15.95559
G01 X14.65810 Y15.86049
G01 X14.68940 Y15.75732
G01 X14.69996 Y15.65000
G01 X14.69996 Y1.15001
G01 X14.68940 Y1.04272
G01 X14.65810 Y0.93954
G01 X14.60728 Y0.84444
G01 X14.53888 Y0.76111
G01 X14.45554 Y0.69270
G01 X14.36044 Y0.64188
G01 X14.25727 Y0.61059
G01 X14.14998 Y0.60002
G01 X8.69998 Y0.60002
G00 Z-0.60000
G01 X6.59998 Y0.60002
G01 Z-1.00000 F100.00000
G01 F200.00000
G01 X1.14998 Y0.60002
G01 X1.04266 Y0.61059
G01 X0.93949 Y0.64188
G01 X0.84439 Y0.69270
G01 X0.76105 Y0.76111
G01 X0.69265 Y0.84444
G01 X0.64183 Y0.93954
G01 X0.61053 Y1.04272
G01 X0.59997 Y1.15001
G01 Z-1.50000 F100.00000 ( plunge. )
G04 P0 ( dwell for no time -- G64 should not smooth over this point )
G01 F200.00000
G01 X0.59997 Y15.65000
G01 X0.61053 Y15.75732
G01 X0.64183 Y15.86049
G01 X0.69265 Y15.95559
G01 X0.76105 Y16.03893
G01 X0.84439 Y16.10733
G01 X0.93949 Y16.15816
G01 X1.04266 Y16.18945
G01 X1.14998 Y16.20001
G01 X6.59998 Y16.20001
G00 Z-0.60000
G01 X8.69998 Y16.20001
G01 Z-1.50000 F100.00000
G01 F200.00000
G01 X14.14998 Y16.20001
G01 X14.25727 Y16.18945
G01 X14.36044 Y16.15816
G01 X14.45554 Y16.10733
G01 X14.53888 Y16.03893
G01 X14.60728 Y15.95559
G01 X14.65810 Y15.86049
G01 X14.68940 Y15.75732
G01 X14.69996 Y15.65000
G01 X14.69996 Y1.15001
G01 X14.68940 Y1.04272
G01 X14.65810 Y0.93954
G01 X14.60728 Y0.84444
G01 X14.53888 Y0.76111
G01 X14.45554 Y0.69270
G01 X14.36044 Y0.64188
G01 X14.25727 Y0.61059
G01 X14.14998 Y0.60002
G01 X8.69998 Y0.60002
G00 Z-0.60000
G01 X6.59998 Y0.60002
G01 Z-1.50000 F100.00000
G01 F200.00000
G01 X1.14998 Y0.60002
G01 X1.04266 Y0.61059
G01 X0.93949 Y0.64188
G01 X0.84439 Y0.69270
G01 X0.76105 Y0.76111
G01 X0.69265 Y0.84444
G01 X0.64183 Y0.93954
G01 X0.61053 Y1.04272
G01 X0.59997 Y1.15001
G01 Z-2.00000 F100.00000 ( plunge. )
G04 P0 ( dwell for no time -- G64 should not smooth over this point )
G01 F200.00000
G01 X0.59997 Y15.65000
G01 X0.61053 Y15.75732
G01 X0.64183 Y15.86049
G01 X0.69265 Y15.95559
G01 X0.76105 Y16.03893
G01 X0.84439 Y16.10733
G01 X0.93949 Y16.15816
G01 X1.04266 Y16.18945
G01 X1.14998 Y16.20001
G01 X6.59998 Y16.20001
G00 Z-0.60000
G01 X8.69998 Y16.20001
G01 Z-2.00000 F100.00000
G01 F200.00000
G01 X14.14998 Y16.20001
G01 X14.25727 Y16.18945
G01 X14.36044 Y16.15816
G01 X14.45554 Y16.10733
G01 X14.53888 Y16.03893
G01 X14.60728 Y15.95559
G01 X14.65810 Y15.86049
G01 X14.68940 Y15.75732
G01 X14.69996 Y15.65000
G01 X14.69996 Y1.15001
G01 X14.68940 Y1.04272
G01 X14.65810 Y0.93954
G01 X14.60728 Y0.84444
G01 X14.53888 Y0.76111
G01 X14.45554 Y0.69270
G01 X14.36044 Y0.64188
G01 X14.25727 Y0.61059
G01 X14.14998 Y0.60002
G01 X8.69998 Y0.60002
G00 Z-0.60000
G01 X6.59998 Y0.60002
G01 Z-2.00000 F100.00000
G01 F200.00000
G01 X1.14998 Y0.60002
G01 X1.04266 Y0.61059
G01 X0.93949 Y0.64188
G01 X0.84439 Y0.69270
G01 X0.76105 Y0.76111
G01 X0.69265 Y0.84444
G01 X0.64183 Y0.93954
G01 X0.61053 Y1.04272
G01 X0.59997 Y1.15001
G01 Z-2.50000 F100.00000 ( plunge. )
G04 P0 ( dwell for no time -- G64 should not smooth over this point )
G01 F200.00000
G01 X0.59997 Y15.65000
G01 X0.61053 Y15.75732
G01 X0.64183 Y15.86049
G01 X0.69265 Y15.95559
G01 X0.76105 Y16.03893
G01 X0.84439 Y16.10733
G01 X0.93949 Y16.15816
G01 X1.04266 Y16.18945
G01 X1.14998 Y16.20001
G01 X6.59998 Y16.20001
G00 Z-0.60000
G01 X8.69998 Y16.20001
G01 Z-2.50000 F100.00000
G01 F200.00000
G01 X14.14998 Y16.20001
G01 X14.25727 Y16.18945
G01 X14.36044 Y16.15816
G01 X14.45554 Y16.10733
G01 X14.53888 Y16.03893
G01 X14.60728 Y15.95559
G01 X14.65810 Y15.86049
G01 X14.68940 Y15.75732
G01 X14.69996 Y15.65000
G01 X14.69996 Y1.15001
G01 X14.68940 Y1.04272
G01 X14.65810 Y0.93954
G01 X14.60728 Y0.84444
G01 X14.53888 Y0.76111
G01 X14.45554 Y0.69270
G01 X14.36044 Y0.64188
G01 X14.25727 Y0.61059
G01 X14.14998 Y0.60002
G01 X8.69998 Y0.60002
G00 Z-0.60000
G01 X6.59998 Y0.60002
G01 Z-2.50000 F100.00000
G01 F200.00000
G01 X1.14998 Y0.60002
G01 X1.04266 Y0.61059
G01 X0.93949 Y0.64188
G01 X0.84439 Y0.69270
G01 X0.76105 Y0.76111
G01 X0.69265 Y0.84444
G01 X0.64183 Y0.93954
G01 X0.61053 Y1.04272
G01 X0.59997 Y1.15001

G04 P0 ( dwell for no time -- G64 should not smooth over this point )
G00 Z10.000000 ( retract )

M5 ( Spindle off. )
G04 P1.000000
M9 ( Coolant off. )
M2 ( Program end. )

